; generated by Slic3r 1.3.1-dev (Build 8c69278) on 2021-12-10 at 13:24:49

; external perimeters extrusion width = 0.45mm (3.99mm^3/s)
; perimeters extrusion width = 0.45mm (3.99mm^3/s)
; infill extrusion width = 0.45mm (3.99mm^3/s)
; solid infill extrusion width = 0.45mm (4.99mm^3/s)
; top infill extrusion width = 0.45mm (3.00mm^3/s)
; support material extrusion width = 0.45mm (4.99mm^3/s)

M107
G92 E0
M104 S205 ; set temperature
G28 ; home all axes
G1 Z5 F5000 ; lift nozzle

; Filament gcode

M109 S205 ; set temperature and wait for it to be reached
G21 ; set units to millimeters
G90 ; use absolute coordinates
M82 ; use absolute distances for extrusion
G92 E0
G1 Z0.250 F7800.000
G1 E-2.00000 F2400.00000
G92 E0
G1 X127.700 Y137.503 F7800.000
G1 E2.00000 F2400.00000
G1 F2400.000
G1 X127.700 Y162.497 E3.06859
G1 X127.700 Y137.503 E4.13718
G1 X127.723 Y137.030 E4.15743
G1 X127.792 Y136.564 E4.17755
G1 X127.906 Y136.107 E4.19769
G1 X128.102 Y135.587 E4.22143
G1 X128.102 Y164.413 E5.45380
G1 X128.266 Y164.763 E5.47034
G1 X128.503 Y165.157 E5.49002
G1 X128.503 Y134.843 E6.78605
G1 X128.790 Y134.455 E6.80666
G1 X128.905 Y134.327 E6.81403
G1 X128.905 Y165.673 E8.15418
G1 X129.105 Y165.895 E8.16694
G1 X129.307 Y166.077 E8.17856
G1 X129.307 Y133.923 E9.55322
G1 X129.709 Y133.601 E9.57523
G1 X129.709 Y166.399 E10.97741
G1 X130.111 Y166.658 E10.99785
G1 X130.111 Y133.342 E12.42216
G1 X130.512 Y133.137 E12.44146
G1 X130.512 Y166.863 E13.88336
G1 X130.914 Y167.024 E13.90187
G1 X130.914 Y162.169 E14.10946
G1 X130.842 Y161.929 E14.12016
G1 X130.799 Y161.500 E14.13860
G1 X130.842 Y161.071 E14.15704
G1 X130.914 Y160.831 E14.16774
G1 X130.914 Y139.169 E15.09387
G1 X130.842 Y138.929 E15.10457
G1 X130.799 Y138.500 E15.12301
G1 X130.842 Y138.071 E15.14146
G1 X130.914 Y137.831 E15.15215
G1 X130.914 Y132.976 E15.35975
G1 X131.316 Y132.854 E15.37769
G1 X131.316 Y137.100 E15.55921
G1 X131.444 Y136.944 E15.56783
G1 X131.718 Y136.719 E15.58298
G1 X131.718 Y132.769 E15.75185
G1 X132.120 Y132.719 E15.76916
G1 X132.120 Y136.487 E15.93029
G1 X132.521 Y136.357 E15.94835
G1 X132.521 Y132.700 E16.10469
G1 X132.923 Y132.700 E16.12187
G1 X132.923 Y136.307 E16.27609
G1 X133.325 Y136.331 E16.29330
G1 X133.325 Y132.700 E16.44857
G1 X133.727 Y132.700 E16.46575
G1 X133.727 Y136.432 E16.62531
G1 X133.842 Y136.467 E16.63046
G1 X134.129 Y136.620 E16.64435
G1 X134.129 Y132.700 E16.81196
G1 X134.530 Y132.700 E16.82914
G1 X134.530 Y136.923 E17.00969
G1 X134.830 Y137.277 E17.02953
G1 X134.932 Y137.469 E17.03883
G1 X134.932 Y132.700 E17.24274
G1 X135.334 Y132.700 E17.25991
G1 X135.334 Y167.300 E18.73919
G1 X135.736 Y167.300 E18.75637
G1 X135.736 Y132.700 E20.23564
G1 X136.138 Y132.700 E20.25282
G1 X136.138 Y167.300 E21.73210
G1 X136.540 Y167.300 E21.74928
G1 X136.540 Y132.700 E23.22855
G1 X136.941 Y132.700 E23.24573
G1 X136.941 Y167.300 E24.72500
G1 X137.343 Y167.300 E24.74218
G1 X137.343 Y132.700 E26.22146
G1 X137.745 Y132.700 E26.23864
G1 X137.745 Y167.300 E27.71791
G1 X138.147 Y167.300 E27.73509
G1 X138.147 Y132.700 E29.21437
G1 X138.549 Y132.700 E29.23154
G1 X138.549 Y167.300 E30.71082
G1 X138.950 Y167.300 E30.72800
G1 X138.950 Y132.700 E32.20727
G1 X139.352 Y132.700 E32.22445
G1 X139.352 Y167.300 E33.70373
G1 X139.754 Y167.300 E33.72090
G1 X139.754 Y132.700 E35.20018
G1 X140.156 Y132.700 E35.21736
G1 X140.156 Y167.300 E36.69663
G1 X140.558 Y167.300 E36.71381
G1 X140.558 Y132.700 E38.19309
G1 X140.959 Y132.700 E38.21027
G1 X140.959 Y167.300 E39.68954
G1 X141.361 Y167.300 E39.70672
G1 X141.361 Y132.700 E41.18599
G1 X141.763 Y132.700 E41.20317
G1 X141.763 Y167.300 E42.68245
G1 X142.165 Y167.300 E42.69963
G1 X142.165 Y132.700 E44.17890
G1 X142.567 Y132.700 E44.19608
G1 X142.567 Y167.300 E45.67535
G1 X142.968 Y167.300 E45.69253
G1 X142.968 Y132.700 E47.17181
G1 X143.370 Y132.700 E47.18899
G1 X143.370 Y167.300 E48.66826
G1 X143.772 Y167.300 E48.68544
G1 X143.772 Y132.700 E50.16472
G1 X144.174 Y132.700 E50.18189
G1 X144.174 Y167.300 E51.66117
G1 X144.576 Y167.300 E51.67835
G1 X144.576 Y132.700 E53.15762
G1 X144.977 Y132.700 E53.17480
G1 X144.977 Y167.300 E54.65408
G1 X145.379 Y167.300 E54.67125
G1 X145.379 Y132.700 E56.15053
G1 X145.781 Y132.700 E56.16771
G1 X145.781 Y167.300 E57.64698
G1 X146.183 Y167.300 E57.66416
G1 X146.183 Y151.727 E58.32998
G1 X146.512 Y152.343 E58.35983
G1 X146.585 Y152.428 E58.36463
G1 X146.585 Y167.300 E59.00046
G1 X146.986 Y167.300 E59.01764
G1 X146.986 Y152.918 E59.63254
G1 X147.388 Y153.265 E59.65524
G1 X147.388 Y167.300 E60.25530
G1 X147.790 Y167.300 E60.27248
G1 X147.790 Y153.559 E60.85997
G1 X148.192 Y153.774 E60.87945
G1 X148.192 Y167.300 E61.45775
G1 X148.594 Y167.300 E61.47493
G1 X148.594 Y153.942 E62.04604
G1 X148.995 Y154.064 E62.06399
G1 X148.995 Y167.300 E62.62989
G1 X149.397 Y167.300 E62.64707
G1 X149.397 Y154.141 E63.20966
G1 X149.799 Y154.181 E63.22692
G1 X149.799 Y167.300 E63.78781
G1 X150.201 Y167.300 E63.80499
G1 X150.201 Y154.181 E64.36589
G1 X150.603 Y154.141 E64.38315
G1 X150.603 Y167.300 E64.94573
G1 X151.005 Y167.300 E64.96291
G1 X151.005 Y154.064 E65.52881
G1 X151.406 Y153.942 E65.54676
G1 X151.406 Y167.300 E66.11787
G1 X151.808 Y167.300 E66.13505
G1 X151.808 Y153.774 E66.71336
G1 X152.210 Y153.559 E66.73283
G1 X152.210 Y167.300 E67.32032
G1 X152.612 Y167.300 E67.33750
G1 X152.612 Y153.265 E67.93757
G1 X153.014 Y152.918 E67.96026
G1 X153.014 Y167.300 E68.57517
G1 X153.415 Y167.300 E68.59234
G1 X153.415 Y152.428 E69.22818
G1 X153.493 Y152.334 E69.23339
G1 X153.817 Y151.727 E69.26282
G1 X153.817 Y167.300 E69.92863
G1 X154.219 Y167.300 E69.94581
G1 X154.219 Y132.700 E71.42509
G1 X154.621 Y132.700 E71.44227
G1 X154.621 Y167.300 E72.92154
G1 X155.023 Y167.300 E72.93872
G1 X155.023 Y132.700 E74.41800
G1 X155.424 Y132.700 E74.43517
G1 X155.424 Y167.300 E75.91445
G1 X155.826 Y167.300 E75.93163
G1 X155.826 Y132.700 E77.41090
G1 X156.228 Y132.700 E77.42808
G1 X156.228 Y167.300 E78.90736
G1 X156.630 Y167.300 E78.92453
G1 X156.630 Y132.700 E80.40381
G1 X157.032 Y132.700 E80.42099
G1 X157.032 Y167.300 E81.90026
G1 X157.433 Y167.300 E81.91744
G1 X157.433 Y132.700 E83.39672
G1 X157.835 Y132.700 E83.41389
G1 X157.835 Y167.300 E84.89317
G1 X158.237 Y167.300 E84.91035
G1 X158.237 Y132.700 E86.38962
G1 X158.639 Y132.700 E86.40680
G1 X158.639 Y167.300 E87.88608
G1 X159.041 Y167.300 E87.90326
G1 X159.041 Y132.700 E89.38253
G1 X159.442 Y132.700 E89.39971
G1 X159.442 Y167.300 E90.87898
G1 X159.844 Y167.300 E90.89616
G1 X159.844 Y132.700 E92.37544
G1 X160.246 Y132.700 E92.39262
G1 X160.246 Y167.300 E93.87189
G1 X160.648 Y167.300 E93.88907
G1 X160.648 Y132.700 E95.36834
G1 X161.050 Y132.700 E95.38552
G1 X161.050 Y167.300 E96.86480
G1 X161.451 Y167.300 E96.88198
G1 X161.451 Y132.700 E98.36125
G1 X161.853 Y132.700 E98.37843
G1 X161.853 Y167.300 E99.85771
G1 X162.255 Y167.300 E99.87488
G1 X162.255 Y132.700 E101.35416
G1 X162.657 Y132.700 E101.37134
G1 X162.657 Y167.300 E102.85061
G1 X163.059 Y167.300 E102.86779
G1 X163.059 Y132.700 E104.34707
G1 X163.461 Y132.700 E104.36424
G1 X163.461 Y167.300 E105.84352
G1 X163.862 Y167.300 E105.86070
G1 X163.862 Y132.700 E107.33997
G1 X164.264 Y132.700 E107.35715
G1 X164.264 Y167.300 E108.83643
G1 X164.666 Y167.300 E108.85360
G1 X164.666 Y132.700 E110.33288
G1 X165.068 Y132.700 E110.35006
G1 X165.068 Y137.469 E110.55397
G1 X165.170 Y137.277 E110.56327
G1 X165.470 Y136.923 E110.58310
G1 X165.470 Y132.700 E110.76366
G1 X165.871 Y132.700 E110.78083
G1 X165.871 Y136.620 E110.94844
G1 X166.158 Y136.467 E110.96233
G1 X166.273 Y136.432 E110.96748
G1 X166.273 Y132.700 E111.12704
G1 X166.675 Y132.700 E111.14422
G1 X166.675 Y136.331 E111.29949
G1 X167.077 Y136.306 E111.31670
G1 X167.077 Y132.700 E111.47088
G1 X167.479 Y132.700 E111.48806
G1 X167.479 Y136.357 E111.64440
G1 X167.880 Y136.487 E111.66246
G1 X167.880 Y132.719 E111.82359
G1 X168.282 Y132.769 E111.84090
G1 X168.282 Y136.719 E112.00977
G1 X168.556 Y136.944 E112.02492
G1 X168.684 Y137.100 E112.03354
G1 X168.684 Y132.854 E112.21506
G1 X169.086 Y132.976 E112.23301
G1 X169.086 Y137.815 E112.43992
G1 E110.43992 F2400.00000
G92 E0
G1 X165.068 Y139.531 F7800.000
G1 E2.00000 F2400.00000
G1 F2400.000
G1 X165.068 Y160.469 E2.89517
G1 X165.170 Y160.277 E2.90447
G1 X165.470 Y159.923 E2.92430
G1 X165.470 Y140.077 E3.77277
G1 X165.777 Y140.330 E3.78980
G1 X165.871 Y140.380 E3.79435
G1 X165.871 Y159.620 E4.61692
G1 X166.157 Y159.467 E4.63077
G1 X166.273 Y159.432 E4.63596
G1 X166.273 Y140.568 E5.44244
G1 X166.589 Y140.664 E5.45655
G1 X166.675 Y140.672 E5.46024
G1 X166.675 Y159.310 E6.25708
G1 X166.827 Y159.264 E6.26388
G1 X166.827 Y159.316 E6.26612
G1 X167.077 Y159.307 E6.27681
G1 X167.077 Y140.693 E7.07260
G1 X167.479 Y140.643 E7.08991
G1 X167.479 Y159.357 E7.88995
G1 X167.880 Y159.487 E7.90802
G1 X167.880 Y140.513 E8.71923
G1 X168.223 Y140.330 E8.73582
G1 X168.282 Y140.281 E8.73912
G1 X168.282 Y159.719 E9.57016
G1 X168.556 Y159.944 E9.58531
G1 X168.684 Y160.100 E9.59393
G1 X168.684 Y139.900 E10.45752
G1 X168.830 Y139.723 E10.46734
G1 X169.033 Y139.342 E10.48579
G1 X169.086 Y139.169 E10.49354
G1 X169.086 Y160.831 E11.41968
G1 E9.41968 F2400.00000
G92 E0
G1 X172.300 Y162.497 F7800.000
G1 E2.00000 F2400.00000
G1 F2400.000
G1 X172.300 Y137.503 E3.06857
G1 X172.277 Y137.030 E3.08883
G1 X172.208 Y136.564 E3.10896
G1 X172.094 Y136.107 E3.12909
G1 X171.898 Y135.587 E3.15283
G1 X171.898 Y164.413 E4.38521
G1 X171.734 Y164.763 E4.40175
G1 X171.497 Y165.157 E4.42142
G1 X171.497 Y134.843 E5.71745
G1 X171.210 Y134.455 E5.73806
G1 X171.095 Y134.327 E5.74543
G1 X171.095 Y165.673 E7.08557
G1 X170.895 Y165.895 E7.09834
G1 X170.693 Y166.077 E7.10996
G1 X170.693 Y133.923 E8.48462
G1 X170.291 Y133.601 E8.50663
G1 X170.291 Y166.399 E9.90881
G1 X169.889 Y166.658 E9.92924
G1 X169.889 Y133.342 E11.35356
G1 X169.488 Y133.137 E11.37286
G1 X169.488 Y166.863 E12.81475
G1 X169.086 Y167.024 E12.83326
G1 X169.086 Y162.169 E13.04086
G1 X169.033 Y162.342 E13.04861
G1 X168.830 Y162.723 E13.06705
G1 X168.684 Y162.900 E13.07688
G1 X168.684 Y167.146 E13.25840
G1 X168.282 Y167.231 E13.27595
G1 X168.282 Y163.281 E13.44482
G1 X168.223 Y163.330 E13.44812
G1 X167.880 Y163.513 E13.46471
G1 X167.880 Y167.281 E13.62584
G1 X167.479 Y167.300 E13.64303
G1 X167.479 Y163.643 E13.79938
G1 X167.077 Y163.693 E13.81668
G1 X167.077 Y167.300 E13.97090
G1 X166.675 Y167.300 E13.98808
G1 X166.675 Y163.669 E14.14335
G1 X166.571 Y163.658 E14.14783
G1 X166.273 Y163.568 E14.16112
G1 X166.273 Y167.300 E14.32068
G1 X165.871 Y167.300 E14.33786
G1 X165.871 Y163.380 E14.50547
G1 X165.777 Y163.330 E14.51002
G1 X165.470 Y163.077 E14.52705
G1 X165.470 Y167.300 E14.70760
G1 X165.068 Y167.300 E14.72478
G1 X165.068 Y162.531 E14.92869
G1 E12.92869 F2400.00000
G92 E0
G1 X153.817 Y148.273 F7800.000
G1 E2.00000 F2400.00000
G1 F2400.000
G1 X153.817 Y132.700 E2.66582
G1 X153.415 Y132.700 E2.68299
G1 X153.415 Y147.572 E3.31883
G1 X153.014 Y147.082 E3.34591
G1 X153.014 Y132.700 E3.96081
G1 X152.612 Y132.700 E3.97799
G1 X152.612 Y146.735 E4.57806
G1 X152.334 Y146.507 E4.59343
G1 X152.210 Y146.441 E4.59943
G1 X152.210 Y132.700 E5.18692
G1 X151.808 Y132.700 E5.20410
G1 X151.808 Y146.226 E5.78240
G1 X151.608 Y146.119 E5.79213
G1 X151.406 Y146.058 E5.80112
G1 X151.406 Y132.700 E6.37223
G1 X151.005 Y132.700 E6.38940
G1 X151.005 Y145.936 E6.95530
G1 X150.820 Y145.880 E6.96357
G1 X150.603 Y145.859 E6.97288
G1 X150.603 Y132.700 E7.53547
G1 X150.201 Y132.700 E7.55265
G1 X150.201 Y145.819 E8.11354
G1 X150.000 Y145.799 E8.12217
G1 X149.799 Y145.819 E8.13080
G1 X149.799 Y132.700 E8.69170
G1 X149.397 Y132.700 E8.70888
G1 X149.397 Y145.859 E9.27146
G1 X149.180 Y145.880 E9.28078
G1 X148.995 Y145.936 E9.28904
G1 X148.995 Y132.700 E9.85494
G1 X148.594 Y132.700 E9.87212
G1 X148.594 Y146.058 E10.44323
G1 X148.392 Y146.119 E10.45222
G1 X148.192 Y146.226 E10.46194
G1 X148.192 Y132.700 E11.04025
G1 X147.790 Y132.700 E11.05743
G1 X147.790 Y146.441 E11.64491
G1 X147.666 Y146.507 E11.65091
G1 X147.388 Y146.735 E11.66629
G1 X147.388 Y132.700 E12.26636
G1 X146.986 Y132.700 E12.28353
G1 X146.986 Y147.082 E12.89844
G1 X146.585 Y147.572 E12.92551
G1 X146.585 Y132.700 E13.56135
G1 X146.183 Y132.700 E13.57853
G1 X146.183 Y148.273 E14.24434
G1 X146.119 Y148.392 E14.25012
G1 X145.880 Y149.180 E14.28533
G1 X145.799 Y150.000 E14.32053
G1 X145.880 Y150.820 E14.35574
G1 X146.119 Y151.608 E14.39094
G1 X146.183 Y151.727 E14.39672
G1 E12.39672 F2400.00000
G92 E0
G1 X134.932 Y160.469 F7800.000
G1 E2.00000 F2400.00000
G1 F2400.000
G1 X134.932 Y139.531 E2.89518
G1 X134.830 Y139.723 E2.90447
G1 X134.530 Y140.077 E2.92431
G1 X134.530 Y159.923 E3.77277
G1 X134.223 Y159.670 E3.78980
G1 X134.129 Y159.620 E3.79435
G1 X134.129 Y140.380 E4.61692
G1 X133.842 Y140.533 E4.63081
G1 X133.727 Y140.568 E4.63596
G1 X133.727 Y159.432 E5.44244
G1 X133.429 Y159.342 E5.45573
G1 X133.325 Y159.331 E5.46021
G1 X133.325 Y140.669 E6.25810
G1 X132.923 Y140.693 E6.27531
G1 X132.923 Y159.307 E7.07110
G1 X132.521 Y159.357 E7.08841
G1 X132.521 Y140.643 E7.88845
G1 X132.120 Y140.513 E7.90652
G1 X132.120 Y159.487 E8.71773
G1 X131.777 Y159.670 E8.73432
G1 X131.718 Y159.719 E8.73762
G1 X131.718 Y140.281 E9.56866
G1 X131.444 Y140.056 E9.58381
G1 X131.316 Y139.900 E9.59243
G1 X131.316 Y160.100 E10.45602
G1 X131.170 Y160.277 E10.46584
G1 X130.967 Y160.658 E10.48429
G1 X130.914 Y160.831 E10.49204
G1 E8.49204 F2400.00000
G92 E0
G1 X130.914 Y167.024 F7800.000
G1 E2.00000 F2400.00000
G1 F2400.000
G1 X131.316 Y167.146 E2.01795
G1 X131.316 Y162.900 E2.19947
G1 X131.444 Y163.056 E2.20809
G1 X131.718 Y163.281 E2.22323
G1 X131.718 Y167.231 E2.39211
G1 X132.120 Y167.281 E2.40942
G1 X132.120 Y163.513 E2.57054
G1 X132.521 Y163.643 E2.58861
G1 X132.521 Y167.300 E2.74495
G1 X132.923 Y167.300 E2.76213
G1 X132.923 Y163.693 E2.91635
G1 X133.325 Y163.669 E2.93356
G1 X133.325 Y167.300 E3.08882
G1 X133.727 Y167.300 E3.10600
G1 X133.727 Y163.568 E3.26556
G1 X133.842 Y163.533 E3.27072
G1 X134.129 Y163.380 E3.28461
G1 X134.129 Y167.300 E3.45221
G1 X134.530 Y167.300 E3.46939
G1 X134.530 Y163.077 E3.64995
G1 X134.830 Y162.723 E3.66978
G1 X134.932 Y162.531 E3.67908
G1 X134.932 Y167.300 E3.88299
G1 Z0.250 F7800.000
G1 Z0.500 F7800.000
G1 X132.503 Y167.300 F7800.000
G1 F2400.000
G1 X167.497 Y167.300 E5.37911
G1 X167.970 Y167.277 E5.39936
G1 X168.436 Y167.208 E5.41949
G1 X168.893 Y167.094 E5.43962
G1 X169.414 Y166.898 E5.46341
G1 X130.586 Y166.898 E7.12341
G1 X130.237 Y166.734 E7.13990
G1 X129.841 Y166.496 E7.15966
G1 X170.159 Y166.496 E8.88337
G1 X170.545 Y166.210 E8.90389
G1 X170.675 Y166.093 E8.91136
G1 X129.325 Y166.093 E10.67918
G1 X129.105 Y165.895 E10.69184
G1 X128.921 Y165.691 E10.70359
G1 X171.079 Y165.691 E12.50594
G1 X171.401 Y165.289 E12.52797
G1 X128.599 Y165.289 E14.35784
G1 X128.341 Y164.886 E14.37829
G1 X171.659 Y164.886 E16.23030
G1 X171.865 Y164.484 E16.24961
G1 X128.135 Y164.484 E18.11919
G1 X127.974 Y164.082 E18.13771
G1 X172.026 Y164.082 E20.02105
G1 X172.147 Y163.679 E20.03902
G1 X167.217 Y163.679 E20.24979
G1 X167.000 Y163.701 E20.25912
G1 X166.783 Y163.679 E20.26845
G1 X133.217 Y163.679 E21.70347
G1 X133.000 Y163.701 E21.71280
G1 X132.783 Y163.679 E21.72213
G1 X127.853 Y163.679 E21.93290
G1 X127.768 Y163.277 E21.95048
G1 X131.713 Y163.277 E22.11912
G1 X131.444 Y163.056 E22.13401
G1 X131.295 Y162.875 E22.14404
G1 X127.718 Y162.875 E22.29696
G1 X127.700 Y162.472 E22.31418
G1 X131.036 Y162.472 E22.45683
G1 X130.967 Y162.342 E22.46314
G1 X130.884 Y162.070 E22.47530
G1 X127.700 Y162.070 E22.61145
G1 X127.700 Y161.668 E22.62865
G1 X130.816 Y161.668 E22.76188
G1 X130.799 Y161.500 E22.76908
G1 X130.822 Y161.265 E22.77916
G1 X127.700 Y161.265 E22.91267
G1 X127.700 Y160.863 E22.92987
G1 X130.905 Y160.863 E23.06690
G1 X130.967 Y160.658 E23.07606
G1 X131.072 Y160.461 E23.08562
G1 X127.700 Y160.461 E23.22981
G1 X127.700 Y160.058 E23.24701
G1 X131.350 Y160.058 E23.40308
G1 X131.444 Y159.944 E23.40940
G1 X131.804 Y159.656 E23.42912
G1 X127.700 Y159.656 E23.60460
G1 X127.700 Y159.254 E23.62180
G1 X172.300 Y159.254 E25.52860
G1 X172.300 Y158.851 E25.54581
G1 X127.700 Y158.851 E27.45261
G1 X127.700 Y158.449 E27.46981
