; Generated by RP3 on 2021-07-8
; Job 0 - 3D Cloner

G21 ; set units to millimeters
M107 ;fan off
G28 ;home all axes
G90 ;absolute coordinates
G28 E0 ;home all axes
G1 E20.0 F100.0 ;extrude 20mm material with 100 mm/min speed
G28 E0 ;home all axes
G90 ;use absolute coordinates
M82 ; use absolute distances for extrusion
G92 E0 ;home of axes
M104 S90
G1 E-2.00000 F24000 ;retracts 2mm of material
M106 S102

(Layer 1)
G1  Z0.250 F2400

(Raster 1)
G92 E0
G1  X0074.949 Y0060.885 F2400
G1  E2.00000 F2400
G1  X0074.949 Y0050.161 E2.490 F2400
G1  X0074.700 Y0048.564 E2.564
G1  X0074.549 Y0047.885 E2.596
G1  X0074.549 Y0063.152 E3.294
G1  X0074.149 Y0064.855 E3.374
G1  X0074.149 Y0046.119 E4.231
G1  X0073.749 Y0044.744 E4.296
G1  X0073.749 Y0066.251 E5.279
G1  X0073.368 Y0067.502 E5.339
G1  X0073.349 Y0067.555 E5.342
G1  X0073.349 Y0043.477 E6.443
G1  X0072.949 Y0042.373 E6.496
G1  X0072.949 Y0068.620 E7.696
G1  X0072.549 Y0069.685 E7.748
G1  X0072.549 Y0041.335 E9.044
G1  X0072.148 Y0040.419 E9.090
G1  X0072.149 Y0070.583 E10.469
G1  X0071.749 Y0071.470 E10.514
G1  X0071.748 Y0039.503 E11.975
G1  X0071.732 Y0039.465 E11.977
G1  X0071.348 Y0038.721 E12.015
G1  X0071.349 Y0072.294 E13.550
G1  X0070.949 Y0073.048 E13.589
G1  X0070.948 Y0037.945 E15.194
G1  X0070.633 Y0037.332 E15.226
G1  X0070.548 Y0037.191 E15.233
G1  X0070.549 Y0073.802 E16.907
G1  X0070.415 Y0074.054 E16.920
G1  X0070.148 Y0074.486 E16.943
G1  X0070.148 Y0036.524 E18.679
G1  X0069.748 Y0035.857 E18.715
G1  X0069.748 Y0075.136 E20.510
G1  X0069.348 Y0075.785 E20.545
G1  X0069.348 Y0035.201 E22.401
G1  X0068.948 Y0034.622 E22.433
G1  X0068.948 Y0076.391 E24.343
G1  X0068.548 Y0076.956 E24.374
G1  X0068.548 Y0034.043 E26.336
G1  X0068.148 Y0033.463 E26.369
G1  X0068.148 Y0077.520 E28.383
G1  X0067.770 Y0078.054 E28.413
G1  X0067.748 Y0078.081 E28.414
G1  X0067.748 Y0032.937 E30.478
G1  X0067.348 Y0032.430 E30.508
G1  X0067.348 Y0078.576 E32.618
G1  X0066.948 Y0079.070 E32.647
G1  X0066.948 Y0031.924 E34.802
G1  X0066.549 Y0031.418 E34.832
G1  X0066.548 Y0031.418 E34.832
G1  X0066.548 Y0079.564 E37.033
G1  X0066.261 Y0079.919 E37.054
G1  X0066.148 Y0080.041 E37.061
G1  X0066.148 Y0030.973 E39.305
G1  X0065.748 Y0030.529 E39.332
G1  X0065.748 Y0080.475 E41.616
G1  X0065.348 Y0080.909 E41.643
G1  X0065.348 Y0030.084 E43.966
G1  X0064.948 Y0029.640 E43.994
G1  X0064.948 Y0081.343 E46.358
G1  X0064.635 Y0081.683 E46.379
G1  X0064.548 Y0081.766 E46.384
G1  X0064.548 Y0029.249 E48.785
G1  X0064.148 Y0028.858 E48.811
G1  X0064.148 Y0082.147 E51.247
G1  X0063.748 Y0082.529 E51.273
G1  X0063.748 Y0070.424 E51.826
G1  X0063.701 Y0070.496 E51.830
G1  X0063.593 Y0070.609 E51.837
G1  X0063.466 Y0070.702 E51.844
G1  X0063.348 Y0070.770 E51.850
G1  X0063.348 Y0082.910 E52.405
G1  X0062.948 Y0083.292 E52.431
G1  X0062.948 Y0071.001 E52.993
G1  X0062.548 Y0071.232 E53.014
G1  X0062.548 Y0083.604 E53.579
G1  X0062.526 Y0083.621 E53.581
G1  X0062.148 Y0083.819 E53.600
G1  X0062.148 Y0071.463 E54.165
G1  X0061.748 Y0071.694 E54.186
G1  X0061.748 Y0083.958 E54.747
G1  X0061.668 Y0083.985 E54.751
G1  X0061.348 Y0084.034 E54.766
G1  X0061.348 Y0071.925 E55.319
G1  X0060.948 Y0072.156 E55.340
G1  X0060.948 Y0084.054 E55.884
G1  X0060.738 Y0084.052 E55.894
G1  X0060.548 Y0084.018 E55.903
G1  X0060.548 Y0072.387 E56.435
G1  X0060.148 Y0072.618 E56.456
G1  X0060.148 Y0083.925 E56.973
G1  X0059.829 Y0083.812 E56.988
G1  X0059.748 Y0083.768 E56.992
G1  X0059.748 Y0072.849 E57.492
G1  X0059.348 Y0073.081 E57.513
G1  X0059.348 Y0083.529 E57.990
G1  X0059.059 Y0083.301 E58.007
G1  X0058.948 Y0083.180 E58.015
G1  X0058.948 Y0073.312 E58.466
G1  X0058.548 Y0073.543 E58.487
G1  X0058.548 Y0082.655 E58.904
G1  E56.904 F2400

(Raster 2)
G92 E0
G1  X0063.748 Y0040.573 F2400
G1  E2.00000 F2400
G1  X0063.748 Y0028.467 E2.553 F2400
G1  X0063.348 Y0028.076 E2.579
G1  X0063.348 Y0040.229 E3.135
G1  X0062.948 Y0039.998 E3.156
G1  X0062.948 Y0027.719 E3.717
G1  X0062.548 Y0027.375 E3.741
G1  X0062.548 Y0039.767 E4.308
G1  X0062.148 Y0039.536 E4.329
G1  X0062.148 Y0027.032 E4.901
G1  X0061.748 Y0026.688 E4.925
G1  X0061.748 Y0039.305 E5.502
G1  X0061.348 Y0039.074 E5.523
G1  X0061.348 Y0026.351 E6.104
G1  X0060.948 Y0026.050 E6.127
G1  X0060.948 Y0038.843 E6.712
G1  X0060.548 Y0038.612 E6.733
G1  X0060.548 Y0025.749 E7.321
G1  X0060.148 Y0025.448 E7.344
G1  X0060.148 Y0038.381 E7.936
G1  X0059.748 Y0038.150 E7.957
G1  X0059.748 Y0025.147 E8.551
G1  X0059.491 Y0024.953 E8.566
G1  X0059.348 Y0024.858 E8.574
G1  X0059.348 Y0037.919 E9.171
G1  X0058.948 Y0037.688 E9.192
G1  X0058.948 Y0024.593 E9.791
G1  X0058.548 Y0024.328 E9.813
G1  X0058.548 Y0037.458 E10.413
G1  X0058.148 Y0037.227 E10.434
G1  X0058.148 Y0024.063 E11.036
G1  X0057.748 Y0023.798 E11.058
G1  X0057.748 Y0036.996 E11.661
G1  X0057.348 Y0036.765 E11.682
G1  X0057.348 Y0023.533 E12.287
G1  X0056.948 Y0023.268 E12.309
G1  X0056.948 Y0036.534 E12.916
G1  X0056.548 Y0036.303 E12.937
G1  X0056.548 Y0023.002 E13.545
G1  X0056.148 Y0022.737 E13.567
G1  X0056.148 Y0036.072 E14.177
G1  X0055.748 Y0035.841 E14.198
G1  X0055.748 Y0022.428 E14.811
G1  X0055.348 Y0022.107 E14.835
G1  X0055.348 Y0035.610 E15.452
G1  X0054.948 Y0035.379 E15.473
G1  X0054.948 Y0021.786 E16.095
G1  X0054.730 Y0021.610 E16.107
G1  X0054.548 Y0021.437 E16.119
G1  X0054.548 Y0035.148 E16.746
G1  X0054.148 Y0034.917 E16.767
G1  X0054.148 Y0021.056 E17.401
G1  X0053.748 Y0020.675 E17.426
G1  X0053.748 Y0034.687 E18.067
G1  X0053.348 Y0034.456 E18.088
G1  X0053.348 Y0020.269 E18.736
G1  X0052.948 Y0019.816 E18.764
G1  X0052.948 Y0034.225 E19.423
G1  X0052.548 Y0033.994 E19.444
G1  X0052.548 Y0019.364 E20.113
G1  X0052.351 Y0019.141 E20.126
G1  X0052.148 Y0018.868 E20.142
G1  X0052.148 Y0033.763 E20.823
G1  X0051.748 Y0033.532 E20.844
G1  X0051.748 Y0018.330 E21.539
G1  X0051.348 Y0017.791 E21.570
G1  X0051.348 Y0033.301 E22.279
G1  X0050.948 Y0033.070 E22.300
G1  X0050.948 Y0017.150 E23.028
G1  X0050.548 Y0016.503 E23.062
G1  X0050.548 Y0032.839 E23.809
G1  X0050.148 Y0032.608 E23.830
G1  X0050.148 Y0015.757 E24.601
G1  X0049.748 Y0014.967 E24.641
G1  X0049.748 Y0032.377 E25.437
G1  X0049.348 Y0032.146 E25.458
G1  X0049.348 Y0014.025 E26.287
G1  X0049.009 Y0013.184 E26.328
G1  X0048.948 Y0012.986 E26.338
G1  X0048.948 Y0031.916 E27.203
G1  X0048.548 Y0031.685 E27.224
G1  X0048.548 Y0011.686 E28.139
G1  X0048.505 Y0011.545 E28.146
G1  X0048.148 Y0009.897 E28.223
G1  X0048.148 Y0031.454 E29.208
G1  X0047.748 Y0031.223 E29.229
G1  X0047.748 Y0001.909 E30.570
G1  X0047.737 Y0001.867 E30.572
G1  X0047.601 Y0001.575 E30.586
G1  X0047.416 Y0001.311 E30.601
G1  X0047.348 Y0001.244 E30.605
G1  X0047.348 Y0030.992 E31.965
G1  X0046.948 Y0030.761 E31.987
G1  X0046.948 Y0000.915 E33.351
G1  X0046.924 Y0000.898 E33.352
G1  X0046.632 Y0000.762 E33.367
G1  X0046.548 Y0000.740 E33.371
G1  X0046.548 Y0030.530 E34.733
G1  X0046.148 Y0030.299 E34.754
G1  X0046.148 Y0000.664 E36.109
G1  X0045.993 Y0000.650 E36.116
G1  X0045.748 Y0000.650 E36.128
G1  X0045.748 Y0030.068 E37.473
G1  X0045.348 Y0029.837 E37.494
G1  X0045.348 Y0000.650 E38.828
G1  X0044.948 Y0000.650 E38.846
G1  X0044.948 Y0029.606 E40.170
G1  X0044.548 Y0029.375 E40.191
G1  X0044.548 Y0000.650 E41.505
G1  X0044.148 Y0000.650 E41.523
G1  X0044.148 Y0029.144 E42.826
G1  X0043.748 Y0028.914 E42.847
G1  X0043.748 Y0000.650 E44.139
G1  X0043.348 Y0000.650 E44.157
G1  X0043.348 Y0028.683 E45.439
G1  X0042.948 Y0028.452 E45.460
G1  X0042.948 Y0000.650 E46.731
G1  X0042.548 Y0000.650 E46.750
G1  X0042.548 Y0028.221 E48.010
G1  X0042.148 Y0027.990 E48.031
G1  X0042.148 Y0000.650 E49.281
G1  X0041.748 Y0000.650 E49.299
G1  X0041.748 Y0027.759 E50.539
G1  X0041.348 Y0027.528 E50.560
G1  X0041.348 Y0000.650 E51.789
G1  X0040.948 Y0000.650 E51.807
G1  X0040.948 Y0027.297 E53.025
G1  X0040.548 Y0027.066 E53.047
G1  X0040.548 Y0000.650 E54.254
G1  X0040.148 Y0000.650 E54.273
G1  X0040.148 Y0026.835 E55.470
G1  X0039.748 Y0026.604 E55.491
G1  X0039.748 Y0000.650 E56.678
G1  X0039.348 Y0000.650 E56.696
G1  X0039.348 Y0026.373 E57.872
G1  X0038.948 Y0026.143 E57.893
G1  X0038.948 Y0000.650 E59.059
G1  X0038.548 Y0000.650 E59.077
G1  X0038.548 Y0025.912 E60.232
G1  X0038.431 Y0025.844 E60.238
G1  X0038.288 Y0025.781 E60.245
G1  X0038.148 Y0025.747 E60.252
G1  X0038.148 Y0000.650 E61.399
G1  X0037.748 Y0000.650 E61.417
G1  X0037.748 Y0025.772 E62.566
G1  X0037.679 Y0025.792 E62.569
G1  X0037.549 Y0025.853 E62.576
G1  X0037.348 Y0025.969 E62.587
G1  X0037.348 Y0000.650 E63.744
G1  X0036.948 Y0000.650 E63.762
G1  X0036.948 Y0026.200 E64.931
G1  X0036.548 Y0026.431 E64.952
G1  X0036.548 Y0000.650 E66.130
G1  X0036.148 Y0000.650 E66.149
G1  X0036.148 Y0026.662 E67.338
G1  X0035.748 Y0026.893 E67.359
G1  X0035.748 Y0000.650 E68.559
G1  X0035.348 Y0000.650 E68.577
G1  X0035.348 Y0027.124 E69.788
G1  X0034.948 Y0027.355 E69.809
G1  X0034.948 Y0000.650 E71.030
G1  X0034.548 Y0000.650 E71.048
G1  X0034.548 Y0027.586 E72.279
G1  X0034.148 Y0027.817 E72.301
G1  X0034.148 Y0000.650 E73.543
G1  X0033.748 Y0000.650 E73.561
G1  X0033.748 Y0028.048 E74.814
G1  X0033.348 Y0028.279 E74.835
G1  X0033.348 Y0000.650 E76.098
G1  X0032.948 Y0000.650 E76.116
G1  X0032.948 Y0028.510 E77.390
G1  X0032.548 Y0028.741 E77.411
G1  X0032.548 Y0000.650 E78.695
G1  X0032.148 Y0000.650 E78.714
G1  X0032.148 Y0028.972 E80.008
G1  X0031.748 Y0029.203 E80.030
G1  X0031.748 Y0000.650 E81.335
G1  X0031.348 Y0000.650 E81.353
G1  X0031.348 Y0029.433 E82.669
G1  X0030.948 Y0029.664 E82.690
G1  X0030.948 Y0000.650 E84.017
G1  X0030.548 Y0000.650 E84.035
G1  X0030.548 Y0029.895 E85.372
G1  X0030.148 Y0030.126 E85.393
G1  X0030.148 Y0000.650 E86.741
G1  X0030.006 Y0000.650 E86.748
G1  X0029.748 Y0000.672 E86.759
G1  X0029.748 Y0030.357 E88.117
G1  X0029.348 Y0030.588 E88.138
G1  X0029.348 Y0000.771 E89.501
G1  X0029.075 Y0000.898 E89.515
G1  X0028.948 Y0000.987 E89.522
G1  X0028.948 Y0030.819 E90.886
G1  X0028.548 Y0031.050 E90.907
G1  X0028.548 Y0001.360 E92.264
G1  X0028.398 Y0001.575 E92.276
G1  X0028.261 Y0001.867 E92.291
G1  X0028.178 Y0002.184 E92.306
G1  X0028.149 Y0002.507 E92.321
G1  X0028.149 Y0006.446 E92.501
G1  X0028.148 Y0006.469 E92.502
G1  X0028.148 Y0031.281 E93.636
G1  X0027.748 Y0031.512 E93.658
G1  X0027.748 Y0010.366 E94.624
G1  X0027.497 Y0011.532 E94.679
G1  X0027.348 Y0012.016 E94.702
G1  X0027.348 Y0031.743 E95.604
G1  X0026.948 Y0031.974 E95.625
G1  X0026.948 Y0013.284 E96.480
G1  X0026.548 Y0014.277 E96.529
G1  X0026.548 Y0032.205 E97.348
G1  X0026.148 Y0032.436 E97.369
G1  X0026.148 Y0015.167 E98.159
G1  X0025.748 Y0015.959 E98.199
G1  X0025.748 Y0032.667 E98.963
G1  X0025.348 Y0032.898 E98.984
G1  X0025.348 Y0016.667 E99.726
G1  X0024.948 Y0017.315 E99.761
G1  X0024.948 Y0033.129 E100.484
G1  X0024.548 Y0033.360 E100.505
G1  X0024.548 Y0017.928 E101.211
G1  X0024.148 Y0018.467 E101.242
G1  X0024.148 Y0033.591 E101.933
G1  X0023.748 Y0033.822 E101.954
G1  X0023.748 Y0019.006 E102.632
G1  X0023.655 Y0019.131 E102.639
G1  X0023.348 Y0019.479 E102.660
G1  X0023.348 Y0034.053 E103.326
G1  X0022.948 Y0034.284 E103.347
G1  X0022.948 Y0019.932 E104.004
G1  X0022.548 Y0020.384 E104.031
G1  X0022.548 Y0034.515 E104.677
G1  X0022.148 Y0034.746 E104.698
G1  X0022.148 Y0020.771 E105.337
G1  X0021.748 Y0021.153 E105.363
G1  X0021.748 Y0034.977 E105.995
G1  X0021.348 Y0035.208 E106.016
G1  X0021.348 Y0021.535 E106.641
G1  X0021.279 Y0021.602 E106.645
G1  X0020.948 Y0021.867 E106.665
G1  X0020.948 Y0035.439 E107.285
G1  X0020.548 Y0035.669 E107.306
G1  X0020.548 Y0022.188 E107.923
G1  X0020.148 Y0022.510 E107.946
G1  X0020.148 Y0035.900 E108.558
G1  X0019.748 Y0036.131 E108.579
G1  X0019.748 Y0022.804 E109.189
G1  X0019.348 Y0023.069 E109.211
G1  X0019.348 Y0036.362 E109.818
G1  X0018.948 Y0036.593 E109.839
G1  X0018.948 Y0023.335 E110.446
G1  X0018.548 Y0023.600 E110.468
G1  X0018.548 Y0036.824 E111.072
G1  X0018.148 Y0037.055 E111.093
G1  X0018.148 Y0023.865 E111.696
G1  X0017.748 Y0024.130 E111.718
G1  X0017.748 Y0037.286 E112.320
G1  X0017.348 Y0037.517 E112.341
G1  X0017.348 Y0024.395 E112.941
G1  X0016.948 Y0024.661 E112.963
G1  X0016.948 Y0037.748 E113.561
G1  X0016.548 Y0037.979 E113.582
G1  X0016.548 Y0024.926 E114.179
G1  X0016.507 Y0024.953 E114.181
G1  X0016.148 Y0025.223 E114.202
G1  X0016.148 Y0038.210 E114.796
G1  X0015.748 Y0038.441 E114.817
G1  X0015.748 Y0025.524 E115.407
G1  X0015.348 Y0025.825 E115.430
G1  X0015.348 Y0038.672 E116.018
G1  X0014.948 Y0038.903 E116.039
G1  X0014.948 Y0026.126 E116.623
G1  X0014.590 Y0026.396 E116.643
G1  X0014.548 Y0026.432 E116.646
G1  X0014.548 Y0039.134 E117.227
G1  X0014.148 Y0039.365 E117.248
G1  X0014.148 Y0026.775 E117.823
G1  X0013.748 Y0027.119 E117.847
G1  X0013.748 Y0039.596 E118.418
G1  X0013.348 Y0039.827 E118.439
G1  X0013.348 Y0027.462 E119.004
G1  X0012.948 Y0027.806 E119.028
G1  X0012.948 Y0040.058 E119.589
G1  X0012.548 Y0040.289 E119.610
G1  X0012.548 Y0028.176 E120.163
G1  X0012.148 Y0028.566 E120.189
G1  X0012.148 Y0040.776 E120.747
G1  E118.747 F2400

(Raster 3)
G92 E0
G1  X0017.748 Y0073.792 F2400
G1  E2.00000 F2400
G1  X0017.748 Y0081.927 E2.372 F2400
G1  X0017.696 Y0082.134 E2.382
G1  X0017.510 Y0082.563 E2.403
G1  X0017.348 Y0082.812 E2.417
G1  X0017.348 Y0073.484 E2.843
G1  X0016.948 Y0073.253 E2.864
G1  X0016.948 Y0083.292 E3.323
G1  X0016.940 Y0083.301 E3.324
G1  X0016.566 Y0083.594 E3.345
G1  X0016.548 Y0083.604 E3.346
G1  X0016.548 Y0073.022 E3.830
G1  X0016.148 Y0072.792 E3.851
G1  X0016.148 Y0083.821 E4.356
G1  X0015.748 Y0083.962 E4.375
G1  X0015.748 Y0072.561 E4.896
G1  X0015.348 Y0072.330 E4.917
G1  X0015.348 Y0084.037 E5.453
G1  X0015.261 Y0084.052 E5.457
G1  X0014.948 Y0084.055 E5.471
G1  X0014.948 Y0072.099 E6.018
G1  X0014.548 Y0071.868 E6.039
G1  X0014.548 Y0084.019 E6.594
G1  X0014.331 Y0083.985 E6.604
G1  X0014.148 Y0083.924 E6.613
G1  X0014.148 Y0071.637 E7.175
G1  X0013.748 Y0071.406 E7.196
G1  X0013.748 Y0083.765 E7.761
G1  X0013.473 Y0083.621 E7.775
G1  X0013.348 Y0083.525 E7.783
G1  X0013.348 Y0071.175 E8.347
G1  X0012.948 Y0070.944 E8.368
G1  X0012.948 Y0083.195 E8.928
G1  X0012.548 Y0082.812 E8.954
G1  X0012.548 Y0070.712 E9.507
G1  X0012.431 Y0070.631 E9.513
G1  X0012.323 Y0070.526 E9.520
G1  X0012.231 Y0070.401 E9.527
G1  X0012.162 Y0070.260 E9.535
G1  X0012.148 Y0070.215 E9.537
G1  X0012.148 Y0082.430 E10.095
G1  X0011.748 Y0082.048 E10.121
G1  X0011.748 Y0028.957 E12.548
G1  X0011.348 Y0029.348 E12.573
G1  X0011.348 Y0081.665 E14.965
G1  X0011.338 Y0081.655 E14.966
G1  X0010.948 Y0081.232 E14.992
G1  X0010.948 Y0029.753 E17.346
G1  X0010.548 Y0030.197 E17.373
G1  X0010.548 Y0080.797 E19.687
G1  X0010.148 Y0080.362 E19.714
G1  X0010.148 Y0030.642 E21.987
G1  X0009.748 Y0031.086 E22.014
G1  X0009.748 Y0079.927 E24.247
G1  X0009.714 Y0079.890 E24.250
G1  X0009.348 Y0079.437 E24.276
G1  X0009.348 Y0031.546 E26.466
G1  X0008.948 Y0032.053 E26.495
G1  X0008.948 Y0078.942 E28.639
G1  X0008.548 Y0078.447 E28.668
G1  X0008.548 Y0032.559 E30.766
G1  X0008.148 Y0033.065 E30.796
G1  X0008.148 Y0077.942 E32.847
G1  X0007.748 Y0077.377 E32.879
G1  X0007.748 Y0033.611 E34.880
G1  X0007.348 Y0034.190 E34.912
G1  X0007.348 Y0076.812 E36.861
G1  X0006.948 Y0076.247 E36.893
G1  X0006.948 Y0034.769 E38.789
G1  X0006.599 Y0035.275 E38.817
G1  X0006.548 Y0035.360 E38.822
G1  X0006.548 Y0075.620 E40.662
G1  X0006.148 Y0074.971 E40.697
G1  X0006.148 Y0036.027 E42.478
G1  X0005.748 Y0036.694 E42.513
G1  X0005.748 Y0074.321 E44.234
G1  X0005.584 Y0074.054 E44.248
G1  X0005.348 Y0073.610 E44.271
G1  X0005.348 Y0037.366 E45.928
G1  X0004.948 Y0038.142 E45.968
G1  X0004.948 Y0072.856 E47.555
G1  X0004.548 Y0072.102 E47.594
G1  X0004.548 Y0038.918 E49.111
G1  X0004.267 Y0039.465 E49.139
G1  X0004.148 Y0039.736 E49.153
G1  X0004.148 Y0071.244 E50.593
G1  X0003.748 Y0070.357 E50.638
G1  X0003.748 Y0040.652 E51.996
G1  X0003.348 Y0041.568 E52.042
G1  X0003.348 Y0069.414 E53.315
G1  X0002.948 Y0068.349 E53.367
G1  X0002.948 Y0042.653 E54.542
G1  X0002.548 Y0043.758 E54.595
