; generated by Slic3r 1.3.1-dev (Build 8c69278) on 2021-12-10 at 13:24:51

; external perimeters extrusion width = 0.45mm (3.99mm^3/s)
; perimeters extrusion width = 0.45mm (3.99mm^3/s)
; infill extrusion width = 0.45mm (3.99mm^3/s)
; solid infill extrusion width = 0.45mm (4.99mm^3/s)
; top infill extrusion width = 0.45mm (3.00mm^3/s)
; support material extrusion width = 0.45mm (4.99mm^3/s)

M107
G92 E0
M104 S205 ; set temperature
G28 ; home all axes
G1 Z5 F5000 ; lift nozzle

; Filament gcode

M109 S205 ; set temperature and wait for it to be reached
G21 ; set units to millimeters
G90 ; use absolute coordinates
M82 ; use absolute distances for extrusion
G92 E0
G1 Z0.250 F7800.000
G1 E-2.00000 F2400.00000
G92 E0
G1 X123.702 Y124.154 F7800.000
G1 E2.00000 F2400.00000
G1 F2400.000
G1 X123.702 Y175.873 E4.21113
G1 X123.702 Y124.154 E6.42225
G1 X124.103 Y124.153 E6.43942
G1 X124.103 Y175.872 E8.65057
G1 X124.505 Y175.871 E8.66773
G1 X124.505 Y124.151 E10.87891
G1 X124.906 Y124.150 E10.89607
G1 X124.906 Y175.871 E13.10727
G1 X125.308 Y175.870 E13.12443
G1 X125.308 Y124.149 E15.33565
G1 X125.709 Y124.147 E15.35282
G1 X125.709 Y175.869 E17.56406
G1 X126.111 Y175.868 E17.58122
G1 X126.111 Y124.146 E19.79249
G1 X126.512 Y124.144 E19.80965
G1 X126.512 Y175.867 E22.02094
G1 X126.914 Y175.866 E22.03811
G1 X126.914 Y124.143 E24.24942
G1 X127.315 Y124.142 E24.26658
G1 X127.315 Y175.865 E26.47792
G1 X127.717 Y175.864 E26.49508
G1 X127.717 Y124.140 E28.70644
G1 X128.118 Y124.139 E28.72360
G1 X128.118 Y175.863 E30.93498
G1 X128.302 Y175.863 E30.94285
G1 X128.302 Y167.073 E31.31865
G1 X128.346 Y166.574 E31.34007
G1 X128.520 Y166.020 E31.36488
G1 X128.520 Y159.113 E31.66018
G1 X128.409 Y158.852 E31.67229
G1 X128.321 Y158.385 E31.69260
G1 X128.302 Y158.051 E31.70693
G1 X128.302 Y141.941 E32.39568
G1 X128.406 Y141.157 E32.42949
G1 X128.520 Y140.816 E32.44487
G1 X128.520 Y134.009 E32.73587
G1 X128.630 Y134.327 E32.75025
G1 X128.921 Y134.749 E32.77219
G1 X128.921 Y140.080 E33.00011
G1 X129.082 Y139.861 E33.01173
G1 X129.323 Y139.613 E33.02650
G1 X129.323 Y135.242 E33.21339
G1 X129.724 Y135.571 E33.23558
G1 X129.724 Y139.304 E33.39520
G1 X129.811 Y139.238 E33.39988
G1 X130.126 Y139.067 E33.41519
G1 X130.126 Y135.785 E33.55551
G1 X130.354 Y135.906 E33.56657
G1 X130.527 Y135.973 E33.57450
G1 X130.527 Y138.920 E33.70050
G1 X130.709 Y138.853 E33.70876
G1 X130.929 Y138.820 E33.71828
G1 X130.929 Y136.123 E33.83359
G1 X131.330 Y136.274 E33.85192
G1 X131.330 Y138.760 E33.95820
G1 X131.732 Y138.777 E33.97538
G1 X131.732 Y136.424 E34.07597
G1 X132.133 Y136.575 E34.09431
G1 X132.133 Y138.827 E34.19061
G1 X132.535 Y138.933 E34.20836
G1 X132.535 Y136.725 E34.30275
G1 X132.936 Y136.876 E34.32108
G1 X132.936 Y139.075 E34.41508
G1 X133.338 Y139.225 E34.43341
G1 X133.338 Y137.027 E34.52742
G1 X133.739 Y137.177 E34.54575
G1 X133.739 Y139.376 E34.63975
G1 X134.141 Y139.526 E34.65809
G1 X134.141 Y137.328 E34.75209
G1 X134.542 Y137.478 E34.77042
G1 X134.542 Y139.677 E34.86442
G1 X134.944 Y139.827 E34.88275
G1 X134.944 Y137.629 E34.97676
G1 X135.345 Y137.779 E34.99509
G1 X135.345 Y139.978 E35.08909
G1 X135.747 Y140.129 E35.10742
G1 X135.747 Y137.930 E35.20142
G1 X136.148 Y138.080 E35.21976
G1 X136.148 Y140.279 E35.31376
G1 X136.550 Y140.430 E35.33209
G1 X136.550 Y138.231 E35.42609
G1 X136.951 Y138.382 E35.44442
G1 X136.951 Y140.580 E35.53842
G1 X137.353 Y140.731 E35.55675
G1 X137.353 Y138.532 E35.65075
G1 X137.754 Y138.683 E35.66909
G1 X137.754 Y140.881 E35.76309
G1 X138.156 Y141.032 E35.78142
G1 X138.156 Y138.833 E35.87542
G1 X138.557 Y138.984 E35.89375
G1 X138.557 Y141.182 E35.98775
G1 X138.959 Y141.333 E36.00608
G1 X138.959 Y139.134 E36.10008
G1 X139.360 Y139.285 E36.11841
G1 X139.360 Y141.484 E36.21241
G1 X139.762 Y141.634 E36.23074
G1 X139.762 Y139.436 E36.32474
G1 X140.163 Y139.586 E36.34307
G1 X140.163 Y141.785 E36.43707
G1 X140.565 Y141.935 E36.45540
G1 X140.565 Y139.737 E36.54940
G1 X140.966 Y139.887 E36.56773
G1 X140.966 Y142.086 E36.66173
G1 X141.368 Y142.236 E36.68006
G1 X141.368 Y140.038 E36.77406
G1 X141.769 Y140.188 E36.79239
G1 X141.769 Y142.387 E36.88639
G1 X142.171 Y142.537 E36.90472
G1 X142.171 Y140.339 E36.99872
G1 X142.572 Y140.489 E37.01705
G1 X142.572 Y142.688 E37.11105
G1 X142.974 Y142.839 E37.12938
G1 X142.974 Y140.640 E37.22337
G1 X143.375 Y140.791 E37.24171
G1 X143.375 Y142.989 E37.33570
G1 X143.777 Y143.140 E37.35403
G1 X143.777 Y140.941 E37.44803
G1 X144.178 Y141.092 E37.46636
G1 X144.178 Y143.290 E37.56036
G1 X144.580 Y143.441 E37.57869
G1 X144.580 Y141.242 E37.67268
G1 X144.981 Y141.393 E37.69102
G1 X144.981 Y143.591 E37.78501
G1 X145.383 Y143.742 E37.80334
G1 X145.383 Y141.543 E37.89734
G1 X145.784 Y141.694 E37.91567
G1 X145.784 Y143.892 E38.00966
G1 X146.186 Y144.043 E38.02800
G1 X146.186 Y141.844 E38.12199
G1 X146.587 Y141.995 E38.14032
G1 X146.587 Y144.194 E38.23431
G1 X146.989 Y144.344 E38.25265
G1 X146.989 Y142.146 E38.34664
G1 X147.390 Y142.296 E38.36497
G1 X147.390 Y144.495 E38.45896
G1 X147.792 Y144.645 E38.47730
G1 X147.792 Y142.447 E38.57129
G1 X148.193 Y142.597 E38.58962
G1 X148.193 Y144.796 E38.68361
G1 X148.595 Y144.946 E38.70194
G1 X148.595 Y142.748 E38.79594
G1 X148.996 Y142.898 E38.81427
G1 X148.996 Y145.097 E38.90826
G1 X149.398 Y145.247 E38.92659
G1 X149.398 Y143.049 E39.02058
G1 X149.799 Y143.200 E39.03892
G1 X149.799 Y145.398 E39.13291
G1 X150.201 Y145.549 E39.15124
G1 X150.201 Y143.350 E39.24523
G1 X150.602 Y143.501 E39.26356
G1 X150.602 Y145.699 E39.35755
G1 X151.004 Y145.850 E39.37588
G1 X151.004 Y143.651 E39.46987
G1 X151.405 Y143.802 E39.48821
G1 X151.405 Y146.000 E39.58220
G1 X151.807 Y146.151 E39.60053
G1 X151.807 Y143.952 E39.69452
G1 X152.208 Y144.103 E39.71285
G1 X152.208 Y146.301 E39.80684
G1 X152.610 Y146.452 E39.82517
G1 X152.610 Y144.253 E39.91916
G1 X153.011 Y144.404 E39.93749
G1 X153.011 Y146.602 E40.03148
G1 X153.413 Y146.753 E40.04981
G1 X153.413 Y144.555 E40.14380
G1 X153.814 Y144.705 E40.16213
G1 X153.814 Y146.904 E40.25612
G1 X154.216 Y147.073 E40.27475
G1 X154.216 Y144.856 E40.36955
G1 X154.617 Y145.006 E40.38788
G1 X154.617 Y147.287 E40.48539
G1 X154.790 Y147.379 E40.49378
G1 X155.019 Y147.576 E40.50667
G1 X155.019 Y145.157 E40.61011
G1 X155.420 Y145.307 E40.62844
G1 X155.420 Y148.001 E40.74359
G1 X155.822 Y148.584 E40.77387
G1 X155.822 Y145.458 E40.90752
G1 X156.223 Y145.609 E40.92586
G1 X156.223 Y154.391 E41.30135
G1 X156.625 Y154.241 E41.31968
G1 X156.625 Y145.759 E41.68230
G1 X157.026 Y145.910 E41.70064
G1 X157.026 Y154.090 E42.05038
G1 X157.428 Y153.940 E42.06871
G1 X157.428 Y146.060 E42.40559
G1 X157.829 Y146.211 E42.42392
G1 X157.829 Y153.789 E42.74792
G1 X158.231 Y153.639 E42.76625
G1 X158.231 Y146.361 E43.07737
G1 X158.632 Y146.499 E43.09552
G1 X158.632 Y153.502 E43.39492
G1 X159.034 Y153.408 E43.41255
G1 X159.034 Y146.592 E43.70395
G1 X159.278 Y146.649 E43.71467
G1 X159.435 Y146.650 E43.72140
G1 X159.435 Y153.351 E44.00790
G1 X159.837 Y153.367 E44.02508
G1 X159.837 Y146.636 E44.31285
G1 X160.160 Y146.624 E44.32667
G1 X160.238 Y146.600 E44.33017
G1 X160.238 Y153.385 E44.62022
G1 X160.640 Y153.542 E44.63865
G1 X160.640 Y146.444 E44.94208
G1 X161.041 Y146.288 E44.96050
G1 X161.041 Y153.706 E45.27763
G1 X161.443 Y153.884 E45.29642
G1 X161.443 Y146.115 E45.62857
G1 X161.844 Y145.752 E45.65173
G1 X161.844 Y154.249 E46.01500
G1 X162.246 Y154.634 E46.03880
G1 X162.246 Y145.366 E46.43504
G1 X162.647 Y144.941 E46.46003
G1 X162.647 Y155.060 E46.89264
G1 X163.049 Y155.486 E46.91765
G1 X163.049 Y144.516 E47.38662
G1 X163.450 Y144.091 E47.41161
G1 X163.450 Y155.911 E47.91694
G1 X163.582 Y156.051 E47.92517
G1 X163.852 Y156.248 E47.93943
G1 X163.852 Y143.768 E48.47296
G1 X164.253 Y143.501 E48.49357
G1 X164.253 Y156.533 E49.05069
G1 X164.655 Y156.776 E49.07077
G1 X164.655 Y143.234 E49.64972
G1 X164.822 Y143.123 E49.65830
G1 X165.056 Y143.022 E49.66922
G1 X165.056 Y156.978 E50.26592
G1 X165.458 Y157.153 E50.28462
G1 X165.458 Y142.848 E50.89619
G1 X165.859 Y142.674 E50.91489
G1 X165.859 Y157.327 E51.54133
G1 X166.261 Y157.448 E51.55926
G1 X166.261 Y142.552 E52.19607
G1 X166.662 Y142.448 E52.21381
G1 X166.662 Y157.552 E52.85958
G1 X167.064 Y157.651 E52.87726
G1 X167.064 Y142.348 E53.53154
G1 X167.465 Y142.305 E53.54880
G1 X167.465 Y157.695 E54.20679
G1 X167.867 Y157.739 E54.22406
G1 X167.867 Y142.262 E54.88576
G1 X168.268 Y142.219 E54.90302
G1 X168.268 Y157.783 E55.56843
G1 X168.670 Y157.781 E55.58559
G1 X168.670 Y142.250 E56.24959
G1 X169.071 Y142.310 E56.26695
G1 X169.071 Y157.762 E56.92756
G1 X169.371 Y157.747 E56.94038
G1 X169.473 Y157.725 E56.94484
G1 X169.473 Y142.370 E57.60130
G1 X169.874 Y142.431 E57.61866
G1 X169.874 Y157.636 E58.26875
G1 X170.276 Y157.548 E58.28633
G1 X170.276 Y142.491 E58.93006
G1 X170.677 Y142.551 E58.94742
G1 X170.677 Y157.459 E59.58479
G1 X170.805 Y157.431 E59.59039
G1 X171.079 Y157.320 E59.60301
G1 X171.079 Y142.679 E60.22894
G1 X171.480 Y142.842 E60.24747
G1 X171.480 Y157.157 E60.85947
G1 X171.882 Y156.994 E60.87799
G1 X171.882 Y143.005 E61.47606
G1 X172.181 Y143.127 E61.48989
G1 X172.283 Y143.192 E61.49505
G1 X172.283 Y156.809 E62.07722
G1 X172.685 Y156.552 E62.09760
G1 X172.685 Y143.449 E62.65778
G1 X173.086 Y143.706 E62.67816
G1 X173.086 Y156.295 E63.21635
G1 X173.488 Y155.952 E63.23891
G1 X173.488 Y144.047 E63.74788
G1 X173.889 Y144.397 E63.77066
G1 X173.889 Y155.602 E64.24971
G1 X174.142 Y155.382 E64.26404
G1 X174.291 Y155.213 E64.27368
G1 X174.291 Y144.787 E64.71940
G1 X174.692 Y145.268 E64.74617
G1 X174.692 Y154.733 E65.15084
G1 X175.094 Y154.127 E65.18192
G1 X175.094 Y145.873 E65.53479
G1 X175.246 Y146.103 E65.54659
G1 X175.495 Y146.581 E65.56961
G1 X175.495 Y153.419 E65.86198
G1 X175.649 Y153.124 E65.87619
G1 X175.897 Y152.443 E65.90717
G1 X175.897 Y147.557 E66.11610
G1 X175.986 Y147.803 E66.12733
G1 X176.157 Y148.523 E66.15894
G1 X176.267 Y149.260 E66.19080
G1 X176.298 Y150.252 E66.23325
G1 E64.23325 F2400.00000
G92 E0
G1 X155.822 Y154.542 F7800.000
G1 E2.00000 F2400.00000
G1 F2400.000
G1 X155.822 Y151.408 E2.13401
G1 X155.668 Y151.695 E2.14793
G1 X155.420 Y152.017 E2.16530
G1 X155.420 Y154.693 E2.27971
G1 X155.019 Y154.843 E2.29804
G1 X155.019 Y152.379 E2.40340
G1 X154.617 Y152.647 E2.42404
G1 X154.617 Y154.994 E2.52438
G1 X154.216 Y155.144 E2.54271
G1 X154.216 Y152.915 E2.63802
G1 X154.113 Y152.984 E2.64330
G1 X153.814 Y153.096 E2.65696
G1 X153.814 Y155.295 E2.75095
G1 X153.413 Y155.445 E2.76928
G1 X153.413 Y153.247 E2.86327
G1 X153.011 Y153.398 E2.88160
G1 X153.011 Y155.596 E2.97559
G1 X152.610 Y155.747 E2.99393
G1 X152.610 Y153.548 E3.08791
G1 X152.208 Y153.699 E3.10625
G1 X152.208 Y155.897 E3.20023
G1 X151.807 Y156.048 E3.21857
G1 X151.807 Y153.849 E3.31256
G1 X151.405 Y154.000 E3.33089
G1 X151.405 Y156.198 E3.42488
G1 X151.004 Y156.349 E3.44321
G1 X151.004 Y154.150 E3.53720
G1 X150.602 Y154.301 E3.55553
G1 X150.602 Y156.499 E3.64952
G1 X150.201 Y156.650 E3.66786
G1 X150.201 Y154.451 E3.76185
G1 X149.799 Y154.602 E3.78018
G1 X149.799 Y156.800 E3.87417
G1 X149.398 Y156.951 E3.89250
G1 X149.398 Y154.753 E3.98649
G1 X148.996 Y154.903 E4.00482
G1 X148.996 Y157.102 E4.09882
G1 X148.595 Y157.252 E4.11715
G1 X148.595 Y155.054 E4.21114
G1 X148.193 Y155.204 E4.22947
G1 X148.193 Y157.403 E4.32346
G1 X147.792 Y157.553 E4.34180
G1 X147.792 Y155.355 E4.43579
G1 X147.390 Y155.505 E4.45412
G1 X147.390 Y157.704 E4.54811
G1 X146.989 Y157.854 E4.56645
G1 X146.989 Y155.656 E4.66044
G1 X146.587 Y155.806 E4.67877
G1 X146.587 Y158.005 E4.77276
G1 X146.186 Y158.155 E4.79110
G1 X146.186 Y155.957 E4.88509
G1 X145.784 Y156.108 E4.90342
G1 X145.784 Y158.306 E4.99741
G1 X145.383 Y158.457 E5.01575
G1 X145.383 Y156.258 E5.10974
G1 X144.981 Y156.409 E5.12807
G1 X144.981 Y158.607 E5.22207
G1 X144.580 Y158.758 E5.24040
G1 X144.580 Y156.559 E5.33439
G1 X144.178 Y156.710 E5.35273
G1 X144.178 Y158.908 E5.44672
G1 X143.777 Y159.059 E5.46505
G1 X143.777 Y156.860 E5.55905
G1 X143.375 Y157.011 E5.57738
G1 X143.375 Y159.209 E5.67138
G1 X142.974 Y159.360 E5.68971
G1 X142.974 Y157.161 E5.78371
G1 X142.572 Y157.312 E5.80204
G1 X142.572 Y159.511 E5.89603
G1 X142.171 Y159.661 E5.91437
G1 X142.171 Y157.463 E6.00836
G1 X141.769 Y157.613 E6.02669
G1 X141.769 Y159.812 E6.12069
G1 X141.368 Y159.962 E6.13902
G1 X141.368 Y157.764 E6.23302
G1 X140.966 Y157.914 E6.25135
G1 X140.966 Y160.113 E6.34535
G1 X140.565 Y160.263 E6.36368
G1 X140.565 Y158.065 E6.45768
G1 X140.163 Y158.215 E6.47601
G1 X140.163 Y160.414 E6.57001
G1 X139.762 Y160.564 E6.58834
G1 X139.762 Y158.366 E6.68234
G1 X139.360 Y158.516 E6.70067
G1 X139.360 Y160.715 E6.79467
G1 X138.959 Y160.866 E6.81300
G1 X138.959 Y158.667 E6.90700
G1 X138.557 Y158.818 E6.92533
G1 X138.557 Y161.016 E7.01933
G1 X138.156 Y161.167 E7.03767
G1 X138.156 Y158.968 E7.13167
G1 X137.754 Y159.119 E7.15000
G1 X137.754 Y161.317 E7.24400
G1 X137.353 Y161.468 E7.26233
G1 X137.353 Y159.269 E7.35633
G1 X136.951 Y159.420 E7.37466
G1 X136.951 Y161.618 E7.46866
G1 X136.550 Y161.769 E7.48699
G1 X136.550 Y159.570 E7.58099
G1 X136.148 Y159.721 E7.59933
G1 X136.148 Y161.920 E7.69333
G1 X135.747 Y162.070 E7.71166
G1 X135.747 Y159.871 E7.80566
G1 X135.345 Y160.022 E7.82399
G1 X135.345 Y162.221 E7.91799
G1 X134.944 Y162.371 E7.93633
G1 X134.944 Y160.173 E8.03033
G1 X134.542 Y160.323 E8.04866
G1 X134.542 Y162.522 E8.14266
G1 X134.141 Y162.672 E8.16100
G1 X134.141 Y160.474 E8.25500
G1 X133.739 Y160.624 E8.27333
G1 X133.739 Y162.823 E8.36733
G1 X133.338 Y162.973 E8.38567
G1 X133.338 Y160.775 E8.47967
G1 X132.936 Y160.925 E8.49800
G1 X132.936 Y163.124 E8.59200
G1 X132.535 Y163.275 E8.61034
G1 X132.535 Y161.067 E8.70472
G1 X132.133 Y161.173 E8.72248
G1 X132.133 Y163.425 E8.81878
G1 X131.732 Y163.576 E8.83711
G1 X131.732 Y161.227 E8.93754
G1 X131.508 Y161.242 E8.94714
G1 X131.330 Y161.225 E8.95476
G1 X131.330 Y163.726 E9.06170
G1 X130.929 Y163.877 E9.08003
G1 X130.929 Y161.186 E9.19508
G1 X130.833 Y161.170 E9.19921
G1 X130.527 Y161.049 E9.21328
G1 X130.527 Y164.027 E9.34059
G1 X130.351 Y164.095 E9.34868
G1 X130.126 Y164.215 E9.35958
G1 X130.126 Y160.891 E9.50167
G1 X129.855 Y160.785 E9.51413
G1 X129.724 Y160.697 E9.52085
G1 X129.724 Y164.429 E9.68041
G1 X129.323 Y164.758 E9.70260
G1 X129.323 Y160.375 E9.88997
G1 X129.079 Y160.137 E9.90456
G1 X128.921 Y159.919 E9.91603
G1 X128.921 Y165.195 E10.14158
G1 X128.634 Y165.668 E10.16524
G1 X128.520 Y166.020 E10.18106
G1 Z0.250 F7800.000
G1 Z0.500 F7800.000
G1 E8.18106 F2400.00000
G92 E0
G1 X137.425 Y161.441 F7800.000
G1 E2.00000 F2400.00000
G1 F2400.000
G1 X138.496 Y161.039 E2.04888
G1 X132.633 Y161.039 E2.29956
G1 X133.703 Y160.638 E2.34844
G1 X139.566 Y160.638 E2.59911
G1 X140.637 Y160.236 E2.64799
G1 X134.774 Y160.236 E2.89866
G1 X135.844 Y159.835 E2.94755
G1 X141.707 Y159.835 E3.19822
G1 X142.778 Y159.433 E3.24710
G1 X136.915 Y159.433 E3.49776
G1 X137.985 Y159.032 E3.54664
G1 X143.849 Y159.032 E3.79731
G1 X144.919 Y158.630 E3.84619
G1 X139.056 Y158.630 E4.09685
G1 X140.127 Y158.229 E4.14574
G1 X145.990 Y158.229 E4.39640
G1 X147.060 Y157.828 E4.44528
G1 X141.197 Y157.828 E4.69593
G1 X142.268 Y157.426 E4.74482
G1 X148.131 Y157.426 E4.99547
G1 X149.201 Y157.025 E5.04435
G1 X143.338 Y157.025 E5.29501
G1 X144.409 Y156.623 E5.34389
G1 X150.272 Y156.623 E5.59454
G1 X151.342 Y156.222 E5.64342
G1 X145.479 Y156.222 E5.89407
G1 X146.550 Y155.820 E5.94296
G1 X152.413 Y155.820 E6.19360
G1 X153.483 Y155.419 E6.24248
G1 X147.621 Y155.419 E6.49313
G1 X148.691 Y155.017 E6.54201
G1 X154.554 Y155.017 E6.79266
G1 X155.624 Y154.616 E6.84154
G1 X149.762 Y154.616 E7.09218
G1 X150.832 Y154.215 E7.14106
G1 X156.695 Y154.215 E7.39170
G1 X157.765 Y153.813 E7.44058
G1 X151.903 Y153.813 E7.69122
G1 X152.974 Y153.412 E7.74010
G1 X159.019 Y153.412 E7.99857
G1 E5.99857 F2400.00000
G92 E0
G1 X166.179 Y157.426 F7800.000
G1 E2.00000 F2400.00000
G1 F2400.000
G1 X170.813 Y157.426 E2.19814
G1 X171.810 Y157.025 E2.24407
G1 X165.162 Y157.025 E2.52825
G1 X164.818 Y156.875 E2.54431
G1 X164.403 Y156.623 E2.56508
G1 X172.566 Y156.623 E2.91410
G1 X173.181 Y156.222 E2.94549
G1 X163.819 Y156.222 E3.34576
G1 X163.562 Y156.033 E3.35940
G1 X163.362 Y155.820 E3.37187
