; Generated by RP3 on 2021-11-8
; Job 0 - 3D Cloner

G21 ; set units to millimeters
M107 ;fan off
G28 ;home all axes
G90 ;absolute coordinates
G28 E0 ;home all axes
G1 E20.0 F100.0 ;extrude 20mm material with 100 mm/min speed
G28 E0 ;home all axes
G90 ;use absolute coordinates
M82 ; use absolute distances for extrusion
G92 E0 ;home of axes
M104 S90
G1 E-2.00000 F24000 ;retracts 2mm of material
M106 S102

(Layer 1)
G1  Z0.250 F2400

(Raster 1)
G92 E0
G1  X0012.568 Y0101.041 F2400
G1  E2.00000 F2400
G1  X0015.163 Y0101.041 E2.119 F2400
G1  X0015.400 Y0101.081 E2.130
G1  X0015.400 Y0101.441 E2.146
G1  X0012.320 Y0101.441 E2.287
G1  X0012.320 Y0101.841 E2.305
G1  X0015.400 Y0101.841 E2.446
G1  X0015.400 Y0102.241 E2.464
G1  X0012.320 Y0102.241 E2.605
G1  X0012.320 Y0102.641 E2.623
G1  X0015.400 Y0102.641 E2.764
G1  X0015.400 Y0103.041 E2.783
G1  X0012.320 Y0103.041 E2.923
G1  X0012.320 Y0103.441 E2.942
G1  X0015.400 Y0103.441 E3.082
G1  X0015.400 Y0103.841 E3.101
G1  X0012.320 Y0103.841 E3.242
G1  X0012.320 Y0104.241 E3.260
G1  X0015.400 Y0104.241 E3.401
G1  X0015.400 Y0104.641 E3.419
G1  X0012.320 Y0104.641 E3.560
G1  X0012.320 Y0105.041 E3.578
G1  X0015.400 Y0105.041 E3.719
G1  X0015.400 Y0105.441 E3.737
G1  X0012.320 Y0105.441 E3.878
G1  X0012.320 Y0105.841 E3.896
G1  X0015.400 Y0105.841 E4.037
G1  X0015.400 Y0106.241 E4.055
G1  X0012.320 Y0106.241 E4.196
G1  X0012.320 Y0106.641 E4.215
G1  X0015.400 Y0106.641 E4.355
G1  X0015.400 Y0107.041 E4.374
G1  X0012.320 Y0107.041 E4.514
G1  X0012.320 Y0107.441 E4.533
G1  X0015.400 Y0107.441 E4.674
G1  E2.674 F2400

(Layer 2)
G1  Z0.500 F2400

(Raster 1)
G92 E0
G1  X0016.559 Y0101.026 F2400
G1  E2.00000 F2400
G1  X0016.559 Y0107.798 E2.310 F2400
G1  X0016.159 Y0107.798 E2.328
G1  X0016.159 Y0100.959 E2.641
G1  X0015.759 Y0100.892 E2.659
G1  X0015.759 Y0107.798 E2.975
G1  X0015.359 Y0107.798 E2.993
G1  X0015.359 Y0100.825 E3.312
G1  X0014.959 Y0100.758 E3.330
G1  X0014.959 Y0107.798 E3.652
G1  X0014.559 Y0107.798 E3.671
G1  X0014.559 Y0100.725 E3.994
G1  X0014.159 Y0100.725 E4.012
G1  X0014.159 Y0107.798 E4.336
G1  X0013.759 Y0107.798 E4.354
G1  X0013.759 Y0100.725 E4.677
G1  X0013.359 Y0100.725 E4.696
G1  X0013.359 Y0107.798 E5.019
G1  X0012.959 Y0107.798 E5.037
G1  X0012.959 Y0100.730 E5.360
G1  X0012.902 Y0100.734 E5.363
G1  X0012.559 Y0100.792 E5.379
G1  X0012.559 Y0107.798 E5.699
G1  X0012.159 Y0107.798 E5.717
G1  X0012.159 Y0100.858 E6.035
G1  X0011.759 Y0100.925 E6.053
G1  X0011.759 Y0107.798 E6.368
G1  X0011.359 Y0107.798 E6.386
G1  X0011.359 Y0100.991 E6.697
G1  E4.697 F2400

(Layer 3)
G1  Z0.750 F2400

(Raster 1)
G92 E0
G1  X0015.755 Y0100.641 F2400
G1  E2.00000 F2400
G1  X0011.965 Y0100.641 E2.173 F2400
G1  X0011.232 Y0100.763 E2.207
G1  X0011.119 Y0100.791 E2.213
G1  X0010.358 Y0101.041 E2.249
G1  X0017.362 Y0101.041 E2.569
G1  X0017.426 Y0101.062 E2.572
G1  X0017.426 Y0101.441 E2.590
G1  X0010.295 Y0101.441 E2.916
G1  X0010.295 Y0101.841 E2.934
G1  X0017.426 Y0101.841 E3.260
G1  X0017.426 Y0102.241 E3.278
G1  X0010.295 Y0102.241 E3.604
G1  X0010.295 Y0102.641 E3.623
G1  X0017.426 Y0102.641 E3.949
G1  X0017.426 Y0103.041 E3.967
G1  X0010.295 Y0103.041 E4.293
G1  X0010.295 Y0103.441 E4.311
G1  X0017.426 Y0103.441 E4.637
G1  X0017.426 Y0103.841 E4.656
G1  X0010.295 Y0103.841 E4.982
G1  X0010.295 Y0104.241 E5.000
G1  X0017.426 Y0104.241 E5.326
G1  X0017.426 Y0104.641 E5.344
G1  X0010.295 Y0104.641 E5.670
G1  X0010.295 Y0105.041 E5.689
G1  X0017.426 Y0105.041 E6.015
G1  X0017.426 Y0105.441 E6.033
G1  X0010.295 Y0105.441 E6.359
G1  X0010.295 Y0105.841 E6.377
G1  X0017.426 Y0105.841 E6.703
G1  X0017.426 Y0106.241 E6.722
G1  X0010.295 Y0106.241 E7.048
G1  X0010.295 Y0106.641 E7.066
G1  X0017.426 Y0106.641 E7.392
G1  X0017.426 Y0107.041 E7.410
G1  X0010.295 Y0107.041 E7.736
G1  X0010.295 Y0107.441 E7.754
G1  X0017.426 Y0107.441 E8.080
G1  E6.080 F2400

(Layer 4)
G1  Z1.000 F2400

(Raster 1)
G92 E0
G1  X0017.759 Y0107.798 F2400
G1  E2.00000 F2400
G1  X0017.759 Y0100.932 E2.314 F2400
G1  X0017.359 Y0100.801 E2.333
G1  X0017.359 Y0107.798 E2.653
G1  X0016.959 Y0107.798 E2.671
G1  X0016.959 Y0100.670 E2.997
G1  X0016.590 Y0100.548 E3.015
G1  X0016.559 Y0100.541 E3.016
G1  X0016.559 Y0107.798 E3.348
G1  X0016.159 Y0107.798 E3.366
G1  X0016.159 Y0100.459 E3.702
G1  X0015.759 Y0100.393 E3.721
G1  X0015.759 Y0107.798 E4.059
G1  X0015.359 Y0107.798 E4.077
G1  X0015.359 Y0100.326 E4.419
G1  X0014.959 Y0100.259 E4.438
G1  X0014.959 Y0107.798 E4.782
G1  X0014.559 Y0107.798 E4.800
G1  X0014.559 Y0100.219 E5.147
G1  X0014.159 Y0100.219 E5.165
G1  X0014.159 Y0107.798 E5.512
G1  X0013.759 Y0107.798 E5.530
G1  X0013.759 Y0100.219 E5.876
G1  X0013.359 Y0100.219 E5.895
G1  X0013.359 Y0107.798 E6.241
G1  X0012.959 Y0107.798 E6.260
G1  X0012.959 Y0100.235 E6.605
G1  X0012.855 Y0100.244 E6.610
G1  X0012.559 Y0100.293 E6.624
G1  X0012.559 Y0107.798 E6.967
G1  X0012.159 Y0107.798 E6.985
G1  X0012.159 Y0100.360 E7.325
G1  X0011.759 Y0100.426 E7.344
G1  X0011.759 Y0107.798 E7.681
G1  X0011.359 Y0107.798 E7.699
G1  X0011.359 Y0100.493 E8.033
G1  X0011.342 Y0100.495 E8.034
G1  X0011.130 Y0100.548 E8.044
G1  X0010.959 Y0100.604 E8.052
G1  X0010.959 Y0107.798 E8.381
G1  X0010.559 Y0107.798 E8.399
G1  X0010.559 Y0100.736 E8.722
G1  X0010.159 Y0100.867 E8.741
G1  X0010.159 Y0107.798 E9.058
G1  X0009.759 Y0107.798 E9.076
G1  X0009.759 Y0100.999 E9.387
G1  E7.387 F2400

(Layer 5)
G1  Z1.250 F2400

(Raster 1)
G92 E0
G1  X0011.399 Y0100.241 F2400
G1  E2.00000 F2400
G1  X0016.321 Y0100.241 E2.225 F2400
G1  X0016.579 Y0100.305 E2.237
G1  X0017.596 Y0100.641 E2.286
G1  X0010.119 Y0100.641 E2.628
G1  X0009.479 Y0100.851 E2.659
G1  X0009.073 Y0101.041 E2.679
G1  X0018.650 Y0101.041 E3.117
G1  X0018.664 Y0101.048 E3.118
G1  X0018.664 Y0101.441 E3.136
G1  X0009.056 Y0101.441 E3.575
G1  X0009.056 Y0101.841 E3.593
G1  X0018.664 Y0101.841 E4.033
G1  X0018.664 Y0102.241 E4.051
G1  X0009.056 Y0102.241 E4.490
G1  X0009.056 Y0102.641 E4.509
G1  X0018.664 Y0102.641 E4.948
G1  X0018.664 Y0103.041 E4.966
G1  X0009.056 Y0103.041 E5.406
G1  X0009.056 Y0103.441 E5.424
G1  X0018.664 Y0103.441 E5.863
G1  X0018.664 Y0103.841 E5.881
G1  X0009.056 Y0103.841 E6.321
G1  X0009.056 Y0104.241 E6.339
G1  X0018.664 Y0104.241 E6.778
G1  X0018.664 Y0104.641 E6.797
G1  X0009.056 Y0104.641 E7.236
G1  X0009.056 Y0105.041 E7.254
G1  X0018.664 Y0105.041 E7.694
G1  X0018.664 Y0105.441 E7.712
G1  X0009.056 Y0105.441 E8.151
G1  X0009.056 Y0105.841 E8.170
G1  X0018.664 Y0105.841 E8.609
G1  X0018.664 Y0106.241 E8.627
G1  X0009.056 Y0106.241 E9.066
G1  X0009.056 Y0106.641 E9.085
G1  X0018.664 Y0106.641 E9.524
G1  X0018.664 Y0107.041 E9.542
G1  X0009.056 Y0107.041 E9.982
G1  X0009.056 Y0107.441 E10.000
G1  X0018.664 Y0107.441 E10.439
G1  E8.439 F2400

(Layer 6)
G1  Z1.500 F2400

(Raster 1)
G92 E0
G1  X0018.959 Y0100.968 F2400
G1  E2.00000 F2400
G1  X0018.959 Y0107.798 E2.312 F2400
G1  X0018.559 Y0107.798 E2.331
G1  X0018.559 Y0100.776 E2.652
G1  X0018.217 Y0100.612 E2.669
G1  X0018.159 Y0100.593 E2.672
G1  X0018.159 Y0107.798 E3.001
G1  X0017.759 Y0107.798 E3.019
G1  X0017.759 Y0100.460 E3.355
G1  X0017.359 Y0100.326 E3.374
G1  X0017.359 Y0107.798 E3.716
G1  X0016.959 Y0107.798 E3.734
G1  X0016.959 Y0100.193 E4.082
G1  X0016.567 Y0100.062 E4.101
G1  X0016.559 Y0100.060 E4.101
G1  X0016.559 Y0107.798 E4.455
G1  X0016.159 Y0107.798 E4.473
G1  X0016.159 Y0099.961 E4.831
G1  X0016.158 Y0099.960 E4.831
G1  X0015.759 Y0099.894 E4.850
G1  X0015.759 Y0107.798 E5.211
G1  X0015.359 Y0107.798 E5.230
G1  X0015.359 Y0099.828 E5.594
G1  X0014.959 Y0099.761 E5.612
G1  X0014.959 Y0107.798 E5.980
G1  X0014.559 Y0107.798 E5.998
G1  X0014.559 Y0099.724 E6.367
G1  X0014.447 Y0099.714 E6.372
G1  X0014.159 Y0099.714 E6.386
G1  X0014.159 Y0107.798 E6.755
G1  X0013.759 Y0107.798 E6.773
G1  X0013.759 Y0099.714 E7.143
G1  X0013.359 Y0099.714 E7.161
G1  X0013.359 Y0107.798 E7.531
G1  X0012.959 Y0107.798 E7.549
G1  X0012.959 Y0099.741 E7.918
G1  X0012.808 Y0099.753 E7.925
G1  X0012.559 Y0099.795 E7.936
G1  X0012.559 Y0107.798 E8.302
G1  X0012.159 Y0107.798 E8.320
G1  X0012.159 Y0099.861 E8.683
G1  X0011.759 Y0099.928 E8.702
G1  X0011.759 Y0107.798 E9.061
G1  X0011.359 Y0107.798 E9.080
G1  X0011.359 Y0100.011 E9.436
G1  X0011.152 Y0100.062 E9.445
G1  X0010.959 Y0100.126 E9.455
G1  X0010.959 Y0107.798 E9.806
G1  X0010.559 Y0107.798 E9.824
G1  X0010.559 Y0100.257 E10.169
G1  X0010.159 Y0100.389 E10.188
G1  X0010.159 Y0107.798 E10.527
G1  X0009.759 Y0107.798 E10.545
G1  X0009.759 Y0100.520 E10.878
G1  X0009.652 Y0100.556 E10.883
G1  X0009.359 Y0100.692 E10.897
G1  X0009.359 Y0107.798 E11.222
G1  X0008.959 Y0107.798 E11.241
G1  X0008.959 Y0100.879 E11.557
G1  E9.557 F2400

(Layer 7)
G1  Z1.750 F2400

(Raster 1)
G92 E0
G1  X0016.620 Y0099.841 F2400
G1  E2.00000 F2400
G1  X0011.098 Y0099.841 E2.252 F2400
G1  X0009.888 Y0100.241 E2.311
G1  X0017.810 Y0100.241 E2.673
G1  X0018.127 Y0100.348 E2.688
G1  X0018.739 Y0100.641 E2.719
G1  X0008.992 Y0100.641 E3.165
G1  X0008.147 Y0101.041 E3.208
G1  X0019.574 Y0101.041 E3.730
G1  X0019.588 Y0101.048 E3.731
G1  X0019.588 Y0101.441 E3.749
G1  X0008.132 Y0101.441 E4.273
G1  X0008.132 Y0101.841 E4.291
G1  X0019.588 Y0101.841 E4.815
G1  X0019.588 Y0102.241 E4.833
G1  X0008.132 Y0102.241 E5.357
G1  X0008.132 Y0102.641 E5.375
G1  X0019.588 Y0102.641 E5.899
G1  X0019.588 Y0103.041 E5.917
G1  X0008.132 Y0103.041 E6.441
G1  X0008.132 Y0103.441 E6.459
G1  X0019.588 Y0103.441 E6.983
G1  X0019.588 Y0103.841 E7.001
G1  X0008.132 Y0103.841 E7.525
G1  X0008.132 Y0104.241 E7.543
G1  X0019.588 Y0104.241 E8.067
G1  X0019.588 Y0104.641 E8.085
G1  X0008.132 Y0104.641 E8.609
G1  X0008.132 Y0105.041 E8.628
G1  X0019.588 Y0105.041 E9.151
G1  X0019.588 Y0105.441 E9.170
G1  X0008.132 Y0105.441 E9.693
G1  X0008.132 Y0105.841 E9.712
G1  X0019.588 Y0105.841 E10.236
G1  X0019.588 Y0106.241 E10.254
G1  X0008.132 Y0106.241 E10.778
G1  X0008.132 Y0106.641 E10.796
G1  X0019.588 Y0106.641 E11.320
G1  X0019.588 Y0107.041 E11.338
G1  X0008.132 Y0107.041 E11.862
G1  X0008.132 Y0107.441 E11.880
G1  X0019.588 Y0107.441 E12.404
G1  E10.404 F2400

(Layer 8)
G1  Z2.000 F2400

(Raster 1)
G92 E0
G1  X0019.759 Y0100.909 F2400
G1  E2.00000 F2400
G1  X0019.759 Y0107.798 E2.315 F2400
G1  X0019.359 Y0107.798 E2.333
G1  X0019.359 Y0100.717 E2.657
G1  X0018.959 Y0100.525 E2.677
G1  X0018.959 Y0107.798 E3.010
G1  X0018.559 Y0107.798 E3.028
G1  X0018.559 Y0100.334 E3.369
G1  X0018.159 Y0100.142 E3.390
G1  X0018.159 Y0107.798 E3.740
G1  X0017.759 Y0107.798 E3.758
G1  X0017.759 Y0099.989 E4.115
G1  X0017.359 Y0099.853 E4.134
G1  X0017.359 Y0107.798 E4.497
G1  X0016.959 Y0107.798 E4.516
G1  X0016.959 Y0099.717 E4.885
G1  X0016.559 Y0099.581 E4.904
G1  X0016.559 Y0107.798 E5.280
G1  X0016.159 Y0107.798 E5.298
G1  X0016.159 Y0099.480 E5.679
G1  X0015.937 Y0099.425 E5.689
G1  X0015.759 Y0099.396 E5.697
G1  X0015.759 Y0107.798 E6.082
G1  X0015.359 Y0107.798 E6.100
G1  X0015.359 Y0099.329 E6.487
G1  X0014.960 Y0099.263 E6.506
G1  X0014.959 Y0099.263 E6.506
G1  X0014.959 Y0107.798 E6.896
G1  X0014.559 Y0107.798 E6.914
G1  X0014.559 Y0099.229 E7.306
G1  X0014.321 Y0099.209 E7.317
G1  X0014.159 Y0099.209 E7.324
G1  X0014.159 Y0107.798 E7.717
G1  X0013.759 Y0107.798 E7.735
G1  X0013.759 Y0099.209 E8.128
G1  X0013.399 Y0099.209 E8.144
G1  X0013.359 Y0099.212 E8.146
G1  X0013.359 Y0107.798 E8.539
G1  X0012.959 Y0107.798 E8.557
G1  X0012.959 Y0099.246 E8.948
G1  X0012.760 Y0099.263 E8.957
G1  X0012.559 Y0099.296 E8.966
G1  X0012.559 Y0107.798 E9.355
G1  X0012.159 Y0107.798 E9.373
G1  X0012.159 Y0099.363 E9.759
G1  X0011.783 Y0099.425 E9.776
G1  X0011.759 Y0099.431 E9.778
G1  X0011.759 Y0107.798 E10.160
G1  X0011.359 Y0107.798 E10.178
G1  X0011.359 Y0099.531 E10.556
G1  X0011.175 Y0099.576 E10.565
G1  X0010.959 Y0099.648 E10.575
G1  X0010.959 Y0107.798 E10.948
G1  X0010.559 Y0107.798 E10.966
G1  X0010.559 Y0099.781 E11.333
G1  X0010.159 Y0099.913 E11.352
G1  X0010.159 Y0107.798 E11.713
G1  X0009.759 Y0107.798 E11.731
G1  X0009.759 Y0100.059 E12.085
G1  X0009.359 Y0100.248 E12.105
G1  X0009.359 Y0107.798 E12.450
G1  X0008.959 Y0107.798 E12.468
G1  X0008.959 Y0100.438 E12.805
G1  X0008.559 Y0100.627 E12.825
G1  X0008.559 Y0107.798 E13.153
G1  X0008.159 Y0107.798 E13.171
G1  X0008.159 Y0100.816 E13.490
G1  X0007.759 Y0101.006 E13.511
G1  X0007.759 Y0107.798 E13.821
G1  E11.821 F2400

(Layer 9)
G1  Z2.250 F2400

(Raster 1)
G92 E0
G1  X0015.127 Y0099.041 F2400
G1  E2.00000 F2400
G1  X0012.593 Y0099.041 E2.116 F2400
G1  X0011.893 Y0099.158 E2.148
G1  X0011.187 Y0099.333 E2.182
G1  X0010.866 Y0099.441 E2.197
G1  X0016.847 Y0099.441 E2.470
G1  X0017.946 Y0099.818 E2.524
G1  X0017.994 Y0099.841 E2.526
G1  X0009.737 Y0099.841 E2.903
G1  X0008.897 Y0100.241 E2.946
G1  X0018.826 Y0100.241 E3.400
G1  X0019.658 Y0100.641 E3.442
G1  X0008.057 Y0100.641 E3.973
G1  X0007.947 Y0100.694 E3.978
G1  X0007.382 Y0101.038 E4.008
G1  X0007.382 Y0101.041 E4.009
G1  X0020.339 Y0101.041 E4.601
G1  X0020.339 Y0101.441 E4.619
G1  X0007.382 Y0101.441 E5.212
G1  X0007.382 Y0101.841 E5.230
G1  X0020.339 Y0101.841 E5.822
G1  X0020.339 Y0102.241 E5.841
G1  X0007.382 Y0102.241 E6.433
G1  X0007.382 Y0102.641 E6.451
G1  X0020.339 Y0102.641 E7.044
G1  X0020.339 Y0103.041 E7.062
G1  X0007.382 Y0103.041 E7.654
G1  X0007.382 Y0103.441 E7.673
G1  X0020.339 Y0103.441 E8.265
G1  X0020.339 Y0103.841 E8.283
G1  X0007.382 Y0103.841 E8.876
G1  X0007.382 Y0104.241 E8.894
G1  X0020.339 Y0104.241 E9.486
G1  X0020.339 Y0104.641 E9.505
G1  X0007.382 Y0104.641 E10.097
G1  X0007.382 Y0105.041 E10.115
G1  X0020.339 Y0105.041 E10.708
G1  X0020.339 Y0105.441 E10.726
G1  X0007.382 Y0105.441 E11.318
G1  X0007.382 Y0105.841 E11.337
G1  X0020.339 Y0105.841 E11.929
G1  X0020.339 Y0106.241 E11.947
G1  X0007.382 Y0106.241 E12.540
G1  X0007.382 Y0106.641 E12.558
G1  X0020.339 Y0106.641 E13.150
G1  X0020.339 Y0107.041 E13.169
G1  X0007.382 Y0107.041 E13.761
G1  X0007.382 Y0107.441 E13.779
G1  X0020.339 Y0107.441 E14.372
G1  E12.372 F2400

(Layer 10)
G1  Z2.500 F2400

(Raster 1)
G92 E0
G1  X0020.559 Y0100.975 F2400
G1  E2.00000 F2400
G1  X0020.559 Y0107.798 E2.312 F2400
G1  X0020.159 Y0107.798 E2.330
G1  X0020.159 Y0100.728 E2.653
G1  X0019.759 Y0100.481 E2.675
G1  X0019.759 Y0107.798 E3.009
G1  X0019.359 Y0107.798 E3.028
G1  X0019.359 Y0100.278 E3.372
G1  X0018.959 Y0100.085 E3.392
G1  X0018.959 Y0107.798 E3.744
G1  X0018.559 Y0107.798 E3.763
G1  X0018.559 Y0099.893 E4.124
G1  X0018.159 Y0099.700 E4.144
G1  X0018.159 Y0107.798 E4.515
G1  X0017.759 Y0107.798 E4.533
G1  X0017.759 Y0099.520 E4.911
G1  X0017.359 Y0099.381 E4.931
G1  X0017.359 Y0107.798 E5.316
G1  X0016.959 Y0107.798 E5.334
G1  X0016.959 Y0099.242 E5.725
G1  X0016.559 Y0099.103 E5.744
G1  X0016.559 Y0107.798 E6.142
G1  X0016.159 Y0107.798 E6.160
G1  X0016.159 Y0099.000 E6.562
G1  X0015.759 Y0098.901 E6.581
G1  X0015.759 Y0107.798 E6.988
G1  X0015.359 Y0107.798 E7.006
G1  X0015.359 Y0098.830 E7.416
G1  X0015.007 Y0098.772 E7.433
G1  X0014.959 Y0098.768 E7.435
G1  X0014.959 Y0107.798 E7.848
G1  X0014.559 Y0107.798 E7.866
G1  X0014.559 Y0098.734 E8.280
G1  X0014.195 Y0098.704 E8.297
G1  X0014.159 Y0098.704 E8.299
G1  X0014.159 Y0107.798 E8.714
G1  X0013.759 Y0107.798 E8.733
G1  X0013.759 Y0098.704 E9.148
G1  X0013.525 Y0098.704 E9.159
G1  X0013.359 Y0098.718 E9.167
G1  X0013.359 Y0107.798 E9.582
G1  X0012.959 Y0107.798 E9.600
G1  X0012.959 Y0098.751 E10.014
G1  X0012.713 Y0098.772 E10.025
G1  X0012.559 Y0098.798 E10.032
G1  X0012.559 Y0107.798 E10.444
G1  X0012.159 Y0107.798 E10.462
G1  X0012.159 Y0098.864 E10.870
G1  X0012.003 Y0098.890 E10.878
G1  X0011.759 Y0098.951 E10.889
G1  X0011.759 Y0107.798 E11.294
G1  X0011.359 Y0107.798 E11.312
G1  X0011.359 Y0099.050 E11.712
G1  X0011.197 Y0099.091 E11.719
G1  X0010.959 Y0099.169 E11.731
G1  X0010.959 Y0107.798 E12.125
G1  X0010.559 Y0107.798 E12.144
G1  X0010.559 Y0099.300 E12.532
G1  X0010.335 Y0099.374 E12.543
G1  X0010.159 Y0099.438 E12.552
G1  X0010.159 Y0107.798 E12.934
G1  X0009.759 Y0107.798 E12.952
G1  X0009.759 Y0099.610 E13.326
