; Generated by RP3 on 2021-11-8
; Job 0 - 3D Cloner

G21 ; set units to millimeters
M107 ;fan off
G28 ;home all axes
G90 ;absolute coordinates
G28 E0 ;home all axes
G1 E20.0 F100.0 ;extrude 20mm material with 100 mm/min speed
G28 E0 ;home all axes
G90 ;use absolute coordinates
M82 ; use absolute distances for extrusion
G92 E0 ;home of axes
M104 S90
G1 E-2.00000 F24000 ;retracts 2mm of material
M106 S102

(Layer 1)
G1  Z0.250 F2400

(Raster 1)
G92 E0
G1  X0015.358 Y0107.798 F2400
G1  E2.00000 F2400
G1  X0015.358 Y0101.074 E2.307 F2400
G1  X0014.958 Y0101.007 E2.326
G1  X0014.958 Y0107.798 E2.636
G1  X0014.558 Y0107.798 E2.655
G1  X0014.558 Y0100.980 E2.966
G1  X0014.158 Y0100.980 E2.985
G1  X0014.158 Y0107.798 E3.296
G1  X0013.758 Y0107.798 E3.315
G1  X0013.758 Y0100.979 E3.626
G1  X0013.358 Y0100.978 E3.645
G1  X0013.358 Y0107.798 E3.957
G1  X0012.958 Y0107.798 E3.975
G1  X0012.958 Y0100.978 E4.287
G1  X0012.558 Y0101.043 E4.305
G1  X0012.558 Y0107.798 E4.614
G1  E2.614 F2400

(Layer 2)
G1  Z0.500 F2400

(Raster 1)
G92 E0
G1  X0011.089 Y0101.042 F2400
G1  E2.00000 F2400
G1  X0016.636 Y0101.042 E2.254 F2400
G1  X0016.697 Y0101.062 E2.257
G1  X0016.697 Y0101.442 E2.274
G1  X0011.023 Y0101.442 E2.533
G1  X0011.023 Y0101.842 E2.552
G1  X0016.697 Y0101.842 E2.811
G1  X0016.697 Y0102.242 E2.829
G1  X0011.023 Y0102.242 E3.089
G1  X0011.023 Y0102.642 E3.107
G1  X0016.697 Y0102.642 E3.367
G1  X0016.697 Y0103.042 E3.385
G1  X0011.023 Y0103.042 E3.644
G1  X0011.023 Y0103.442 E3.663
G1  X0016.697 Y0103.442 E3.922
G1  X0016.697 Y0103.842 E3.940
G1  X0011.023 Y0103.842 E4.200
G1  X0011.023 Y0104.242 E4.218
G1  X0016.697 Y0104.242 E4.477
G1  X0016.697 Y0104.642 E4.496
G1  X0011.023 Y0104.642 E4.755
G1  X0011.023 Y0105.042 E4.773
G1  X0016.697 Y0105.042 E5.033
G1  X0016.697 Y0105.442 E5.051
G1  X0011.023 Y0105.442 E5.311
G1  X0011.023 Y0105.842 E5.329
G1  X0016.697 Y0105.842 E5.588
G1  X0016.697 Y0106.242 E5.607
G1  X0011.023 Y0106.242 E5.866
G1  X0011.023 Y0106.642 E5.884
G1  X0016.697 Y0106.642 E6.144
G1  X0016.697 Y0107.042 E6.162
G1  X0011.023 Y0107.042 E6.421
G1  X0011.023 Y0107.442 E6.440
G1  X0016.697 Y0107.442 E6.699
G1  E4.699 F2400

(Layer 3)
G1  Z0.750 F2400

(Raster 1)
G92 E0
G1  X0017.358 Y0101.040 F2400
G1  E2.00000 F2400
G1  X0017.358 Y0107.798 E2.309 F2400
G1  X0016.958 Y0107.798 E2.327
G1  X0016.958 Y0100.909 E2.642
G1  X0016.601 Y0100.791 E2.659
G1  X0016.558 Y0100.781 E2.661
G1  X0016.558 Y0107.798 E2.982
G1  X0016.158 Y0107.798 E3.001
G1  X0016.158 Y0100.708 E3.325
G1  X0015.758 Y0100.642 E3.343
G1  X0015.758 Y0107.798 E3.670
G1  X0015.358 Y0107.798 E3.689
G1  X0015.358 Y0100.575 E4.019
G1  X0014.958 Y0100.509 E4.037
G1  X0014.958 Y0107.798 E4.371
G1  X0014.558 Y0107.798 E4.389
G1  X0014.558 Y0100.472 E4.724
G1  X0014.158 Y0100.472 E4.742
G1  X0014.158 Y0107.798 E5.077
G1  X0013.758 Y0107.798 E5.095
G1  X0013.758 Y0100.472 E5.430
G1  X0013.358 Y0100.472 E5.449
G1  X0013.358 Y0107.798 E5.784
G1  X0012.958 Y0107.798 E5.802
G1  X0012.958 Y0100.482 E6.136
G1  X0012.879 Y0100.489 E6.140
G1  X0012.558 Y0100.542 E6.155
G1  X0012.558 Y0107.798 E6.486
G1  X0012.158 Y0107.798 E6.505
G1  X0012.158 Y0100.609 E6.833
G1  X0011.758 Y0100.676 E6.852
G1  X0011.758 Y0107.798 E7.178
G1  X0011.358 Y0107.798 E7.196
G1  X0011.358 Y0100.742 E7.518
G1  X0011.232 Y0100.763 E7.524
G1  X0011.119 Y0100.791 E7.530
G1  X0010.958 Y0100.844 E7.537
G1  X0010.958 Y0107.798 E7.855
G1  X0010.558 Y0107.798 E7.874
G1  X0010.558 Y0100.975 E8.185
G1  E6.185 F2400

(Layer 4)
G1  Z1.000 F2400

(Raster 1)
G92 E0
G1  X0012.878 Y0100.242 F2400
G1  E2.00000 F2400
G1  X0014.842 Y0100.242 E2.090 F2400
G1  X0014.865 Y0100.244 E2.091
G1  X0016.378 Y0100.495 E2.161
G1  X0016.590 Y0100.548 E2.171
G1  X0016.875 Y0100.642 E2.185
G1  X0010.845 Y0100.642 E2.460
G1  X0009.628 Y0101.042 E2.519
G1  X0018.092 Y0101.042 E2.906
G1  X0018.154 Y0101.062 E2.909
G1  X0018.154 Y0101.442 E2.926
G1  X0009.566 Y0101.442 E3.319
G1  X0009.566 Y0101.842 E3.337
G1  X0018.154 Y0101.842 E3.730
G1  X0018.154 Y0102.242 E3.748
G1  X0009.566 Y0102.242 E4.141
G1  X0009.566 Y0102.642 E4.159
G1  X0018.154 Y0102.642 E4.552
G1  X0018.154 Y0103.042 E4.570
G1  X0009.566 Y0103.042 E4.962
G1  X0009.566 Y0103.442 E4.981
G1  X0018.154 Y0103.442 E5.373
G1  X0018.154 Y0103.842 E5.392
G1  X0009.566 Y0103.842 E5.784
G1  X0009.566 Y0104.242 E5.803
G1  X0018.154 Y0104.242 E6.195
G1  X0018.154 Y0104.642 E6.213
G1  X0009.566 Y0104.642 E6.606
G1  X0009.566 Y0105.042 E6.624
G1  X0018.154 Y0105.042 E7.017
G1  X0018.154 Y0105.442 E7.035
G1  X0009.566 Y0105.442 E7.428
G1  X0009.566 Y0105.842 E7.446
G1  X0018.154 Y0105.842 E7.839
G1  X0018.154 Y0106.242 E7.857
G1  X0009.566 Y0106.242 E8.250
G1  X0009.566 Y0106.642 E8.268
G1  X0018.154 Y0106.642 E8.661
G1  X0018.154 Y0107.042 E8.679
G1  X0009.566 Y0107.042 E9.072
G1  X0009.566 Y0107.442 E9.090
G1  X0018.154 Y0107.442 E9.482
G1  E7.482 F2400

(Layer 5)
G1  Z1.250 F2400

(Raster 1)
G92 E0
G1  X0018.558 Y0107.798 F2400
G1  E2.00000 F2400
G1  X0018.558 Y0100.997 E2.311 F2400
G1  X0018.299 Y0100.873 E2.324
G1  X0018.158 Y0100.827 E2.331
G1  X0018.158 Y0107.798 E2.650
G1  X0017.758 Y0107.798 E2.668
G1  X0017.758 Y0100.695 E2.993
G1  X0017.358 Y0100.563 E3.012
G1  X0017.358 Y0107.798 E3.343
G1  X0016.958 Y0107.798 E3.361
G1  X0016.958 Y0100.431 E3.698
G1  X0016.579 Y0100.305 E3.716
G1  X0016.558 Y0100.300 E3.717
G1  X0016.558 Y0107.798 E4.060
G1  X0016.158 Y0107.798 E4.078
G1  X0016.158 Y0100.210 E4.425
G1  X0015.758 Y0100.143 E4.443
G1  X0015.758 Y0107.798 E4.793
G1  X0015.358 Y0107.798 E4.812
G1  X0015.358 Y0100.077 E5.165
G1  X0014.958 Y0100.010 E5.183
G1  X0014.958 Y0107.798 E5.539
G1  X0014.558 Y0107.798 E5.558
G1  X0014.558 Y0099.971 E5.915
G1  X0014.510 Y0099.967 E5.918
G1  X0014.158 Y0099.967 E5.934
G1  X0014.158 Y0107.798 E6.292
G1  X0013.758 Y0107.798 E6.310
G1  X0013.758 Y0099.967 E6.668
G1  X0013.358 Y0099.967 E6.686
G1  X0013.358 Y0107.798 E7.044
G1  X0012.958 Y0107.798 E7.063
G1  X0012.958 Y0099.988 E7.420
G1  X0012.831 Y0099.999 E7.426
G1  X0012.558 Y0100.044 E7.438
G1  X0012.558 Y0107.798 E7.793
G1  X0012.158 Y0107.798 E7.811
G1  X0012.158 Y0100.110 E8.162
G1  X0011.758 Y0100.177 E8.181
G1  X0011.758 Y0107.798 E8.529
G1  X0011.358 Y0107.798 E8.548
G1  X0011.358 Y0100.251 E8.893
G1  X0011.141 Y0100.305 E8.903
G1  X0010.958 Y0100.365 E8.912
G1  X0010.958 Y0107.798 E9.252
G1  X0010.558 Y0107.798 E9.270
G1  X0010.558 Y0100.497 E9.604
G1  X0010.158 Y0100.628 E9.623
G1  X0010.158 Y0107.798 E9.951
G1  X0009.758 Y0107.798 E9.969
G1  X0009.758 Y0100.760 E10.291
G1  X0009.479 Y0100.851 E10.304
G1  X0009.358 Y0100.908 E10.310
G1  X0009.358 Y0107.798 E10.625
G1  E8.625 F2400

(Layer 6)
G1  Z1.500 F2400

(Raster 1)
G92 E0
G1  X0015.445 Y0099.842 F2400
G1  E2.00000 F2400
G1  X0012.275 Y0099.842 E2.145 F2400
G1  X0011.562 Y0099.960 E2.178
G1  X0011.152 Y0100.062 E2.197
G1  X0010.606 Y0100.242 E2.224
G1  X0017.106 Y0100.242 E2.521
G1  X0018.217 Y0100.612 E2.574
G1  X0018.279 Y0100.642 E2.577
G1  X0009.466 Y0100.642 E2.980
G1  X0008.609 Y0101.042 E3.024
G1  X0019.114 Y0101.042 E3.504
G1  X0019.126 Y0101.048 E3.505
G1  X0019.126 Y0101.442 E3.523
G1  X0008.594 Y0101.442 E4.004
G1  X0008.594 Y0101.842 E4.022
G1  X0019.126 Y0101.842 E4.504
G1  X0019.126 Y0102.242 E4.522
G1  X0008.594 Y0102.242 E5.004
G1  X0008.594 Y0102.642 E5.022
G1  X0019.126 Y0102.642 E5.504
G1  X0019.126 Y0103.042 E5.522
G1  X0008.594 Y0103.042 E6.003
G1  X0008.594 Y0103.442 E6.022
G1  X0019.126 Y0103.442 E6.503
G1  X0019.126 Y0103.842 E6.522
G1  X0008.594 Y0103.842 E7.003
G1  X0008.594 Y0104.242 E7.021
G1  X0019.126 Y0104.242 E7.503
G1  X0019.126 Y0104.642 E7.521
G1  X0008.594 Y0104.642 E8.003
G1  X0008.594 Y0105.042 E8.021
G1  X0019.126 Y0105.042 E8.503
G1  X0019.126 Y0105.442 E8.521
G1  X0008.594 Y0105.442 E9.003
G1  X0008.594 Y0105.842 E9.021
G1  X0019.126 Y0105.842 E9.502
G1  X0019.126 Y0106.242 E9.521
G1  X0008.594 Y0106.242 E10.002
G1  X0008.594 Y0106.642 E10.021
G1  X0019.126 Y0106.642 E10.502
G1  X0019.126 Y0107.042 E10.520
G1  X0008.594 Y0107.042 E11.002
G1  X0008.594 Y0107.442 E11.020
G1  X0019.126 Y0107.442 E11.502
G1  E9.502 F2400

(Layer 7)
G1  Z1.750 F2400

(Raster 1)
G92 E0
G1  X0019.358 Y0107.798 F2400
G1  E2.00000 F2400
G1  X0019.358 Y0100.938 E2.314 F2400
G1  X0018.958 Y0100.746 E2.334
G1  X0018.958 Y0107.798 E2.656
G1  X0018.558 Y0107.798 E2.675
G1  X0018.558 Y0100.554 E3.006
G1  X0018.158 Y0100.363 E3.026
G1  X0018.158 Y0107.798 E3.366
G1  X0017.758 Y0107.798 E3.384
G1  X0017.758 Y0100.224 E3.731
G1  X0017.358 Y0100.089 E3.750
G1  X0017.358 Y0107.798 E4.102
G1  X0016.958 Y0107.798 E4.121
G1  X0016.958 Y0099.955 E4.479
G1  X0016.558 Y0099.820 E4.498
G1  X0016.558 Y0107.798 E4.863
G1  X0016.158 Y0107.798 E4.881
G1  X0016.158 Y0099.720 E5.251
G1  X0016.048 Y0099.693 E5.256
G1  X0015.758 Y0099.645 E5.269
G1  X0015.758 Y0107.798 E5.642
G1  X0015.358 Y0107.798 E5.660
G1  X0015.358 Y0099.578 E6.036
G1  X0014.958 Y0099.512 E6.055
G1  X0014.958 Y0107.798 E6.434
G1  X0014.558 Y0107.798 E6.452
G1  X0014.558 Y0099.476 E6.832
G1  X0014.384 Y0099.461 E6.840
G1  X0014.158 Y0099.461 E6.851
G1  X0014.158 Y0107.798 E7.232
G1  X0013.758 Y0107.798 E7.250
G1  X0013.758 Y0099.461 E7.631
G1  X0013.358 Y0099.461 E7.649
G1  X0013.358 Y0107.798 E8.031
G1  X0012.958 Y0107.798 E8.049
G1  X0012.958 Y0099.493 E8.429
G1  X0012.784 Y0099.508 E8.437
G1  X0012.558 Y0099.545 E8.447
G1  X0012.558 Y0107.798 E8.824
G1  X0012.158 Y0107.798 E8.843
G1  X0012.158 Y0099.612 E9.217
G1  X0011.758 Y0099.678 E9.235
G1  X0011.758 Y0107.798 E9.607
G1  X0011.358 Y0107.798 E9.625
G1  X0011.358 Y0099.771 E9.992
G1  X0011.164 Y0099.819 E10.001
G1  X0010.958 Y0099.887 E10.011
G1  X0010.958 Y0107.798 E10.373
G1  X0010.558 Y0107.798 E10.391
G1  X0010.558 Y0100.020 E10.746
G1  X0010.158 Y0100.152 E10.766
G1  X0010.158 Y0107.798 E11.115
G1  X0009.758 Y0107.798 E11.134
G1  X0009.758 Y0100.284 E11.477
G1  X0009.717 Y0100.297 E11.479
G1  X0009.358 Y0100.467 E11.497
G1  X0009.358 Y0107.798 E11.832
G1  X0008.958 Y0107.798 E11.851
G1  X0008.958 Y0100.657 E12.177
G1  X0008.558 Y0100.846 E12.197
G1  X0008.558 Y0107.798 E12.515
G1  X0008.158 Y0107.798 E12.533
G1  X0008.158 Y0101.036 E12.843
G1  E10.843 F2400

(Layer 8)
G1  Z2.000 F2400

(Raster 1)
G92 E0
G1  X0011.716 Y0099.442 F2400
G1  E2.00000 F2400
G1  X0016.004 Y0099.442 E2.196 F2400
G1  X0016.545 Y0099.576 E2.222
G1  X0017.327 Y0099.842 E2.259
G1  X0010.374 Y0099.842 E2.577
G1  X0009.852 Y0100.015 E2.602
G1  X0009.373 Y0100.242 E2.627
G1  X0018.368 Y0100.242 E3.038
G1  X0019.202 Y0100.642 E3.080
G1  X0008.528 Y0100.642 E3.568
G1  X0007.735 Y0101.017 E3.608
G1  X0007.703 Y0101.037 E3.610
G1  X0007.703 Y0101.042 E3.610
G1  X0020.017 Y0101.042 E4.173
G1  X0020.017 Y0101.442 E4.192
G1  X0007.703 Y0101.442 E4.755
G1  X0007.703 Y0101.842 E4.773
G1  X0020.017 Y0101.842 E5.336
G1  X0020.017 Y0102.242 E5.354
G1  X0007.703 Y0102.242 E5.917
G1  X0007.703 Y0102.642 E5.935
G1  X0020.017 Y0102.642 E6.498
G1  X0020.017 Y0103.042 E6.517
G1  X0007.703 Y0103.042 E7.080
G1  X0007.703 Y0103.442 E7.098
G1  X0020.017 Y0103.442 E7.661
G1  X0020.017 Y0103.842 E7.679
G1  X0007.703 Y0103.842 E8.242
G1  X0007.703 Y0104.242 E8.261
G1  X0020.017 Y0104.242 E8.824
G1  X0020.017 Y0104.642 E8.842
G1  X0007.703 Y0104.642 E9.405
G1  X0007.703 Y0105.042 E9.423
G1  X0020.017 Y0105.042 E9.986
G1  X0020.017 Y0105.442 E10.005
G1  X0007.703 Y0105.442 E10.568
G1  X0007.703 Y0105.842 E10.586
G1  X0020.017 Y0105.842 E11.149
G1  X0020.017 Y0106.242 E11.167
G1  X0007.703 Y0106.242 E11.730
G1  X0007.703 Y0106.642 E11.749
G1  X0020.017 Y0106.642 E12.312
G1  X0020.017 Y0107.042 E12.330
G1  X0007.703 Y0107.042 E12.893
G1  X0007.703 Y0107.442 E12.911
G1  X0020.017 Y0107.442 E13.474
G1  E11.474 F2400

(Layer 9)
G1  Z2.250 F2400

(Raster 1)
G92 E0
G1  X0020.158 Y0107.798 F2400
G1  E2.00000 F2400
G1  X0020.158 Y0100.926 E2.314 F2400
G1  X0019.835 Y0100.726 E2.332
G1  X0019.758 Y0100.689 E2.335
G1  X0019.758 Y0107.798 E2.660
G1  X0019.358 Y0107.798 E2.679
G1  X0019.358 Y0100.497 E3.012
G1  X0018.958 Y0100.305 E3.033
G1  X0018.958 Y0107.798 E3.375
G1  X0018.558 Y0107.798 E3.394
G1  X0018.558 Y0100.113 E3.745
G1  X0018.158 Y0099.920 E3.765
G1  X0018.158 Y0107.798 E4.125
G1  X0017.758 Y0107.798 E4.144
G1  X0017.758 Y0099.754 E4.511
G1  X0017.358 Y0099.617 E4.531
G1  X0017.358 Y0107.798 E4.905
G1  X0016.958 Y0107.798 E4.923
G1  X0016.958 Y0099.479 E5.303
G1  X0016.558 Y0099.342 E5.323
G1  X0016.558 Y0107.798 E5.709
G1  X0016.158 Y0107.798 E5.728
G1  X0016.158 Y0099.240 E6.119
G1  X0015.827 Y0099.158 E6.135
G1  X0015.758 Y0099.146 E6.138
G1  X0015.758 Y0107.798 E6.533
G1  X0015.358 Y0107.798 E6.552
G1  X0015.358 Y0099.080 E6.950
G1  X0014.984 Y0099.017 E6.968
G1  X0014.958 Y0099.015 E6.969
G1  X0014.958 Y0107.798 E7.370
G1  X0014.558 Y0107.798 E7.388
G1  X0014.558 Y0098.981 E7.792
G1  X0014.258 Y0098.956 E7.805
G1  X0014.158 Y0098.956 E7.810
G1  X0014.158 Y0107.798 E8.214
G1  X0013.758 Y0107.798 E8.232
G1  X0013.758 Y0098.956 E8.637
G1  X0013.462 Y0098.956 E8.650
G1  X0013.358 Y0098.965 E8.655
G1  X0013.358 Y0107.798 E9.059
G1  X0012.958 Y0107.798 E9.077
G1  X0012.958 Y0098.999 E9.479
G1  X0012.736 Y0099.017 E9.490
G1  X0012.558 Y0099.047 E9.498
G1  X0012.558 Y0107.798 E9.898
G1  X0012.158 Y0107.798 E9.916
G1  X0012.158 Y0099.113 E10.313
G1  X0011.893 Y0099.158 E10.326
G1  X0011.758 Y0099.191 E10.332
G1  X0011.758 Y0107.798 E10.725
G1  X0011.358 Y0107.798 E10.744
G1  X0011.358 Y0099.291 E11.133
G1  X0011.187 Y0099.333 E11.141
G1  X0010.958 Y0099.410 E11.152
G1  X0010.958 Y0107.798 E11.535
G1  X0010.558 Y0107.798 E11.553
G1  X0010.558 Y0099.545 E11.931
G1  X0010.158 Y0099.679 E11.950
G1  X0010.158 Y0107.798 E12.321
G1  X0009.758 Y0107.798 E12.339
G1  X0009.758 Y0099.831 E12.704
G1  X0009.358 Y0100.022 E12.724
G1  X0009.358 Y0107.798 E13.080
G1  X0008.958 Y0107.798 E13.098
G1  X0008.958 Y0100.212 E13.445
G1  X0008.558 Y0100.403 E13.465
G1  X0008.558 Y0107.798 E13.803
G1  X0008.158 Y0107.798 E13.821
G1  X0008.158 Y0100.593 E14.151
G1  X0007.947 Y0100.694 E14.161
G1  X0007.758 Y0100.809 E14.171
G1  X0007.758 Y0107.798 E14.491
G1  E12.491 F2400

(Layer 10)
G1  Z2.500 F2400

(Raster 1)
G92 E0
G1  X0016.327 Y0099.042 F2400
G1  E2.00000 F2400
G1  X0011.393 Y0099.042 E2.226 F2400
G1  X0011.197 Y0099.091 E2.235
G1  X0010.335 Y0099.374 E2.276
G1  X0010.148 Y0099.442 E2.285
G1  X0017.534 Y0099.442 E2.623
G1  X0017.855 Y0099.553 E2.639
G1  X0018.454 Y0099.842 E2.669
G1  X0009.271 Y0099.842 E3.089
G1  X0008.430 Y0100.242 E3.131
G1  X0019.284 Y0100.242 E3.628
G1  X0019.686 Y0100.436 E3.648
G1  X0020.020 Y0100.642 E3.666
G1  X0007.711 Y0100.642 E4.229
G1  X0007.060 Y0101.038 E4.264
G1  X0007.060 Y0101.042 E4.264
G1  X0020.660 Y0101.042 E4.886
G1  X0020.660 Y0101.442 E4.904
G1  X0007.060 Y0101.442 E5.526
G1  X0007.060 Y0101.842 E5.544
G1  X0020.660 Y0101.842 E6.166
G1  X0020.660 Y0102.242 E6.184
G1  X0007.060 Y0102.242 E6.806
G1  X0007.060 Y0102.642 E6.824
G1  X0020.660 Y0102.642 E7.446
G1  X0020.660 Y0103.042 E7.464
G1  X0007.060 Y0103.042 E8.086
G1  X0007.060 Y0103.442 E8.104
G1  X0020.660 Y0103.442 E8.726
G1  X0020.660 Y0103.842 E8.744
G1  X0007.060 Y0103.842 E9.366
G1  X0007.060 Y0104.242 E9.384
G1  X0020.660 Y0104.242 E10.006
G1  X0020.660 Y0104.642 E10.024
G1  X0007.060 Y0104.642 E10.646
G1  X0007.060 Y0105.042 E10.664
G1  X0020.660 Y0105.042 E11.286
G1  X0020.660 Y0105.442 E11.304
G1  X0007.060 Y0105.442 E11.926
G1  X0007.060 Y0105.842 E11.944
G1  X0020.660 Y0105.842 E12.566
G1  X0020.660 Y0106.242 E12.584
G1  X0007.060 Y0106.242 E13.206
G1  X0007.060 Y0106.642 E13.225
G1  X0020.660 Y0106.642 E13.846
G1  X0020.660 Y0107.042 E13.865
G1  X0007.060 Y0107.042 E14.486
G1  X0007.060 Y0107.442 E14.505
G1  X0020.660 Y0107.442 E15.126
G1  E13.126 F2400

(Layer 11)
G1  Z2.750 F2400

(Raster 1)
G92 E0
G1  X0020.958 Y0107.798 F2400
G1  E2.00000 F2400
G1  X0020.958 Y0101.023 E2.310 F2400
G1  X0020.558 Y0100.776 E2.331
G1  X0020.558 Y0107.798 E2.652
G1  X0020.158 Y0107.798 E2.671
G1  X0020.158 Y0100.529 E3.003
G1  X0019.758 Y0100.282 E3.024
