; generated by Slic3r 1.3.1-dev (Build 8c69278) on 2021-12-10 at 13:24:56

; external perimeters extrusion width = 0.45mm (3.99mm^3/s)
; perimeters extrusion width = 0.45mm (3.99mm^3/s)
; infill extrusion width = 0.45mm (3.99mm^3/s)
; solid infill extrusion width = 0.45mm (4.99mm^3/s)
; top infill extrusion width = 0.45mm (3.00mm^3/s)
; support material extrusion width = 0.45mm (4.99mm^3/s)

M107
G92 E0
M104 S205 ; set temperature
G28 ; home all axes
G1 Z5 F5000 ; lift nozzle

; Filament gcode

M109 S205 ; set temperature and wait for it to be reached
G21 ; set units to millimeters
G90 ; use absolute coordinates
M82 ; use absolute distances for extrusion
G92 E0
G1 Z0.250 F7800.000
G1 E-2.00000 F2400.00000
G92 E0
G1 X120.748 Y150.290 F7800.000
G1 E2.00000 F2400.00000
G1 F2400.000
G1 X120.769 Y150.884 E2.02540
G1 X120.876 Y152.063 E2.07603
G1 X121.069 Y153.230 E2.12658
G1 X121.148 Y153.560 E2.14109
G1 X121.148 Y146.438 E2.44556
G1 X121.346 Y145.617 E2.48168
G1 X121.548 Y144.958 E2.51115
G1 X121.548 Y155.040 E2.94219
G1 X121.949 Y156.136 E2.99207
G1 X121.949 Y143.862 E3.51681
G1 X122.349 Y142.960 E3.55901
G1 X122.349 Y157.038 E4.16090
G1 X122.750 Y157.815 E4.19826
G1 X122.750 Y142.193 E4.86615
G1 X122.951 Y141.816 E4.88442
G1 X123.150 Y141.500 E4.90037
G1 X123.150 Y158.504 E5.62732
G1 X123.550 Y159.117 E5.65864
G1 X123.550 Y140.866 E6.43895
G1 X123.951 Y140.316 E6.46803
G1 X123.951 Y159.698 E7.29667
G1 X124.351 Y160.202 E7.32417
G1 X124.351 Y139.786 E8.19700
G1 X124.752 Y139.318 E8.22332
G1 X124.752 Y160.689 E9.13698
G1 X125.152 Y161.124 E9.16225
G1 X125.152 Y151.493 E9.57399
G1 X125.313 Y152.455 E9.61571
G1 X125.552 Y153.402 E9.65747
G1 X125.552 Y161.545 E10.00559
G1 X125.953 Y161.921 E10.02907
G1 X125.953 Y154.533 E10.34491
G1 X126.353 Y155.409 E10.38609
G1 X126.353 Y162.293 E10.68038
G1 X126.753 Y162.617 E10.70241
G1 X126.753 Y156.139 E10.97935
G1 X127.154 Y156.760 E11.01094
G1 X127.154 Y162.941 E11.27520
G1 X127.554 Y163.230 E11.29631
G1 X127.554 Y157.314 E11.54927
G1 X127.955 Y157.804 E11.57632
G1 X127.955 Y163.509 E11.82026
G1 X128.355 Y163.777 E11.84085
G1 X128.355 Y158.245 E12.07737
G1 X128.755 Y158.646 E12.10161
G1 X128.755 Y164.022 E12.33142
G1 X129.156 Y164.240 E12.35092
G1 X129.156 Y159.013 E12.57442
G1 X129.556 Y159.347 E12.59673
G1 X129.556 Y164.459 E12.81525
G1 X129.957 Y164.659 E12.83439
G1 X129.957 Y159.654 E13.04835
G1 X130.357 Y159.934 E13.06926
G1 X130.357 Y164.841 E13.27901
G1 X130.757 Y165.023 E13.29781
G1 X130.757 Y160.192 E13.50435
G1 X131.158 Y160.427 E13.52421
G1 X131.158 Y165.177 E13.72727
G1 X131.558 Y165.325 E13.74552
G1 X131.558 Y160.643 E13.94570
G1 X131.959 Y160.839 E13.96477
G1 X131.959 Y165.471 E14.16281
G1 X132.359 Y165.587 E14.18063
G1 X132.359 Y161.018 E14.37599
G1 X132.759 Y161.180 E14.39445
G1 X132.759 Y165.703 E14.58784
G1 X133.160 Y165.814 E14.60560
G1 X133.160 Y161.325 E14.79749
G1 X133.560 Y161.454 E14.81546
G1 X133.560 Y165.906 E15.00582
G1 X133.961 Y165.981 E15.02324
G1 X133.961 Y161.566 E15.21199
G1 X134.361 Y161.664 E15.22961
G1 X134.361 Y166.051 E15.41714
G1 X134.761 Y166.121 E15.43452
G1 X134.761 Y161.749 E15.62142
G1 X135.162 Y161.820 E15.63881
G1 X135.162 Y166.165 E15.82457
G1 X135.562 Y166.205 E15.84177
G1 X135.562 Y161.877 E16.02678
G1 X135.962 Y161.919 E16.04399
G1 X135.962 Y166.245 E16.22895
G1 X135.994 Y166.248 E16.23031
G1 X136.363 Y166.265 E16.24609
G1 X136.363 Y161.947 E16.43069
G1 X136.763 Y161.962 E16.44782
G1 X136.763 Y166.273 E16.63213
G1 X137.164 Y166.270 E16.64925
G1 X137.164 Y161.965 E16.83329
G1 X137.564 Y161.955 E16.85041
G1 X137.564 Y166.266 E17.03473
G1 X137.765 Y166.264 E17.04333
G1 X137.964 Y166.248 E17.05187
G1 X137.964 Y161.930 E17.23648
G1 X138.365 Y161.890 E17.25368
G1 X138.365 Y166.215 E17.43856
G1 X138.765 Y166.182 E17.45574
G1 X138.765 Y161.838 E17.64146
G1 X139.166 Y161.773 E17.65881
G1 X139.166 Y166.133 E17.84523
G1 X139.566 Y166.071 E17.86255
G1 X139.566 Y161.694 E18.04969
G1 X139.966 Y161.601 E18.06726
G1 X139.966 Y166.008 E18.25570
G1 X140.114 Y165.986 E18.26208
G1 X140.367 Y165.932 E18.27313
G1 X140.367 Y161.491 E18.46301
G1 X140.767 Y161.366 E18.48094
G1 X140.767 Y165.844 E18.67240
G1 X141.168 Y165.744 E18.69005
G1 X141.168 Y161.226 E18.88322
G1 X141.568 Y161.070 E18.90159
G1 X141.568 Y165.626 E19.09637
G1 X141.968 Y165.502 E19.11429
G1 X141.968 Y160.897 E19.31116
G1 X142.369 Y160.707 E19.33010
G1 X142.369 Y165.378 E19.52980
G1 X142.769 Y165.232 E19.54803
G1 X142.769 Y160.499 E19.75039
G1 X143.169 Y160.270 E19.77010
G1 X143.169 Y165.070 E19.97530
G1 X143.570 Y164.897 E19.99395
G1 X143.570 Y160.020 E20.20242
G1 X143.970 Y159.747 E20.22315
G1 X143.970 Y164.723 E20.43590
G1 X144.371 Y164.520 E20.45510
G1 X144.371 Y159.449 E20.67189
G1 X144.771 Y159.124 E20.69394
G1 X144.771 Y164.311 E20.91570
G1 X145.171 Y164.093 E20.93519
G1 X145.171 Y158.767 E21.16288
G1 X145.572 Y158.376 E21.18681
G1 X145.572 Y163.845 E21.42063
G1 X145.972 Y163.598 E21.44076
G1 X145.972 Y157.946 E21.68238
G1 X146.373 Y157.472 E21.70893
G1 X146.373 Y163.328 E21.95930
G1 X146.773 Y163.032 E21.98059
G1 X146.773 Y156.945 E22.24084
G1 X147.173 Y156.341 E22.27181
G1 X147.173 Y162.720 E22.54451
G1 X147.506 Y162.460 E22.56255
G1 X147.574 Y162.401 E22.56639
G1 X147.574 Y155.654 E22.85485
G1 X147.974 Y154.834 E22.89385
G1 X147.974 Y162.049 E23.20232
G1 X148.375 Y161.659 E23.22620
G1 X148.375 Y153.808 E23.56189
G1 X148.471 Y153.586 E23.57223
G1 X148.548 Y153.520 E23.57657
G1 X148.626 Y153.488 E23.58019
G1 X148.775 Y153.484 E23.58655
G1 X148.775 Y161.270 E23.91942
G1 X149.175 Y160.838 E23.94460
G1 X149.175 Y153.483 E24.25903
G1 X149.576 Y153.483 E24.27615
G1 X149.576 Y160.372 E24.57069
G1 X149.976 Y159.863 E24.59840
G1 X149.976 Y153.483 E24.87117
G1 X150.376 Y153.482 E24.88829
G1 X150.376 Y159.620 E25.15068
G1 X150.777 Y159.619 E25.16780
G1 X150.777 Y153.482 E25.43021
G1 X151.177 Y153.481 E25.44732
G1 X151.177 Y159.619 E25.70975
G1 X151.578 Y159.619 E25.72686
G1 X151.578 Y153.481 E25.98930
G1 X151.978 Y153.480 E26.00642
G1 X151.978 Y159.619 E26.26887
G1 X152.378 Y159.618 E26.28599
G1 X152.378 Y153.480 E26.54842
G1 X152.779 Y153.480 E26.56554
G1 X152.779 Y159.618 E26.82795
G1 X153.179 Y159.617 E26.84507
G1 X153.179 Y153.531 E27.10526
G1 X153.580 Y153.531 E27.12238
G1 X153.580 Y159.617 E27.38258
G1 X153.980 Y159.617 E27.39970
G1 X153.980 Y153.531 E27.65989
G1 X154.380 Y153.531 E27.67701
G1 X154.380 Y159.617 E27.93720
G1 X154.781 Y159.617 E27.95432
G1 X154.781 Y153.532 E28.21446
G1 X155.181 Y153.533 E28.23158
G1 X155.181 Y159.617 E28.49168
G1 X155.582 Y159.617 E28.50880
G1 X155.582 Y153.534 E28.76886
G1 X155.982 Y153.534 E28.78598
G1 X155.982 Y159.617 E29.04601
G1 X156.382 Y159.617 E29.06313
G1 X156.382 Y153.534 E29.32317
G1 X156.783 Y153.534 E29.34029
G1 X156.783 Y159.617 E29.60032
G1 X157.183 Y159.617 E29.61744
G1 X157.183 Y153.534 E29.87748
G1 X157.584 Y153.534 E29.89460
G1 X157.584 Y159.617 E30.15463
G1 X157.984 Y159.617 E30.17175
G1 X157.984 Y153.534 E30.43179
G1 X158.384 Y153.534 E30.44891
G1 X158.384 Y159.617 E30.70894
G1 X158.785 Y159.617 E30.72606
G1 X158.785 Y153.534 E30.98610
G1 X159.185 Y153.534 E31.00322
G1 X159.185 Y159.617 E31.26325
G1 X159.585 Y159.617 E31.28037
G1 X159.585 Y153.534 E31.54041
G1 X159.986 Y153.534 E31.55753
G1 X159.986 Y159.617 E31.81756
G1 X160.386 Y159.617 E31.83468
G1 X160.386 Y153.534 E32.09472
G1 X160.787 Y153.534 E32.11184
G1 X160.787 Y159.617 E32.37187
G1 X161.187 Y159.617 E32.38899
G1 X161.187 Y153.534 E32.64903
G1 X161.587 Y153.534 E32.66615
G1 X161.587 Y159.617 E32.92618
G1 X161.988 Y159.617 E32.94330
G1 X161.988 Y153.534 E33.20334
G1 X162.388 Y153.534 E33.22046
G1 X162.388 Y159.617 E33.48049
G1 X162.789 Y159.617 E33.49761
G1 X162.789 Y153.534 E33.75765
G1 X163.189 Y153.534 E33.77477
G1 X163.189 Y159.617 E34.03480
G1 X163.589 Y159.617 E34.05192
G1 X163.589 Y153.534 E34.31196
G1 X163.990 Y153.534 E34.32908
G1 X163.990 Y159.617 E34.58911
G1 X164.390 Y159.617 E34.60623
G1 X164.390 Y153.534 E34.86627
G1 X164.791 Y153.534 E34.88338
G1 X164.791 Y159.617 E35.14342
G1 X165.191 Y159.617 E35.16054
G1 X165.191 Y153.534 E35.42058
G1 X165.591 Y153.534 E35.43769
G1 X165.591 Y159.617 E35.69773
G1 X165.992 Y159.617 E35.71485
G1 X165.992 Y153.534 E35.97489
G1 X166.392 Y153.534 E35.99200
G1 X166.392 Y159.617 E36.25204
G1 X166.792 Y159.617 E36.26916
G1 X166.792 Y153.534 E36.52920
G1 X167.193 Y153.534 E36.54631
G1 X167.193 Y159.617 E36.80635
G1 X167.593 Y159.617 E36.82347
G1 X167.593 Y153.534 E37.08351
G1 X167.994 Y153.534 E37.10062
G1 X167.994 Y159.617 E37.36066
G1 X168.394 Y159.617 E37.37778
G1 X168.394 Y153.534 E37.63782
G1 X168.794 Y153.534 E37.65493
G1 X168.794 Y159.617 E37.91497
G1 X169.195 Y159.617 E37.93209
G1 X169.195 Y153.534 E38.19213
G1 X169.595 Y153.534 E38.20924
G1 X169.595 Y159.617 E38.46928
G1 X169.996 Y159.617 E38.48640
G1 X169.996 Y153.534 E38.74644
G1 X170.396 Y153.534 E38.76355
G1 X170.396 Y159.617 E39.02359
G1 X170.796 Y159.617 E39.04071
G1 X170.796 Y153.534 E39.30075
G1 X171.197 Y153.534 E39.31786
G1 X171.197 Y159.617 E39.57790
G1 X171.597 Y159.617 E39.59502
G1 X171.597 Y153.534 E39.85506
G1 X171.998 Y153.534 E39.87217
G1 X171.998 Y159.617 E40.13221
G1 X172.398 Y159.617 E40.14933
G1 X172.398 Y153.534 E40.40937
G1 X172.798 Y153.534 E40.42648
G1 X172.798 Y159.617 E40.68652
G1 X173.199 Y159.617 E40.70364
G1 X173.199 Y153.534 E40.96368
G1 X173.599 Y153.534 E40.98079
G1 X173.599 Y159.617 E41.24084
G1 X174.000 Y159.618 E41.25796
G1 X174.000 Y153.533 E41.51809
G1 X174.400 Y153.532 E41.53521
G1 X174.400 Y159.619 E41.79541
G1 X174.800 Y159.620 E41.81253
G1 X174.800 Y153.532 E42.07281
G1 X175.201 Y153.531 E42.08993
G1 X175.201 Y159.620 E42.35027
G1 X175.601 Y159.620 E42.36739
G1 X175.601 Y153.530 E42.62776
G1 X176.001 Y153.531 E42.64488
G1 X176.001 Y159.620 E42.90521
G1 X176.402 Y159.620 E42.92233
G1 X176.402 Y153.532 E43.18261
G1 X176.802 Y153.558 E43.19976
G1 X176.802 Y159.591 E43.45768
G1 X177.203 Y159.515 E43.47511
G1 X177.203 Y153.644 E43.72612
G1 X177.479 Y153.729 E43.73847
G1 X177.603 Y153.790 E43.74439
G1 X177.603 Y159.361 E43.98256
G1 X177.773 Y159.285 E43.99053
G1 X178.003 Y159.135 E44.00226
G1 X178.003 Y154.016 E44.22112
G1 X178.224 Y154.173 E44.23270
G1 X178.404 Y154.341 E44.24322
G1 X178.404 Y158.807 E44.43415
G1 X178.731 Y158.417 E44.45593
G1 X178.804 Y158.300 E44.46181
G1 X178.804 Y154.853 E44.60916
G1 X178.989 Y155.211 E44.62636
G1 X179.062 Y155.406 E44.63529
G1 X179.166 Y155.833 E44.65405
G1 X179.203 Y156.226 E44.67095
G1 X179.205 Y156.907 E44.70006
G1 E42.70006 F2400.00000
G92 E0
G1 X179.205 Y144.282 F7800.000
G1 E2.00000 F2400.00000
G1 F2400.000
G1 X179.203 Y143.851 E2.01841
G1 X179.166 Y143.458 E2.03531
G1 X179.063 Y143.035 E2.05391
G1 X178.894 Y142.632 E2.07260
G1 X178.804 Y142.475 E2.08034
G1 X178.804 Y145.663 E2.21664
G1 X178.729 Y145.795 E2.22315
G1 X178.404 Y146.187 E2.24491
G1 X178.404 Y141.966 E2.42535
G1 X178.224 Y141.798 E2.43587
G1 X178.003 Y141.641 E2.44745
G1 X178.003 Y146.515 E2.65584
G1 X177.603 Y146.743 E2.67552
G1 X177.603 Y141.412 E2.90341
G1 X177.203 Y141.266 E2.92163
G1 X177.203 Y146.888 E3.16200
G1 X176.802 Y146.966 E3.17944
G1 X176.802 Y141.183 E3.42667
G1 X176.402 Y141.157 E3.44383
G1 X176.402 Y146.995 E3.69341
G1 X176.001 Y146.995 E3.71053
G1 X176.001 Y141.156 E3.96017
G1 X175.601 Y141.155 E3.97729
G1 X175.601 Y146.996 E4.22700
G1 X175.201 Y146.996 E4.24411
G1 X175.201 Y141.155 E4.49379
G1 X174.800 Y141.156 E4.51091
G1 X174.800 Y146.995 E4.76052
G1 X174.400 Y146.994 E4.77763
G1 X174.400 Y141.157 E5.02717
G1 X174.000 Y141.158 E5.04428
G1 X174.000 Y146.993 E5.29374
G1 X173.599 Y146.992 E5.31086
G1 X173.599 Y141.159 E5.56024
G1 X173.199 Y141.159 E5.57736
G1 X173.199 Y146.992 E5.82671
G1 X172.798 Y146.992 E5.84383
G1 X172.798 Y141.159 E6.09317
G1 X172.398 Y141.159 E6.11029
G1 X172.398 Y146.992 E6.35964
G1 X171.998 Y146.992 E6.37676
G1 X171.998 Y141.159 E6.62611
G1 X171.597 Y141.159 E6.64322
G1 X171.597 Y146.992 E6.89257
G1 X171.197 Y146.992 E6.90969
G1 X171.197 Y141.159 E7.15904
G1 X170.796 Y141.159 E7.17615
G1 X170.796 Y146.992 E7.42550
G1 X170.396 Y146.992 E7.44262
G1 X170.396 Y141.159 E7.69197
G1 X169.996 Y141.159 E7.70908
G1 X169.996 Y146.992 E7.95843
G1 X169.595 Y146.992 E7.97555
G1 X169.595 Y141.159 E8.22490
G1 X169.195 Y141.159 E8.24201
G1 X169.195 Y146.992 E8.49136
G1 X168.794 Y146.992 E8.50848
G1 X168.794 Y141.159 E8.75783
G1 X168.394 Y141.159 E8.77494
G1 X168.394 Y146.992 E9.02429
G1 X167.994 Y146.992 E9.04141
G1 X167.994 Y141.159 E9.29076
G1 X167.593 Y141.159 E9.30787
G1 X167.593 Y146.992 E9.55722
G1 X167.193 Y146.992 E9.57434
G1 X167.193 Y141.159 E9.82369
G1 X166.792 Y141.159 E9.84081
G1 X166.792 Y146.992 E10.09015
G1 X166.392 Y146.992 E10.10727
G1 X166.392 Y141.159 E10.35662
G1 X165.992 Y141.159 E10.37374
G1 X165.992 Y146.992 E10.62308
G1 X165.591 Y146.992 E10.64020
G1 X165.591 Y141.159 E10.88955
G1 X165.191 Y141.159 E10.90667
G1 X165.191 Y146.992 E11.15601
G1 X164.791 Y146.992 E11.17313
G1 X164.791 Y141.159 E11.42248
G1 X164.390 Y141.159 E11.43960
G1 X164.390 Y146.992 E11.68894
G1 X163.990 Y146.992 E11.70606
G1 X163.990 Y141.159 E11.95541
G1 X163.589 Y141.159 E11.97253
G1 X163.589 Y146.992 E12.22187
G1 X163.189 Y146.992 E12.23899
G1 X163.189 Y141.159 E12.48834
G1 X162.789 Y141.159 E12.50546
G1 X162.789 Y146.992 E12.75480
G1 X162.388 Y146.992 E12.77192
G1 X162.388 Y141.159 E13.02127
G1 X161.988 Y141.159 E13.03839
G1 X161.988 Y146.992 E13.28773
G1 X161.587 Y146.992 E13.30485
G1 X161.587 Y141.159 E13.55420
G1 X161.187 Y141.159 E13.57132
G1 X161.187 Y146.992 E13.82067
G1 X160.787 Y146.992 E13.83778
G1 X160.787 Y141.159 E14.08713
G1 X160.386 Y141.159 E14.10425
G1 X160.386 Y146.992 E14.35360
G1 X159.986 Y146.992 E14.37071
G1 X159.986 Y141.159 E14.62006
G1 X159.585 Y141.159 E14.63718
G1 X159.585 Y146.992 E14.88653
G1 X159.185 Y146.992 E14.90364
G1 X159.185 Y141.159 E15.15299
G1 X158.785 Y141.159 E15.17011
G1 X158.785 Y146.992 E15.41946
G1 X158.384 Y146.992 E15.43657
G1 X158.384 Y141.159 E15.68592
G1 X157.984 Y141.159 E15.70304
G1 X157.984 Y146.992 E15.95239
G1 X157.584 Y146.992 E15.96950
G1 X157.584 Y141.159 E16.21885
G1 X157.183 Y141.159 E16.23597
G1 X157.183 Y146.992 E16.48532
G1 X156.783 Y146.992 E16.50243
G1 X156.783 Y141.159 E16.75178
G1 X156.382 Y141.159 E16.76890
G1 X156.382 Y146.992 E17.01825
G1 X155.982 Y146.992 E17.03537
G1 X155.982 Y141.159 E17.28471
G1 X155.582 Y141.159 E17.30183
G1 X155.582 Y146.993 E17.55121
G1 X155.181 Y146.994 E17.56833
G1 X155.181 Y141.159 E17.81775
G1 X154.781 Y141.159 E17.83487
G1 X154.781 Y146.995 E18.08434
G1 X154.380 Y146.995 E18.10146
G1 X154.380 Y141.159 E18.35094
G1 X153.980 Y141.159 E18.36806
G1 X153.980 Y146.995 E18.61754
G1 X153.580 Y146.995 E18.63465
G1 X153.580 Y141.159 E18.88416
G1 X153.179 Y141.158 E18.90128
G1 X153.179 Y146.995 E19.15081
G1 X153.046 Y146.995 E19.15648
G1 X153.053 Y147.047 E19.15872
G1 X152.779 Y147.046 E19.17043
G1 X152.779 Y141.157 E19.42217
G1 X152.378 Y141.157 E19.43929
G1 X152.378 Y147.045 E19.69102
G1 X151.978 Y147.043 E19.70813
G1 X151.978 Y141.156 E19.95984
G1 X151.578 Y141.155 E19.97695
G1 X151.578 Y147.042 E20.22864
G1 X151.177 Y147.041 E20.24576
G1 X151.177 Y141.155 E20.49742
G1 X150.777 Y141.154 E20.51454
G1 X150.777 Y147.040 E20.76616
G1 X150.376 Y147.039 E20.78328
G1 X150.376 Y140.694 E21.05453
G1 X149.976 Y140.133 E21.08401
G1 X149.976 Y147.038 E21.37922
G1 X149.576 Y147.036 E21.39633
G1 X149.576 Y139.643 E21.71243
G1 X149.175 Y139.162 E21.73920
G1 X149.175 Y147.035 E22.07582
G1 X148.777 Y147.034 E22.09283
G1 X148.775 Y138.743 E22.44732
G1 X148.380 Y138.329 E22.47175
G1 X148.375 Y146.201 E22.80830
G1 X148.176 Y145.649 E22.83340
G1 X147.974 Y145.165 E22.85583
G1 X147.974 Y137.948 E23.16434
G1 X147.952 Y137.927 E23.16566
G1 X147.574 Y137.610 E23.18676
G1 X147.574 Y144.345 E23.47471
G1 X147.173 Y143.657 E23.50871
G1 X147.173 Y137.273 E23.78167
G1 X147.044 Y137.164 E23.78890
G1 X146.773 Y136.960 E23.80339
G1 X146.773 Y143.054 E24.06390
G1 X146.373 Y142.527 E24.09219
G1 X146.373 Y136.670 E24.34256
G1 X145.972 Y136.401 E24.36320
G1 X145.972 Y142.052 E24.60482
G1 X145.572 Y141.622 E24.62994
