; generated by Slic3r 1.3.1-dev (Build 8c69278) on 2021-12-10 at 13:24:56

; external perimeters extrusion width = 0.45mm (3.99mm^3/s)
; perimeters extrusion width = 0.45mm (3.99mm^3/s)
; infill extrusion width = 0.45mm (3.99mm^3/s)
; solid infill extrusion width = 0.45mm (4.99mm^3/s)
; top infill extrusion width = 0.45mm (3.00mm^3/s)
; support material extrusion width = 0.45mm (4.99mm^3/s)

M107
G92 E0
M104 S205 ; set temperature
G28 ; home all axes
G1 Z5 F5000 ; lift nozzle

; Filament gcode

M109 S205 ; set temperature and wait for it to be reached
G21 ; set units to millimeters
G90 ; use absolute coordinates
M82 ; use absolute distances for extrusion
G92 E0
G1 Z0.250 F7800.000
G1 E-2.00000 F2400.00000
G92 E0
G1 X136.600 Y133.724 F7800.000
G1 E2.00000 F2400.00000
G1 F2400.000
G1 X135.401 Y133.799 E2.05136
G1 X134.818 Y133.868 E2.07648
G1 X133.651 Y134.071 E2.12711
G1 X133.434 Y134.126 E2.13668
G1 X140.601 Y134.126 E2.44310
G1 X141.264 Y134.279 E2.47219
G1 X142.069 Y134.528 E2.50822
G1 X131.990 Y134.528 E2.93916
G1 X131.381 Y134.728 E2.96656
G1 X130.891 Y134.930 E2.98921
G1 X143.172 Y134.930 E3.51424
G1 X144.088 Y135.331 E3.55704
G1 X129.965 Y135.331 E4.16085
G1 X129.202 Y135.733 E4.19773
G1 X144.858 Y135.733 E4.86706
G1 X145.082 Y135.850 E4.87785
G1 X145.543 Y136.135 E4.90102
G1 X128.504 Y136.135 E5.62949
G1 X127.879 Y136.537 E5.66123
G1 X146.181 Y136.537 E6.44367
G1 X146.744 Y136.939 E6.47325
G1 X127.307 Y136.939 E7.30427
G1 X126.804 Y137.341 E7.33178
G1 X147.254 Y137.341 E8.20607
G1 X147.732 Y137.743 E8.23277
G1 X126.310 Y137.743 E9.14861
G1 X125.882 Y138.144 E9.17372
G1 X135.398 Y138.144 E9.58057
G1 X134.569 Y138.286 E9.61653
G1 X133.556 Y138.546 E9.66125
G1 X125.454 Y138.546 E10.00762
G1 X125.070 Y138.948 E10.03138
G1 X132.438 Y138.948 E10.34638
G1 X131.570 Y139.350 E10.38728
G1 X124.724 Y139.350 E10.67995
G1 X124.380 Y139.752 E10.70257
G1 X130.846 Y139.752 E10.97898
G1 X130.226 Y140.154 E11.01056
G1 X124.070 Y140.154 E11.27372
G1 X123.774 Y140.556 E11.29507
G1 X129.674 Y140.556 E11.54732
G1 X129.188 Y140.957 E11.57427
G1 X123.493 Y140.957 E11.81778
G1 X123.239 Y141.359 E11.83809
G1 X128.748 Y141.359 E12.07362
G1 X128.348 Y141.761 E12.09787
G1 X122.985 Y141.761 E12.32713
G1 X122.951 Y141.816 E12.32990
G1 X122.766 Y142.163 E12.34672
G1 X127.983 Y142.163 E12.56978
G1 X127.649 Y142.565 E12.59210
G1 X122.551 Y142.565 E12.81007
G1 X122.346 Y142.967 E12.82935
G1 X127.344 Y142.967 E13.04303
G1 X127.065 Y143.369 E13.06395
G1 X122.168 Y143.369 E13.27331
G1 X121.990 Y143.770 E13.29210
G1 X126.809 Y143.770 E13.49814
G1 X126.575 Y144.172 E13.51803
G1 X121.831 Y144.172 E13.72084
G1 X121.686 Y144.574 E13.73910
G1 X126.361 Y144.574 E13.93895
G1 X126.166 Y144.976 E13.95805
G1 X121.542 Y144.976 E14.15574
G1 X121.417 Y145.378 E14.17373
G1 X125.989 Y145.378 E14.36919
G1 X125.829 Y145.780 E14.38768
G1 X121.306 Y145.780 E14.58102
G1 X121.210 Y146.182 E14.59870
G1 X125.685 Y146.182 E14.79001
G1 X125.556 Y146.584 E14.80805
G1 X121.113 Y146.584 E14.99799
G1 X121.033 Y146.985 E15.01551
G1 X125.445 Y146.985 E15.20415
G1 X125.349 Y147.387 E15.22182
G1 X120.967 Y147.387 E15.40917
G1 X120.900 Y147.789 E15.42659
G1 X125.267 Y147.789 E15.61325
G1 X125.198 Y148.191 E15.63068
G1 X120.853 Y148.191 E15.81644
G1 X120.816 Y148.593 E15.83369
G1 X125.142 Y148.593 E16.01863
G1 X125.101 Y148.995 E16.03591
G1 X120.780 Y148.995 E16.22064
G1 X120.764 Y149.397 E16.23783
G1 X125.075 Y149.397 E16.42215
G1 X125.062 Y149.798 E16.43934
G1 X120.757 Y149.798 E16.62342
G1 X120.749 Y150.200 E16.64060
G1 X125.062 Y150.200 E16.82499
G1 X125.075 Y150.602 E16.84218
G1 X120.759 Y150.602 E17.02672
G1 X120.780 Y151.004 E17.04392
G1 X125.101 Y151.004 E17.22865
G1 X125.142 Y151.406 E17.24593
G1 X120.816 Y151.406 E17.43087
G1 X120.853 Y151.808 E17.44813
G1 X125.198 Y151.808 E17.63388
G1 X125.267 Y152.210 E17.65131
G1 X120.900 Y152.210 E17.83798
G1 X120.967 Y152.611 E17.85539
G1 X125.349 Y152.611 E18.04275
G1 X125.445 Y153.013 E18.06042
G1 X121.033 Y153.013 E18.24906
G1 X121.113 Y153.415 E18.26658
G1 X125.556 Y153.415 E18.45652
G1 X125.685 Y153.817 E18.47456
G1 X121.210 Y153.817 E18.66587
G1 X121.306 Y154.219 E18.68354
G1 X125.829 Y154.219 E18.87688
G1 X125.989 Y154.621 E18.89538
G1 X121.417 Y154.621 E19.09084
G1 X121.542 Y155.023 E19.10883
G1 X126.166 Y155.023 E19.30652
G1 X126.361 Y155.424 E19.32562
G1 X121.686 Y155.424 E19.52547
G1 X121.831 Y155.826 E19.54372
G1 X126.575 Y155.826 E19.74654
G1 X126.809 Y156.228 E19.76642
G1 X121.990 Y156.228 E19.97246
G1 X122.168 Y156.630 E19.99126
G1 X127.065 Y156.630 E20.20061
G1 X127.344 Y157.032 E20.22154
G1 X122.346 Y157.032 E20.43521
G1 X122.395 Y157.141 E20.44033
G1 X122.544 Y157.434 E20.45437
G1 X127.649 Y157.434 E20.67263
G1 X127.983 Y157.836 E20.69496
G1 X122.762 Y157.836 E20.91819
G1 X122.995 Y158.238 E20.93807
G1 X128.348 Y158.238 E21.16691
G1 X128.748 Y158.639 E21.19116
G1 X123.229 Y158.639 E21.42713
G1 X123.498 Y159.041 E21.44782
G1 X129.188 Y159.041 E21.69108
G1 X129.674 Y159.443 E21.71804
G1 X123.773 Y159.443 E21.97034
G1 X124.068 Y159.845 E21.99165
G1 X130.226 Y159.845 E22.25494
G1 X130.846 Y160.247 E22.28651
G1 X124.387 Y160.247 E22.56263
G1 X124.714 Y160.649 E22.58478
G1 X131.570 Y160.649 E22.87790
G1 X132.438 Y161.051 E22.91880
G1 X125.084 Y161.051 E23.23320
G1 X125.455 Y161.452 E23.25656
G1 X133.556 Y161.452 E23.60293
G1 X134.570 Y161.713 E23.64769
G1 X135.399 Y161.854 E23.68362
G1 X125.882 Y161.854 E24.09048
G1 E22.09048 F2400.00000
G92 E0
G1 X136.579 Y166.275 F7800.000
G1 E2.00000 F2400.00000
G1 F2400.000
G1 X137.765 Y166.264 E2.05072
G1 X138.944 Y166.168 E2.10127
G1 X140.114 Y165.986 E2.15190
G1 X140.645 Y165.873 E2.17513
G1 X133.416 Y165.873 E2.48422
G1 X133.077 Y165.795 E2.49910
G1 X131.958 Y165.471 E2.54889
G1 X142.069 Y165.471 E2.98119
G1 X142.396 Y165.370 E2.99580
G1 X143.171 Y165.069 E3.03137
G1 X130.867 Y165.069 E3.55744
G1 X129.976 Y164.667 E3.59921
G1 X144.088 Y164.667 E4.20256
G1 X144.858 Y164.265 E4.23968
G1 X129.202 Y164.265 E4.90900
G1 X128.495 Y163.864 E4.94378
G1 X145.543 Y163.864 E5.67262
G1 X146.181 Y163.462 E5.70486
G1 X127.886 Y163.462 E6.48700
G1 X127.309 Y163.060 E6.51706
G1 X146.738 Y163.060 E7.34768
G1 X147.252 Y162.658 E7.37560
G1 X126.804 Y162.658 E8.24983
G1 X126.310 Y162.256 E8.27705
G1 X147.740 Y162.256 E9.19322
G1 X148.174 Y161.854 E9.21853
G1 X138.654 Y161.854 E9.62554
G1 X139.483 Y161.713 E9.66147
G1 X140.497 Y161.452 E9.70623
G1 X148.587 Y161.452 E10.05214
G1 X148.980 Y161.051 E10.07614
G1 X141.614 Y161.051 E10.39102
G1 X142.483 Y160.649 E10.43192
G1 X149.339 Y160.649 E10.72505
G1 X149.675 Y160.247 E10.74744
G1 X143.207 Y160.247 E11.02395
G1 X143.827 Y159.845 E11.05552
G1 X149.990 Y159.845 E11.31902
G1 X150.167 Y159.620 E11.33127
G1 X176.021 Y159.620 E12.43660
G1 X176.740 Y159.602 E12.46733
G1 X177.174 Y159.524 E12.48620
G1 X177.417 Y159.443 E12.49714
G1 X144.379 Y159.443 E13.90962
G1 X144.865 Y159.041 E13.93658
G1 X178.145 Y159.041 E15.35940
G1 X178.458 Y158.758 E15.37745
G1 X178.553 Y158.639 E15.38395
G1 X145.305 Y158.639 E16.80540
G1 X145.705 Y158.238 E16.82965
G1 X178.843 Y158.238 E18.24639
G1 X179.030 Y157.836 E18.26534
G1 X146.070 Y157.836 E19.67448
G1 X146.403 Y157.434 E19.69681
G1 X179.136 Y157.434 E21.09622
G1 X179.181 Y157.209 E21.10602
G1 X179.195 Y157.032 E21.11361
G1 X146.709 Y157.032 E22.50249
G1 X146.988 Y156.630 E22.52342
G1 X179.204 Y156.630 E23.90075
G1 X179.203 Y156.228 E23.91793
G1 X147.244 Y156.228 E25.28429
G1 X147.478 Y155.826 E25.30417
G1 X179.164 Y155.826 E26.65885
G1 X179.067 Y155.424 E26.67653
G1 X147.692 Y155.424 E28.01789
G1 X147.887 Y155.023 E28.03698
G1 X178.892 Y155.023 E29.36253
G1 X178.786 Y154.819 E29.37235
G1 X178.647 Y154.621 E29.38269
G1 X148.064 Y154.621 E30.69021
G1 X148.224 Y154.219 E30.70870
G1 X178.276 Y154.219 E31.99349
G1 X177.868 Y153.920 E32.01511
G1 X177.659 Y153.817 E32.02507
G1 X148.371 Y153.817 E33.27719
G1 X148.471 Y153.586 E33.28795
G1 X148.548 Y153.520 E33.29230
G1 X148.626 Y153.488 E33.29591
G1 X152.944 Y153.479 E33.48050
G1 X152.935 Y153.531 E33.48272
G1 X176.499 Y153.532 E34.49015
G1 X177.061 Y153.600 E34.51434
G1 X177.479 Y153.729 E34.53304
G1 X177.659 Y153.817 E34.54161
G1 E32.54161 F2400.00000
G92 E0
G1 X148.678 Y146.985 F7800.000
G1 E2.00000 F2400.00000
G1 F2400.000
G1 X176.740 Y146.977 E3.19971
G1 X177.170 Y146.899 E3.21841
G1 X177.579 Y146.756 E3.23693
G1 X177.896 Y146.584 E3.25237
G1 X148.497 Y146.584 E4.50927
G1 X148.368 Y146.182 E4.52731
G1 X178.409 Y146.182 E5.81162
G1 X178.738 Y145.780 E5.83382
G1 X148.224 Y145.780 E7.13836
G1 X148.064 Y145.378 E7.15685
G1 X178.958 Y145.378 E8.47767
G1 X179.102 Y144.976 E8.49592
G1 X147.887 Y144.976 E9.83047
G1 X147.692 Y144.574 E9.84956
G1 X179.182 Y144.574 E11.19585
G1 X179.204 Y144.172 E11.21306
G1 X147.478 Y144.172 E12.56945
G1 X147.244 Y143.770 E12.58933
G1 X179.196 Y143.770 E13.95536
G1 X179.166 Y143.458 E13.96879
G1 X179.144 Y143.369 E13.97271
G1 X146.988 Y143.369 E15.34747
G1 X146.709 Y142.967 E15.36840
G1 X179.034 Y142.967 E16.75041
G1 X178.856 Y142.565 E16.76921
G1 X146.403 Y142.565 E18.15662
G1 X146.070 Y142.163 E18.17895
G1 X178.575 Y142.163 E19.56864
G1 X178.379 Y141.938 E19.58140
G1 X178.173 Y141.761 E19.59301
G1 X145.705 Y141.761 E20.98111
G1 X145.305 Y141.359 E21.00535
G1 X177.470 Y141.359 E22.38051
G1 X177.274 Y141.282 E22.38951
G1 X176.849 Y141.187 E22.40815
G1 X176.499 Y141.157 E22.42315
G1 X150.704 Y141.154 E23.52596
G1 X150.564 Y140.957 E23.53629
G1 X144.865 Y140.957 E23.77996
G1 X144.379 Y140.556 E23.80692
G1 X150.278 Y140.556 E24.05911
G1 X149.991 Y140.154 E24.08021
G1 X143.827 Y140.154 E24.34374
G1 X143.207 Y139.752 E24.37532
G1 X149.666 Y139.752 E24.65143
G1 X149.334 Y139.350 E24.67371
G1 X142.483 Y139.350 E24.96661
G1 X141.615 Y138.948 E25.00752
G1 X148.971 Y138.948 E25.32203
G1 X148.587 Y138.546 E25.34580
G1 X140.497 Y138.546 E25.69169
G1 X139.482 Y138.285 E25.73647
G1 X138.655 Y138.144 E25.77237
G1 X148.183 Y138.144 E26.17973
G1 X147.732 Y137.743 E26.20555
G1 Z0.250 F7800.000
G1 Z0.500 F7800.000
G1 E24.20555 F2400.00000
G92 E0
G1 X125.677 Y152.705 F7800.000
G1 E2.00000 F2400.00000
G1 F2400.000
G1 X125.677 Y162.082 E2.40089
G1 X126.079 Y162.433 E2.42370
G1 X126.079 Y154.131 E2.77865
G1 X126.150 Y154.229 E2.78384
G1 X126.481 Y154.998 E2.81965
G1 X126.481 Y162.784 E3.15250
G1 X126.883 Y163.099 E3.17434
G1 X126.883 Y155.769 E3.48769
G1 X127.284 Y156.428 E3.52066
G1 X127.284 Y163.401 E3.81880
G1 X127.686 Y163.689 E3.83993
G1 X127.686 Y156.996 E4.12605
G1 X128.088 Y157.505 E4.15378
G1 X128.088 Y163.948 E4.42921
G1 X128.490 Y164.206 E4.44964
G1 X128.490 Y157.959 E4.71674
G1 X128.892 Y158.368 E4.74126
G1 X128.892 Y164.433 E5.00056
G1 X129.294 Y164.652 E5.02013
G1 X129.294 Y158.740 E5.27288
G1 X129.696 Y159.079 E5.29537
G1 X129.696 Y164.865 E5.54271
G1 X130.098 Y165.047 E5.56158
G1 X130.098 Y159.572 E5.79568
G1 X130.500 Y159.701 E5.81374
G1 X130.500 Y165.230 E6.05011
G1 X130.902 Y165.397 E6.06871
G1 X130.902 Y159.932 E6.30237
G1 X131.304 Y160.170 E6.32233
G1 X131.304 Y165.546 E6.55216
G1 X131.705 Y165.694 E6.57048
G1 X131.705 Y160.386 E6.79743
G1 X132.107 Y160.582 E6.81655
G1 X132.107 Y165.827 E7.04080
G1 X132.509 Y165.946 E7.05872
G1 X132.509 Y160.760 E7.28044
G1 X132.911 Y160.920 E7.29894
G1 X132.911 Y166.047 E7.51810
G1 X133.313 Y166.147 E7.53582
G1 X133.313 Y161.064 E7.75313
G1 X133.715 Y161.192 E7.77117
G1 X133.715 Y166.238 E7.98691
G1 X134.117 Y166.308 E8.00435
G1 X134.117 Y161.303 E8.21835
G1 X134.519 Y161.398 E8.23601
G1 X134.519 Y166.378 E8.44895
G1 X134.921 Y166.440 E8.46634
G1 X134.921 Y161.478 E8.67849
G1 X135.323 Y161.544 E8.69590
G1 X135.323 Y166.488 E8.90726
G1 X135.372 Y166.494 E8.90937
G1 X135.724 Y166.516 E8.92448
G1 X135.724 Y161.597 E9.13479
G1 X136.126 Y161.636 E9.15206
G1 X136.126 Y166.542 E9.36179
G1 X136.528 Y166.567 E9.37901
G1 X136.528 Y161.660 E9.58883
G1 X136.930 Y161.778 E9.60674
G1 X136.930 Y166.567 E9.81149
G1 X137.332 Y166.564 E9.82868
G1 X137.332 Y161.710 E10.03616
G1 X137.487 Y161.660 E10.04313
G1 X137.734 Y161.648 E10.05369
G1 X137.734 Y166.560 E10.26369
G1 X138.136 Y166.530 E10.28092
G1 X138.136 Y161.617 E10.49097
G1 X138.538 Y161.572 E10.50826
G1 X138.538 Y166.497 E10.71881
G1 X138.940 Y166.464 E10.73605
G1 X138.940 Y161.514 E10.94770
G1 X139.342 Y161.439 E10.96518
G1 X139.342 Y166.405 E11.17749
G1 X139.743 Y166.342 E11.19488
G1 X139.743 Y161.349 E11.40835
G1 X140.145 Y161.245 E11.42610
G1 X140.145 Y166.280 E11.64135
G1 X140.547 Y166.189 E11.65896
G1 X140.547 Y161.126 E11.87541
G1 X140.949 Y160.991 E11.89354
G1 X140.949 Y166.096 E12.11178
G1 X141.351 Y166.002 E12.12942
G1 X141.351 Y160.840 E12.35015
G1 X141.753 Y160.671 E12.36877
G1 X141.753 Y165.886 E12.59173
G1 X142.155 Y165.756 E12.60979
G1 X142.155 Y160.485 E12.83513
G1 X142.557 Y160.278 E12.85446
G1 X142.557 Y165.615 E13.08264
G1 X142.959 Y165.475 E13.10084
G1 X142.959 Y160.051 E13.33274
G1 X143.361 Y159.800 E13.35299
G1 X143.361 Y165.316 E13.58879
G1 X143.762 Y165.141 E13.60753
G1 X143.762 Y159.634 E13.84296
G1 X144.010 Y159.554 E13.85407
G1 X144.164 Y159.342 E13.86528
G1 X144.164 Y164.949 E14.10498
G1 X144.566 Y164.757 E14.12402
G1 X144.566 Y158.910 E14.37401
G1 X144.968 Y158.553 E14.39701
G1 X144.968 Y164.547 E14.65330
G1 X145.370 Y164.318 E14.67309
G1 X145.370 Y158.159 E14.93637
G1 X145.772 Y157.726 E14.96163
G1 X145.772 Y164.069 E15.23280
G1 X146.174 Y163.821 E15.25300
G1 X146.174 Y157.248 E15.53402
G1 X146.576 Y156.709 E15.56273
G1 X146.576 Y163.547 E15.85505
G1 X146.978 Y163.247 E15.87648
G1 X146.978 Y156.096 E16.18220
G1 X147.380 Y155.385 E16.21713
G1 X147.380 Y162.934 E16.53985
G1 X147.781 Y162.612 E16.56186
G1 X147.781 Y154.526 E16.90754
G1 X147.903 Y154.229 E16.92129
G1 X148.183 Y153.844 E16.94163
G1 X148.183 Y162.258 E17.30133
G1 X148.585 Y161.867 E17.32531
G1 X148.585 Y153.195 E17.69606
G1 X148.987 Y153.185 E17.71325
G1 X148.987 Y161.476 E18.06771
G1 X149.389 Y161.042 E18.09298
G1 X149.389 Y153.184 E18.42893
G1 X149.791 Y153.184 E18.44611
G1 X149.791 Y160.558 E18.76137
G1 X150.193 Y160.071 E18.78839
G1 X150.193 Y153.184 E19.08280
G1 X150.595 Y153.185 E19.09998
G1 X150.595 Y159.945 E19.38900
G1 X150.997 Y159.945 E19.40618
G1 X150.997 Y153.184 E19.69522
G1 X151.399 Y153.184 E19.71241
G1 X151.399 Y159.945 E20.00147
G1 X151.801 Y159.945 E20.01865
G1 X151.801 Y153.184 E20.30771
G1 X152.202 Y153.184 E20.32489
G1 X152.202 Y159.945 E20.61394
G1 X152.604 Y159.944 E20.63112
G1 X152.604 Y153.183 E20.92016
G1 X153.006 Y153.183 E20.93734
G1 X153.006 Y159.944 E21.22637
G1 X153.408 Y159.944 E21.24356
G1 X153.408 Y153.206 E21.53163
G1 X153.810 Y153.206 E21.54881
G1 X153.810 Y159.944 E21.83688
G1 X154.212 Y159.944 E21.85406
G1 X154.212 Y153.206 E22.14211
G1 X154.614 Y153.207 E22.15929
G1 X154.614 Y159.944 E22.44732
G1 X155.016 Y159.944 E22.46451
G1 X155.016 Y153.207 E22.75253
G1 X155.418 Y153.207 E22.76971
G1 X155.418 Y159.944 E23.05772
G1 X155.820 Y159.944 E23.07490
G1 X155.820 Y153.207 E23.36289
G1 X156.221 Y153.207 E23.38008
G1 X156.221 Y159.944 E23.66807
G1 X156.623 Y159.944 E23.68525
G1 X156.623 Y153.207 E23.97325
G1 X157.025 Y153.207 E23.99043
G1 X157.025 Y159.944 E24.27843
G1 X157.427 Y159.944 E24.29561
G1 X157.427 Y153.207 E24.58361
G1 X157.829 Y153.207 E24.60079
G1 X157.829 Y159.944 E24.88878
G1 X158.231 Y159.944 E24.90597
G1 X158.231 Y153.207 E25.19396
G1 X158.633 Y153.207 E25.21114
G1 X158.633 Y159.944 E25.49914
G1 X159.035 Y159.944 E25.51632
G1 X159.035 Y153.207 E25.80432
G1 X159.437 Y153.207 E25.82150
G1 X159.437 Y159.944 E26.10950
G1 X159.839 Y159.944 E26.12668
G1 X159.839 Y153.207 E26.41467
G1 X160.240 Y153.207 E26.43186
G1 X160.240 Y159.944 E26.71985
G1 X160.642 Y159.944 E26.73703
G1 X160.642 Y153.207 E27.02503
G1 X161.044 Y153.207 E27.04221
G1 X161.044 Y159.944 E27.33021
G1 X161.446 Y159.944 E27.34739
G1 X161.446 Y153.207 E27.63538
G1 X161.848 Y153.207 E27.65257
G1 X161.848 Y159.944 E27.94056
G1 X162.250 Y159.944 E27.95775
G1 X162.250 Y153.207 E28.24574
G1 X162.652 Y153.207 E28.26292
G1 X162.652 Y159.944 E28.55092
G1 X163.054 Y159.944 E28.56810
G1 X163.054 Y153.207 E28.85610
G1 X163.456 Y153.207 E28.87328
