; generated by Slic3r 1.3.1-dev (Build 8c69278) on 2021-12-10 at 13:24:57

; external perimeters extrusion width = 0.45mm (3.99mm^3/s)
; perimeters extrusion width = 0.45mm (3.99mm^3/s)
; infill extrusion width = 0.45mm (3.99mm^3/s)
; solid infill extrusion width = 0.45mm (4.99mm^3/s)
; top infill extrusion width = 0.45mm (3.00mm^3/s)
; support material extrusion width = 0.45mm (4.99mm^3/s)

M107
G92 E0
M104 S205 ; set temperature
G28 ; home all axes
G1 Z5 F5000 ; lift nozzle

; Filament gcode

M109 S205 ; set temperature and wait for it to be reached
G21 ; set units to millimeters
G90 ; use absolute coordinates
M82 ; use absolute distances for extrusion
G92 E0
G1 Z0.250 F7800.000
G1 E-2.00000 F2400.00000
G92 E0
G1 X140.200 Y118.083 F7800.000
G1 E2.00000 F2400.00000
G1 F2400.000
G1 X140.200 Y137.410 E2.82629
G1 X140.200 Y118.083 E3.65257
G1 X140.600 Y117.523 E3.68199
G1 X140.600 Y139.977 E4.64196
G1 X141.000 Y142.544 E4.75304
G1 X141.000 Y117.024 E5.84410
G1 X141.400 Y116.576 E5.86979
G1 X141.400 Y119.318 E5.98704
G1 X141.505 Y119.079 E5.99821
G1 X141.800 Y118.541 E6.02444
G1 X141.800 Y116.169 E6.12583
G1 X142.200 Y115.799 E6.14914
G1 X142.200 Y117.956 E6.24136
G1 X142.600 Y117.492 E6.26756
G1 X142.600 Y115.460 E6.35445
G1 X143.000 Y115.153 E6.37601
G1 X143.000 Y117.102 E6.45937
G1 X143.400 Y116.779 E6.48137
G1 X143.400 Y114.873 E6.56286
G1 X143.433 Y114.850 E6.56458
G1 X143.800 Y114.850 E6.58026
G1 X143.800 Y116.505 E6.65105
G1 X144.200 Y116.274 E6.67081
G1 X144.200 Y114.850 E6.73171
G1 X144.600 Y114.850 E6.74881
G1 X144.600 Y116.080 E6.80140
G1 X145.000 Y115.916 E6.81988
G1 X145.000 Y114.850 E6.86546
G1 X145.400 Y114.850 E6.88256
G1 X145.400 Y116.067 E6.93461
G1 X145.800 Y116.219 E6.95290
G1 X145.800 Y114.850 E7.01142
G1 X146.200 Y114.850 E7.02852
G1 X146.200 Y116.352 E7.09277
G1 X146.600 Y116.474 E7.11065
G1 X146.600 Y114.850 E7.18011
G1 X147.000 Y114.850 E7.19722
G1 X147.000 Y116.579 E7.27114
G1 X147.400 Y116.672 E7.28870
G1 X147.400 Y114.850 E7.36663
G1 X147.800 Y114.850 E7.38373
G1 X147.800 Y116.749 E7.46494
G1 X148.200 Y116.815 E7.48227
G1 X148.200 Y114.850 E7.56632
G1 X148.600 Y114.850 E7.58342
G1 X148.600 Y116.866 E7.66961
G1 X149.000 Y116.905 E7.68680
G1 X149.000 Y114.850 E7.77469
G1 X149.400 Y114.850 E7.79179
G1 X149.400 Y116.930 E7.88074
G1 X149.800 Y116.943 E7.89785
G1 X149.800 Y114.850 E7.98737
G1 X150.200 Y114.850 E8.00447
G1 X150.200 Y116.943 E8.09399
G1 X150.600 Y116.930 E8.11110
G1 X150.600 Y114.850 E8.20005
G1 X151.000 Y114.850 E8.21715
G1 X151.000 Y116.905 E8.30504
G1 X151.400 Y116.866 E8.32222
G1 X151.400 Y114.850 E8.40842
G1 X151.800 Y114.850 E8.42552
G1 X151.800 Y116.815 E8.50956
G1 X152.200 Y116.749 E8.52690
G1 X152.200 Y114.850 E8.60810
G1 X152.600 Y114.850 E8.62520
G1 X152.600 Y116.672 E8.70313
G1 X153.000 Y116.579 E8.72070
G1 X153.000 Y114.850 E8.79462
G1 X153.400 Y114.850 E8.81172
G1 X153.400 Y116.474 E8.88119
G1 X153.800 Y116.352 E8.89907
G1 X153.800 Y114.850 E8.96331
G1 X154.200 Y114.850 E8.98041
G1 X154.200 Y116.219 E9.03894
G1 X154.600 Y116.067 E9.05722
G1 X154.600 Y114.850 E9.10927
G1 X155.000 Y114.850 E9.12637
G1 X155.000 Y115.916 E9.17195
G1 X155.400 Y116.080 E9.19043
G1 X155.400 Y114.850 E9.24302
G1 X155.800 Y114.850 E9.26013
G1 X155.800 Y116.274 E9.32103
G1 X156.200 Y116.506 E9.34078
G1 X156.200 Y114.850 E9.41157
G1 X156.567 Y114.850 E9.42725
G1 X156.600 Y114.873 E9.42898
G1 X156.600 Y116.779 E9.51047
G1 X157.000 Y117.102 E9.53247
G1 X157.000 Y115.153 E9.61583
G1 X157.400 Y115.460 E9.63738
G1 X157.400 Y117.492 E9.72428
G1 X157.800 Y117.956 E9.75047
G1 X157.800 Y115.799 E9.84270
G1 X158.200 Y116.169 E9.86601
G1 X158.200 Y118.541 E9.96740
G1 X158.495 Y119.079 E9.99363
G1 X158.600 Y119.318 E10.00480
G1 X158.600 Y116.576 E10.12205
G1 X159.000 Y117.024 E10.14775
G1 X159.000 Y142.544 E11.23879
G1 X159.400 Y139.977 E11.34987
G1 X159.400 Y117.523 E12.30983
G1 X159.547 Y117.714 E12.32011
G1 X159.800 Y118.083 E12.33926
G1 X159.800 Y137.410 E13.16553
G1 E11.16553 F2400.00000
G92 E0
G1 X156.200 Y138.199 F7800.000
G1 E2.00000 F2400.00000
G1 F2400.000
G1 X156.200 Y132.794 E2.23106
G1 X155.800 Y133.026 E2.25082
G1 X155.800 Y137.968 E2.46211
G1 X155.400 Y137.737 E2.48186
G1 X155.400 Y133.220 E2.67498
G1 X155.000 Y133.384 E2.69346
G1 X155.000 Y137.506 E2.86969
G1 X154.600 Y137.275 E2.88943
G1 X154.600 Y133.233 E3.06226
G1 X154.200 Y133.081 E3.08054
G1 X154.200 Y137.044 E3.24997
G1 X153.800 Y136.813 E3.26972
G1 X153.800 Y132.948 E3.43499
G1 X153.400 Y132.826 E3.45287
G1 X153.400 Y136.582 E3.61349
G1 X153.000 Y136.352 E3.63324
G1 X153.000 Y132.721 E3.78844
G1 X152.600 Y132.628 E3.80601
G1 X152.600 Y136.121 E3.95535
G1 X152.200 Y135.890 E3.97510
G1 X152.200 Y132.551 E4.11783
G1 X151.800 Y132.485 E4.13517
G1 X151.800 Y135.659 E4.27087
G1 X151.400 Y135.428 E4.29062
G1 X151.400 Y132.434 E4.41860
G1 X151.000 Y132.395 E4.43579
G1 X151.000 Y135.197 E4.55559
G1 X150.600 Y134.966 E4.57534
G1 X150.600 Y132.370 E4.68633
G1 X150.200 Y132.357 E4.70344
G1 X150.200 Y134.735 E4.80513
G1 X150.000 Y134.619 E4.81500
G1 X149.800 Y134.735 E4.82487
G1 X149.800 Y132.357 E4.92656
G1 X149.400 Y132.370 E4.94367
G1 X149.400 Y134.966 E5.05466
G1 X149.000 Y135.197 E5.07441
G1 X149.000 Y132.395 E5.19421
G1 X148.600 Y132.434 E5.21139
G1 X148.600 Y135.428 E5.33937
G1 X148.200 Y135.659 E5.35912
G1 X148.200 Y132.485 E5.49483
G1 X147.800 Y132.551 E5.51216
G1 X147.800 Y135.890 E5.65490
G1 X147.400 Y136.121 E5.67465
G1 X147.400 Y132.628 E5.82399
G1 X147.000 Y132.721 E5.84155
G1 X147.000 Y136.352 E5.99675
G1 X146.600 Y136.582 E6.01650
G1 X146.600 Y132.826 E6.17712
G1 X146.200 Y132.948 E6.19500
G1 X146.200 Y136.813 E6.36028
G1 X145.800 Y137.044 E6.38002
G1 X145.800 Y133.081 E6.54945
G1 X145.400 Y133.233 E6.56773
G1 X145.400 Y137.275 E6.74056
G1 X145.000 Y137.506 E6.76031
G1 X145.000 Y133.384 E6.93653
G1 X144.600 Y133.220 E6.95502
G1 X144.600 Y137.737 E7.14813
G1 X144.200 Y137.968 E7.16788
G1 X144.200 Y133.026 E7.37917
G1 X143.800 Y132.795 E7.39893
G1 X143.800 Y138.199 E7.62999
G1 X143.738 Y138.235 E7.63304
G1 X143.738 Y145.465 E7.94216
G1 X143.800 Y145.501 E7.94521
G1 E5.94521 F2400.00000
G92 E0
G1 X141.000 Y142.544 F7800.000
G1 E2.00000 F2400.00000
G1 F2400.000
G1 X141.400 Y145.112 E2.11108
G1 X141.400 Y129.982 E2.75793
G1 X141.505 Y130.221 E2.76910
G1 X141.800 Y130.759 E2.79533
G1 X141.800 Y147.679 E3.51870
G1 X142.200 Y150.246 E3.62978
G1 X142.200 Y131.344 E4.43790
G1 X142.600 Y131.808 E4.46410
G1 X142.600 Y152.813 E5.36213
G1 X143.000 Y155.381 E5.47321
G1 X143.000 Y132.198 E6.46435
G1 X143.400 Y132.521 E6.48635
G1 X143.400 Y157.948 E7.57340
G1 X143.800 Y160.515 E7.68448
G1 X143.800 Y145.501 E8.32637
G1 X144.171 Y145.715 E8.34470
G1 X144.171 Y149.215 E8.49434
G1 X144.200 Y149.232 E8.49576
G1 X144.200 Y163.082 E9.08790
G1 X144.600 Y165.649 E9.19898
G1 X144.600 Y149.463 E9.89100
G1 X144.604 Y152.965 E10.04074
G1 X145.000 Y153.194 E10.06028
G1 X145.000 Y168.217 E10.70255
G1 X145.400 Y170.784 E10.81363
G1 X145.400 Y156.925 E11.40615
G1 X145.470 Y156.965 E11.40962
G1 X145.470 Y160.465 E11.55925
G1 X145.800 Y160.656 E11.57553
G1 X145.800 Y173.351 E12.11830
G1 X146.200 Y175.918 E12.22938
G1 X146.200 Y164.387 E12.72239
G1 X146.336 Y164.465 E12.72912
G1 X146.336 Y167.965 E12.87876
G1 X146.600 Y168.118 E12.89177
G1 X146.600 Y178.486 E13.33504
G1 X147.000 Y181.053 E13.44612
G1 X147.000 Y171.848 E13.83963
G1 X147.202 Y171.965 E13.84961
G1 X147.202 Y174.465 E13.95649
G1 X147.400 Y174.579 E13.96625
G1 X147.400 Y183.382 E14.34259
G1 X147.575 Y183.750 E14.36001
G1 X147.800 Y184.077 E14.37697
G1 X147.800 Y176.810 E14.68762
G1 X148.068 Y176.965 E14.70087
G1 X148.068 Y178.465 E14.76500
G1 X148.200 Y178.541 E14.77150
G1 X148.200 Y184.487 E15.02569
G1 X148.475 Y184.698 E15.04052
G1 X148.600 Y184.766 E15.04659
G1 X148.600 Y183.313 E15.10871
G1 X148.798 Y183.552 E15.12198
G1 X149.000 Y183.724 E15.13333
G1 X149.000 Y184.957 E15.18602
G1 X149.275 Y185.054 E15.19851
G1 X149.400 Y185.077 E15.20393
G1 X149.400 Y183.940 E15.25255
G1 X149.672 Y184.021 E15.26469
G1 X149.800 Y184.037 E15.27020
G1 X149.800 Y185.137 E15.31720
G1 X150.200 Y185.141 E15.33430
G1 X150.200 Y184.037 E15.38147
G1 X150.600 Y183.940 E15.39907
G1 X150.600 Y185.081 E15.44785
G1 X151.000 Y184.965 E15.46566
G1 X151.000 Y183.724 E15.51871
G1 X151.202 Y183.552 E15.53006
G1 X151.400 Y183.313 E15.54333
G1 X151.400 Y184.766 E15.60544
G1 X151.648 Y184.614 E15.61787
G1 X151.800 Y184.490 E15.62624
G1 X151.800 Y178.541 E15.88058
G1 X151.932 Y178.465 E15.88708
G1 X151.932 Y176.965 E15.95121
G1 X152.200 Y176.810 E15.96446
G1 X152.200 Y184.068 E16.27473
G1 X152.350 Y183.873 E16.28523
G1 X152.495 Y183.621 E16.29765
G1 X152.600 Y183.385 E16.30871
G1 X152.600 Y174.579 E16.68517
G1 X152.798 Y174.465 E16.69493
G1 X152.798 Y171.965 E16.80181
G1 X153.000 Y171.848 E16.81180
G1 X153.000 Y181.053 E17.20530
G1 X153.400 Y178.485 E17.31638
G1 X153.400 Y168.118 E17.75964
G1 X153.664 Y167.965 E17.77265
G1 X153.664 Y164.465 E17.92229
G1 X153.800 Y164.387 E17.92902
G1 X153.800 Y175.918 E18.42203
G1 X154.200 Y173.351 E18.53311
G1 X154.200 Y160.656 E19.07587
G1 X154.530 Y160.465 E19.09214
G1 X154.530 Y156.965 E19.24178
G1 X154.600 Y156.925 E19.24525
G1 X154.600 Y170.784 E19.83776
G1 X155.000 Y168.216 E19.94884
G1 X155.000 Y153.194 E20.59111
G1 X155.396 Y152.965 E20.61064
G1 X155.400 Y149.463 E20.76038
G1 X155.400 Y165.649 E21.45240
G1 X155.800 Y163.082 E21.56348
G1 X155.800 Y149.232 E22.15561
G1 X155.829 Y149.215 E22.15703
G1 X155.829 Y145.715 E22.30667
G1 X156.200 Y145.501 E22.32500
G1 X156.200 Y160.515 E22.96688
G1 X156.600 Y157.948 E23.07796
G1 X156.600 Y132.521 E24.16500
G1 X157.000 Y132.198 E24.18701
G1 X157.000 Y155.380 E25.17813
G1 X157.400 Y152.813 E25.28922
G1 X157.400 Y131.808 E26.18725
G1 X157.800 Y131.344 E26.21344
G1 X157.800 Y150.246 E27.02155
G1 X158.200 Y147.679 E27.13263
G1 X158.200 Y130.759 E27.85600
G1 X158.495 Y130.221 E27.88223
G1 X158.600 Y129.982 E27.89340
G1 X158.600 Y145.111 E28.54025
G1 E26.54025 F2400.00000
G92 E0
G1 X158.600 Y129.296 F7800.000
G1 E2.00000 F2400.00000
G1 F2400.000
G1 X158.600 Y120.004 E2.39725
G1 X158.370 Y120.611 E2.42501
G1 X158.200 Y121.169 E2.44993
G1 X158.200 Y128.131 E2.74757
G1 X157.943 Y127.101 E2.79294
G1 X157.800 Y126.211 E2.83149
G1 X157.800 Y123.089 E2.96498
G1 E0.96498 F2400.00000
G92 E0
G1 X142.200 Y126.211 F7800.000
G1 E2.00000 F2400.00000
G1 F2400.000
G1 X142.200 Y123.089 E2.13346
G1 X142.057 Y122.199 E2.17202
G1 X141.800 Y121.169 E2.21739
G1 X141.800 Y128.131 E2.51502
G1 X141.630 Y128.689 E2.53995
G1 X141.400 Y129.296 E2.56771
G1 X141.400 Y120.004 E2.96495
G1 E0.96495 F2400.00000
G92 E0
G1 X151.400 Y181.387 F7800.000
G1 E2.00000 F2400.00000
G1 F2400.000
G1 X151.400 Y178.772 E2.11180
G1 X151.000 Y179.003 E2.13154
G1 X151.000 Y180.976 E2.21587
G1 X150.772 Y180.836 E2.22732
G1 X150.600 Y180.760 E2.23534
G1 X150.600 Y179.234 E2.30058
G1 X150.200 Y179.465 E2.32032
G1 X150.200 Y180.663 E2.37152
G1 X149.800 Y180.663 E2.38862
G1 X149.800 Y179.465 E2.43981
G1 X149.400 Y179.234 E2.45956
G1 X149.400 Y180.760 E2.52479
G1 X149.228 Y180.836 E2.53281
G1 X149.000 Y180.975 E2.54426
G1 X149.000 Y179.003 E2.62858
G1 X148.600 Y178.772 E2.64833
G1 X148.600 Y181.387 E2.76012
G1 X148.486 Y181.578 E2.76965
G1 X148.385 Y181.818 E2.78078
G1 X148.321 Y182.084 E2.79246
G1 X148.300 Y182.350 E2.80386
G1 X148.321 Y182.616 E2.81526
G1 X148.383 Y182.875 E2.82666
G1 X148.486 Y183.122 E2.83807
G1 X148.600 Y183.313 E2.84759
G1 Z0.250 F7800.000
G1 Z0.500 F7800.000
G1 X150.141 Y185.146 F7800.000
G1 F2400.000
G1 X150.438 Y185.116 E2.86035
G1 X150.725 Y185.055 E2.87288
G1 X151.003 Y184.964 E2.88541
G1 X151.269 Y184.846 E2.89783
G1 X151.431 Y184.746 E2.90598
G1 X148.564 Y184.746 E3.02856
G1 X148.475 Y184.698 E3.03289
G1 X148.127 Y184.431 E3.05167
G1 X148.047 Y184.347 E3.05660
G1 X151.958 Y184.347 E3.22378
G1 X152.079 Y184.225 E3.23112
G1 X152.292 Y183.948 E3.24610
G1 X150.579 Y183.948 E3.31935
G1 X150.266 Y184.029 E3.33318
G1 X150.000 Y184.050 E3.34458
G1 X149.724 Y184.028 E3.35641
G1 X149.421 Y183.948 E3.36982
G1 X147.711 Y183.948 E3.44292
G1 X147.575 Y183.750 E3.45317
G1 X147.479 Y183.548 E3.46273
G1 X148.795 Y183.548 E3.51897
G1 X148.625 Y183.349 E3.53015
G1 X148.500 Y183.149 E3.54024
G1 X147.326 Y183.149 E3.59045
G1 X147.261 Y182.930 E3.60022
G1 X147.232 Y182.749 E3.60803
G1 X148.348 Y182.749 E3.65575
G1 X148.300 Y182.350 E3.67295
G1 X147.200 Y182.350 E3.71999
G1 X147.140 Y181.950 E3.73726
G1 X148.348 Y181.950 E3.78894
G1 X148.413 Y181.741 E3.79831
G1 X148.500 Y181.551 E3.80724
G1 X147.078 Y181.551 E3.86807
G1 X147.015 Y181.152 E3.88535
G1 X148.795 Y181.152 E3.96143
G1 X149.074 Y180.924 E3.97683
G1 X149.422 Y180.752 E3.99340
G1 X146.953 Y180.752 E4.09894
G1 X146.891 Y180.353 E4.11622
G1 X153.109 Y180.353 E4.38207
G1 X153.171 Y179.953 E4.39935
G1 X146.829 Y179.953 E4.67052
G1 X146.766 Y179.554 E4.68780
G1 X149.954 Y179.554 E4.82408
G1 X149.262 Y179.155 E4.85823
G1 X146.704 Y179.155 E4.96760
G1 X146.642 Y178.755 E4.98488
G1 X148.570 Y178.755 E5.06733
G1 X148.068 Y178.465 E5.09212
G1 X148.068 Y178.356 E5.09680
G1 X146.580 Y178.356 E5.16044
G1 X146.517 Y177.956 E5.17772
G1 X148.068 Y177.956 E5.24402
G1 X148.068 Y177.557 E5.26110
G1 X146.455 Y177.557 E5.33006
G1 X146.393 Y177.158 E5.34734
G1 X148.068 Y177.158 E5.41897
G1 X148.068 Y176.965 E5.42719
G1 X147.710 Y176.758 E5.44490
G1 X146.331 Y176.758 E5.50384
G1 X146.269 Y176.359 E5.52112
G1 X147.635 Y176.359 E5.57956
G1 X147.635 Y175.959 E5.59663
G1 X146.206 Y175.959 E5.65772
G1 X146.144 Y175.560 E5.67501
G1 X147.635 Y175.560 E5.73876
G1 X147.635 Y175.161 E5.75583
G1 X146.082 Y175.161 E5.82225
G1 X146.020 Y174.761 E5.83953
G1 X147.635 Y174.761 E5.90860
G1 X147.635 Y174.715 E5.91056
G1 X147.202 Y174.465 E5.93194
G1 X147.202 Y174.362 E5.93637
G1 X145.957 Y174.362 E5.98959
G1 X145.895 Y173.962 E6.00687
G1 X147.202 Y173.962 E6.06275
G1 X147.202 Y173.563 E6.07983
G1 X145.833 Y173.563 E6.13837
G1 X145.771 Y173.163 E6.15565
G1 X147.202 Y173.163 E6.21686
G1 X147.202 Y172.764 E6.23393
G1 X145.708 Y172.764 E6.29780
G1 X145.646 Y172.365 E6.31508
G1 X147.202 Y172.365 E6.38161
G1 X147.202 Y171.965 E6.39868
G1 X145.584 Y171.965 E6.46787
G1 X145.522 Y171.566 E6.48515
G1 X146.769 Y171.566 E6.53848
G1 X146.769 Y171.166 E6.55556
G1 X145.460 Y171.166 E6.61155
G1 X145.397 Y170.767 E6.62884
G1 X146.769 Y170.767 E6.68749
G1 X146.769 Y170.368 E6.70457
G1 X145.335 Y170.368 E6.76588
G1 X145.273 Y169.968 E6.78317
G1 X146.769 Y169.968 E6.84714
G1 X146.769 Y169.569 E6.86422
G1 X145.211 Y169.569 E6.93086
G1 X145.148 Y169.169 E6.94814
G1 X146.769 Y169.169 E7.01744
G1 X146.769 Y168.770 E7.03451
G1 X145.086 Y168.770 E7.10647
G1 X145.024 Y168.371 E7.12375
G1 X146.769 Y168.371 E7.19837
G1 X146.769 Y168.215 E7.20501
G1 X146.346 Y167.971 E7.22588
G1 X144.962 Y167.971 E7.28509
G1 X144.899 Y167.572 E7.30237
G1 X146.336 Y167.572 E7.36380
G1 X146.336 Y167.172 E7.38087
G1 X144.837 Y167.172 E7.44496
G1 X144.775 Y166.773 E7.46225
G1 X146.336 Y166.773 E7.52899
G1 X146.336 Y166.374 E7.54607
G1 X144.713 Y166.374 E7.61548
G1 X144.650 Y165.974 E7.63276
G1 X146.336 Y165.974 E7.70483
G1 X146.336 Y165.575 E7.72191
G1 X144.588 Y165.575 E7.79664
G1 X144.526 Y165.175 E7.81392
G1 X146.336 Y165.175 E7.89132
G1 X146.336 Y164.776 E7.90839
G1 X144.464 Y164.776 E7.98844
G1 X144.402 Y164.376 E8.00573
G1 X146.182 Y164.376 E8.08186
G1 X145.903 Y164.215 E8.09565
G1 X145.903 Y163.977 E8.10583
G1 X144.339 Y163.977 E8.17269
G1 X144.277 Y163.578 E8.18998
G1 X145.903 Y163.578 E8.25950
G1 X145.903 Y163.178 E8.27657
G1 X144.215 Y163.178 E8.34876
G1 X144.153 Y162.779 E8.36604
G1 X145.903 Y162.779 E8.44088
G1 X145.903 Y162.379 E8.45796
G1 X144.090 Y162.379 E8.53546
G1 X144.028 Y161.980 E8.55274
G1 X145.903 Y161.980 E8.63291
G1 X145.903 Y161.581 E8.64999
G1 X143.966 Y161.581 E8.73281
G1 X143.904 Y161.181 E8.75009
G1 X145.903 Y161.181 E8.83558
G1 X145.903 Y160.782 E8.85266
G1 X143.841 Y160.782 E8.94080
G1 X143.779 Y160.382 E8.95808
G1 X145.470 Y160.382 E9.03038
G1 X145.470 Y159.983 E9.04745
G1 X143.717 Y159.983 E9.12241
G1 X143.655 Y159.584 E9.13969
G1 X145.470 Y159.584 E9.21731
G1 X145.470 Y159.184 E9.23438
