; generated by Slic3r 1.3.1-dev (Build 8c69278) on 2021-12-10 at 13:24:50

; external perimeters extrusion width = 0.45mm (3.99mm^3/s)
; perimeters extrusion width = 0.45mm (3.99mm^3/s)
; infill extrusion width = 0.45mm (3.99mm^3/s)
; solid infill extrusion width = 0.45mm (4.99mm^3/s)
; top infill extrusion width = 0.45mm (3.00mm^3/s)
; support material extrusion width = 0.45mm (4.99mm^3/s)

M107
G92 E0
M104 S205 ; set temperature
G28 ; home all axes
G1 Z5 F5000 ; lift nozzle

; Filament gcode

M109 S205 ; set temperature and wait for it to be reached
G21 ; set units to millimeters
G90 ; use absolute coordinates
M82 ; use absolute distances for extrusion
G92 E0
G1 Z0.250 F7800.000
G1 E-2.00000 F2400.00000
G92 E0
G1 X127.853 Y136.321 F7800.000
G1 E2.00000 F2400.00000
G1 F2400.000
G1 X127.768 Y136.723 E2.01758
G1 X131.713 Y136.723 E2.18622
G1 X131.444 Y136.944 E2.20111
G1 X131.295 Y137.125 E2.21114
G1 X127.718 Y137.125 E2.36406
G1 X127.700 Y137.528 E2.38128
G1 X131.036 Y137.528 E2.52393
G1 X130.967 Y137.658 E2.53024
G1 X130.884 Y137.930 E2.54240
G1 X127.700 Y137.930 E2.67855
G1 X127.700 Y138.332 E2.69575
G1 X130.816 Y138.332 E2.82898
G1 X130.799 Y138.500 E2.83618
G1 X130.822 Y138.735 E2.84626
G1 X127.700 Y138.735 E2.97977
G1 X127.700 Y139.137 E2.99697
G1 X130.905 Y139.137 E3.13399
G1 X131.004 Y139.465 E3.14865
G1 X131.033 Y139.465 E3.14986
G1 X131.072 Y139.539 E3.15347
G1 X127.700 Y139.539 E3.29766
G1 X127.700 Y139.942 E3.31486
G1 X131.350 Y139.942 E3.47093
G1 X131.444 Y140.056 E3.47725
G1 X131.804 Y140.344 E3.49697
G1 X127.700 Y140.344 E3.67245
G1 E1.67245 F2400.00000
G92 E0
G1 X127.700 Y145.977 F7800.000
G1 E2.00000 F2400.00000
G1 F2400.000
G1 X127.700 Y146.379 E2.01720
G1 X147.906 Y146.379 E2.88109
G1 X147.666 Y146.507 E2.89272
G1 X147.332 Y146.781 E2.91119
G1 X127.700 Y146.781 E3.75054
G1 X127.700 Y147.184 E3.76774
G1 X146.903 Y147.184 E4.58875
G1 X146.573 Y147.586 E4.61100
G1 X127.700 Y147.586 E5.41790
G1 X127.700 Y147.988 E5.43510
G1 X146.335 Y147.988 E6.23182
G1 X146.120 Y148.391 E6.25132
G1 X127.700 Y148.391 E7.03885
G1 X127.700 Y148.793 E7.05605
G1 X145.998 Y148.793 E7.83834
G1 X145.879 Y149.195 E7.85627
G1 X127.700 Y149.195 E8.63347
G1 X127.700 Y149.598 E8.65068
G1 X145.839 Y149.598 E9.42618
G1 X145.799 Y150.000 E9.44347
G1 X127.700 Y150.000 E10.21728
G1 X127.700 Y150.402 E10.23448
G1 X145.839 Y150.402 E11.00999
G1 X145.879 Y150.805 E11.02727
G1 X127.700 Y150.805 E11.80447
G1 X127.700 Y151.207 E11.82167
G1 X145.998 Y151.207 E12.60396
G1 X146.120 Y151.609 E12.62194
G1 X127.700 Y151.609 E13.40947
G1 X127.700 Y152.012 E13.42667
G1 X146.335 Y152.012 E14.22339
G1 X146.512 Y152.343 E14.23942
G1 X146.573 Y152.414 E14.24345
G1 X127.700 Y152.414 E15.05034
G1 X127.700 Y152.816 E15.06754
G1 X146.903 Y152.816 E15.88855
G1 X147.030 Y152.970 E15.89707
G1 X147.332 Y153.219 E15.91381
G1 X127.700 Y153.219 E16.75316
G1 X127.700 Y153.621 E16.77036
G1 X147.906 Y153.621 E17.63425
G1 X148.392 Y153.881 E17.65782
G1 X148.862 Y154.023 E17.67879
G1 X127.700 Y154.023 E18.58354
G1 E16.58354 F2400.00000
G92 E0
G1 X127.700 Y159.656 F7800.000
G1 E2.00000 F2400.00000
G1 F2400.000
G1 X127.700 Y160.058 E2.01720
G1 X131.350 Y160.058 E2.17327
G1 X131.170 Y160.277 E2.18539
G1 X131.072 Y160.461 E2.19427
G1 X127.700 Y160.461 E2.33846
G1 X127.700 Y160.863 E2.35566
G1 X130.905 Y160.863 E2.49268
G1 X130.842 Y161.071 E2.50196
G1 X130.822 Y161.265 E2.51032
G1 X127.700 Y161.265 E2.64383
G1 X127.700 Y161.668 E2.66103
G1 X130.816 Y161.668 E2.79426
G1 X130.842 Y161.929 E2.80550
G1 X130.884 Y162.070 E2.81178
G1 X127.700 Y162.070 E2.94793
G1 X127.700 Y162.472 E2.96513
G1 X131.036 Y162.472 E3.10779
G1 X131.170 Y162.723 E3.11992
G1 X131.295 Y162.875 E3.12833
G1 X127.718 Y162.875 E3.28125
G1 X127.768 Y163.277 E3.29858
G1 X131.713 Y163.277 E3.46723
G1 X131.777 Y163.330 E3.47078
G1 X132.158 Y163.533 E3.48923
G1 X132.571 Y163.658 E3.50767
G1 X132.783 Y163.679 E3.51679
G1 X127.853 Y163.679 E3.72756
G1 E1.72756 F2400.00000
G92 E0
G1 X133.217 Y163.679 F7800.000
G1 E2.00000 F2400.00000
G1 F2400.000
G1 X166.783 Y163.679 E3.43503
G1 X166.571 Y163.658 E3.44414
G1 X166.158 Y163.533 E3.46259
G1 X165.777 Y163.330 E3.48103
G1 X165.713 Y163.277 E3.48459
G1 X134.287 Y163.277 E4.82814
G1 X134.556 Y163.056 E4.84303
G1 X134.705 Y162.875 E4.85306
G1 X165.295 Y162.875 E6.16088
G1 X165.170 Y162.723 E6.16928
G1 X165.036 Y162.472 E6.18142
G1 X134.964 Y162.472 E7.46712
G1 X135.033 Y162.342 E7.47342
G1 X135.116 Y162.070 E7.48559
G1 X164.884 Y162.070 E8.75827
G1 X164.842 Y161.929 E8.76455
G1 X164.816 Y161.668 E8.77580
G1 X135.184 Y161.668 E10.04264
G1 X135.201 Y161.500 E10.04984
G1 X135.178 Y161.265 E10.05992
G1 X164.822 Y161.265 E11.32733
G1 X164.842 Y161.071 E11.33569
G1 X164.905 Y160.863 E11.34497
G1 X135.095 Y160.863 E12.61939
G1 X135.033 Y160.658 E12.62856
G1 X134.928 Y160.461 E12.63812
G1 X165.072 Y160.461 E13.92689
G1 X165.170 Y160.277 E13.93577
G1 X165.350 Y160.058 E13.94789
G1 X134.650 Y160.058 E15.26041
G1 X134.556 Y159.944 E15.26673
G1 X134.196 Y159.656 E15.28645
G1 E13.28645 F2400.00000
G92 E0
G1 X132.503 Y167.300 F7800.000
G1 E2.00000 F2400.00000
G1 F2400.000
G1 X167.497 Y167.300 E3.49610
G1 X167.970 Y167.277 E3.51636
G1 X168.436 Y167.208 E3.53649
G1 X168.893 Y167.094 E3.55662
G1 X169.414 Y166.898 E3.58041
G1 X130.586 Y166.898 E5.24041
G1 X130.237 Y166.734 E5.25690
G1 X129.841 Y166.496 E5.27666
G1 X170.159 Y166.496 E7.00036
G1 X170.545 Y166.210 E7.02089
G1 X170.675 Y166.093 E7.02836
G1 X129.325 Y166.093 E8.79618
G1 X129.105 Y165.895 E8.80884
G1 X128.921 Y165.691 E8.82058
G1 X171.079 Y165.691 E10.62294
G1 X171.401 Y165.289 E10.64496
G1 X128.599 Y165.289 E12.47484
G1 X128.341 Y164.886 E12.49529
G1 X171.659 Y164.886 E14.34730
G1 X171.865 Y164.484 E14.36661
G1 X128.135 Y164.484 E16.23618
G1 X127.974 Y164.082 E16.25471
G1 X172.026 Y164.082 E18.13805
G1 X172.147 Y163.679 E18.15601
G1 X167.217 Y163.679 E18.36678
G1 X167.429 Y163.658 E18.37590
G1 X167.842 Y163.533 E18.39434
G1 X168.223 Y163.330 E18.41279
G1 X168.287 Y163.277 E18.41634
G1 X172.232 Y163.277 E18.58499
G1 X172.282 Y162.875 E18.60232
G1 X168.705 Y162.875 E18.75524
G1 X168.830 Y162.723 E18.76365
G1 X168.964 Y162.472 E18.77578
G1 X172.300 Y162.472 E18.91844
G1 X172.300 Y162.070 E18.93564
G1 X169.116 Y162.070 E19.07179
G1 X169.158 Y161.929 E19.07807
G1 X169.184 Y161.668 E19.08931
G1 X172.300 Y161.668 E19.22254
G1 X172.300 Y161.265 E19.23974
G1 X169.178 Y161.265 E19.37325
G1 X169.158 Y161.071 E19.38161
G1 X169.095 Y160.863 E19.39089
G1 X172.300 Y160.863 E19.52791
G1 X172.300 Y160.461 E19.54511
G1 X168.928 Y160.461 E19.68930
G1 X168.825 Y160.269 E19.69861
G1 X168.650 Y160.058 E19.71031
G1 X172.300 Y160.058 E19.86638
G1 X172.300 Y159.656 E19.88358
G1 X168.196 Y159.656 E20.05906
G1 X167.842 Y159.467 E20.07620
G1 X167.429 Y159.342 E20.09465
G1 X167.000 Y159.299 E20.11309
G1 X166.827 Y159.316 E20.12053
G1 X166.827 Y159.264 E20.12277
G1 X166.157 Y159.467 E20.15270
G1 X165.804 Y159.656 E20.16981
G1 X134.196 Y159.656 E21.52115
G1 X133.845 Y159.468 E21.53818
G1 X133.429 Y159.342 E21.55674
G1 X133.000 Y159.299 E21.57518
G1 X132.571 Y159.342 E21.59363
G1 X132.158 Y159.467 E21.61207
G1 X131.804 Y159.656 E21.62922
G1 X127.700 Y159.656 E21.80470
G1 X127.700 Y159.254 E21.82190
G1 X172.300 Y159.254 E23.72870
G1 X172.300 Y158.851 E23.74590
G1 X127.700 Y158.851 E25.65270
G1 X127.700 Y158.449 E25.66991
G1 X172.300 Y158.449 E27.57671
G1 X172.300 Y158.047 E27.59391
G1 X127.700 Y158.047 E29.50071
G1 X127.700 Y157.644 E29.51791
G1 X172.300 Y157.644 E31.42472
G1 X172.300 Y157.242 E31.44192
G1 X127.700 Y157.242 E33.34872
G1 X127.700 Y156.840 E33.36592
G1 X172.300 Y156.840 E35.27272
G1 X172.300 Y156.437 E35.28992
G1 X127.700 Y156.437 E37.19673
G1 X127.700 Y156.035 E37.21393
G1 X172.300 Y156.035 E39.12073
G1 X172.300 Y155.633 E39.13793
G1 X127.700 Y155.633 E41.04474
G1 X127.700 Y155.230 E41.06194
G1 X172.300 Y155.230 E42.96874
G1 X172.300 Y154.828 E42.98594
G1 X127.700 Y154.828 E44.89274
G1 X127.700 Y154.426 E44.90994
G1 X172.300 Y154.426 E46.81675
G1 X172.300 Y154.023 E46.83395
G1 X151.138 Y154.023 E47.73870
G1 X151.608 Y153.881 E47.75968
G1 X152.094 Y153.621 E47.78325
G1 X172.300 Y153.621 E48.64714
G1 X172.300 Y153.219 E48.66434
G1 X152.668 Y153.219 E49.50369
G1 X152.970 Y152.970 E49.52043
G1 X153.097 Y152.816 E49.52894
G1 X172.300 Y152.816 E50.34995
G1 X172.300 Y152.414 E50.36715
G1 X153.427 Y152.414 E51.17405
G1 X153.493 Y152.334 E51.17849
G1 X153.665 Y152.012 E51.19410
G1 X172.300 Y152.012 E51.99082
G1 X172.300 Y151.609 E52.00802
G1 X153.880 Y151.609 E52.79554
G1 X154.002 Y151.207 E52.81352
G1 X172.300 Y151.207 E53.59581
G1 X172.300 Y150.805 E53.61301
G1 X154.121 Y150.805 E54.39022
G1 X154.161 Y150.402 E54.40750
G1 X172.300 Y150.402 E55.18301
G1 X172.300 Y150.000 E55.20021
G1 X154.201 Y150.000 E55.97402
G1 X154.161 Y149.598 E55.99130
G1 X172.300 Y149.598 E56.76681
G1 X172.300 Y149.195 E56.78401
G1 X154.121 Y149.195 E57.56121
G1 X154.002 Y148.793 E57.57915
G1 X172.300 Y148.793 E58.36144
G1 X172.300 Y148.391 E58.37864
G1 X153.880 Y148.391 E59.16617
G1 X153.665 Y147.988 E59.18567
G1 X172.300 Y147.988 E59.98239
G1 X172.300 Y147.586 E59.99959
G1 X153.427 Y147.586 E60.80648
G1 X153.097 Y147.184 E60.82873
G1 X172.300 Y147.184 E61.64974
G1 X172.300 Y146.781 E61.66695
G1 X152.668 Y146.781 E62.50630
G1 X152.334 Y146.507 E62.52477
G1 X152.094 Y146.379 E62.53640
G1 X172.300 Y146.379 E63.40029
G1 X172.300 Y145.977 E63.41749
G1 X151.138 Y145.977 E64.32224
G1 X150.820 Y145.880 E64.33647
G1 X150.000 Y145.799 E64.37167
G1 X149.180 Y145.880 E64.40688
G1 X148.862 Y145.977 E64.42111
G1 X127.700 Y145.977 E65.32586
G1 X127.700 Y145.574 E65.34306
G1 X172.300 Y145.574 E67.24986
G1 X172.300 Y145.172 E67.26706
G1 X127.700 Y145.172 E69.17386
G1 X127.700 Y144.770 E69.19106
G1 X172.300 Y144.770 E71.09787
G1 X172.300 Y144.367 E71.11507
G1 X127.700 Y144.367 E73.02187
G1 X127.700 Y143.965 E73.03907
G1 X172.300 Y143.965 E74.94587
G1 X172.300 Y143.563 E74.96308
G1 X127.700 Y143.563 E76.86988
G1 X127.700 Y143.160 E76.88708
G1 X172.300 Y143.160 E78.79388
G1 X172.300 Y142.758 E78.81108
G1 X127.700 Y142.758 E80.71789
G1 X127.700 Y142.356 E80.73509
G1 X172.300 Y142.356 E82.64189
G1 X172.300 Y141.953 E82.65909
G1 X127.700 Y141.953 E84.56589
G1 X127.700 Y141.551 E84.58309
G1 X172.300 Y141.551 E86.48990
G1 X172.300 Y141.149 E86.50710
G1 X127.700 Y141.149 E88.41390
G1 X127.700 Y140.746 E88.43110
G1 X172.300 Y140.746 E90.33791
G1 X172.300 Y140.344 E90.35511
G1 X168.196 Y140.344 E90.53059
G1 X168.556 Y140.056 E90.55031
G1 X168.650 Y139.942 E90.55663
G1 X172.300 Y139.942 E90.71270
G1 X172.300 Y139.539 E90.72990
G1 X168.928 Y139.539 E90.87409
G1 X169.033 Y139.342 E90.88365
G1 X169.095 Y139.137 E90.89281
G1 X172.300 Y139.137 E91.02983
G1 X172.300 Y138.735 E91.04703
G1 X169.178 Y138.735 E91.18054
G1 X169.201 Y138.500 E91.19063
G1 X169.184 Y138.332 E91.19783
G1 X172.300 Y138.332 E91.33105
G1 X172.300 Y137.930 E91.34825
G1 X169.118 Y137.930 E91.48430
G1 X169.050 Y137.690 E91.49498
G1 X168.964 Y137.528 E91.50283
G1 X172.300 Y137.528 E91.64548
G1 X172.282 Y137.125 E91.66270
G1 X168.705 Y137.125 E91.81562
G1 X168.556 Y136.944 E91.82566
G1 X168.287 Y136.723 E91.84054
G1 X172.232 Y136.723 E92.00919
G1 X172.147 Y136.321 E92.02676
G1 X167.223 Y136.321 E92.23728
G1 X167.006 Y136.299 E92.24659
G1 X166.783 Y136.321 E92.25620
G1 X133.217 Y136.321 E93.69122
G1 X133.000 Y136.299 E93.70055
G1 X132.783 Y136.321 E93.70988
G1 X127.853 Y136.321 E93.92065
G1 X127.974 Y135.918 E93.93861
G1 X172.026 Y135.918 E95.82195
G1 X171.865 Y135.516 E95.84048
G1 X128.135 Y135.516 E97.71005
G1 X128.341 Y135.114 E97.72937
G1 X171.659 Y135.114 E99.58137
G1 X171.401 Y134.711 E99.60183
G1 X128.599 Y134.711 E101.43170
G1 X128.921 Y134.309 E101.45373
G1 X171.079 Y134.309 E103.25608
G1 X170.895 Y134.105 E103.26782
G1 X170.675 Y133.907 E103.28049
G1 X129.325 Y133.907 E105.04831
G1 X129.455 Y133.790 E105.05577
G1 X129.841 Y133.504 E105.07630
G1 X170.159 Y133.504 E106.80001
G1 X169.763 Y133.266 E106.81977
G1 X169.414 Y133.102 E106.83626
G1 X130.586 Y133.102 E108.49626
G1 X131.107 Y132.906 E108.52005
G1 X131.564 Y132.792 E108.54018
G1 X132.030 Y132.723 E108.56031
G1 X132.503 Y132.700 E108.58056
G1 X167.497 Y132.700 E110.07668
G1 E108.07668 F2400.00000
G92 E0
G1 X134.196 Y140.344 F7800.000
G1 E2.00000 F2400.00000
G1 F2400.000
G1 X165.804 Y140.344 E3.35135
G1 X165.444 Y140.056 E3.37107
G1 X165.350 Y139.942 E3.37739
G1 X134.650 Y139.942 E4.68991
G1 X134.830 Y139.723 E4.70203
G1 X134.928 Y139.539 E4.71091
G1 X165.072 Y139.539 E5.99968
G1 X164.967 Y139.342 E6.00924
G1 X164.905 Y139.137 E6.01840
G1 X135.095 Y139.137 E7.29283
G1 X135.158 Y138.929 E7.30211
G1 X135.178 Y138.735 E7.31047
G1 X164.822 Y138.735 E8.57788
G1 X164.799 Y138.500 E8.58796
G1 X164.816 Y138.332 E8.59516
G1 X135.184 Y138.332 E9.86200
G1 X135.158 Y138.071 E9.87324
G1 X135.116 Y137.930 E9.87952
G1 X164.884 Y137.930 E11.15221
G1 X164.967 Y137.658 E11.16438
G1 X165.036 Y137.528 E11.17068
G1 X134.964 Y137.528 E12.45638
G1 X134.830 Y137.277 E12.46852
G1 X134.705 Y137.125 E12.47692
G1 X165.295 Y137.125 E13.78473
G1 X165.444 Y136.944 E13.79477
G1 X165.713 Y136.723 E13.80965
G1 X134.287 Y136.723 E15.15321
G1 X134.223 Y136.670 E15.15677
G1 X133.842 Y136.467 E15.17521
G1 X133.429 Y136.342 E15.19366
G1 X133.217 Y136.321 E15.20277
G1 Z0.250 F7800.000
G1 Z0.500 F7800.000
G1 X127.700 Y137.503 F7800.000
G1 F2400.000
G1 X127.700 Y162.497 E16.27136
G1 X127.700 Y137.503 E17.33995
G1 X127.723 Y137.030 E17.36019
G1 X127.792 Y136.564 E17.38032
G1 X127.906 Y136.107 E17.40045
G1 X128.102 Y135.587 E17.42420
G1 X128.102 Y164.413 E18.65657
G1 X128.266 Y164.763 E18.67311
G1 X128.503 Y165.157 E18.69278
G1 X128.503 Y134.843 E19.98881
G1 X128.790 Y134.455 E20.00943
G1 X128.905 Y134.327 E20.01680
G1 X128.905 Y165.673 E21.35694
G1 X129.105 Y165.895 E21.36970
G1 X129.307 Y166.077 E21.38132
G1 X129.307 Y133.923 E22.75599
G1 X129.709 Y133.601 E22.77800
G1 X129.709 Y166.399 E24.18018
G1 X130.111 Y166.658 E24.20061
G1 X130.111 Y133.342 E25.62493
G1 X130.512 Y133.137 E25.64423
G1 X130.512 Y166.863 E27.08612
G1 X130.914 Y167.024 E27.10463
G1 X130.914 Y162.169 E27.31223
G1 X130.842 Y161.929 E27.32292
G1 X130.799 Y161.500 E27.34137
G1 X130.842 Y161.071 E27.35981
G1 X130.914 Y160.831 E27.37050
G1 X130.914 Y139.169 E28.29664
G1 X130.842 Y138.929 E28.30733
G1 X130.799 Y138.500 E28.32578
G1 X130.842 Y138.071 E28.34422
G1 X130.914 Y137.831 E28.35492
G1 X130.914 Y132.976 E28.56251
G1 X131.316 Y132.854 E28.58046
G1 X131.316 Y137.100 E28.76198
G1 X131.444 Y136.944 E28.77060
G1 X131.718 Y136.719 E28.78574
G1 X131.718 Y132.769 E28.95462
G1 X132.120 Y132.719 E28.97193
G1 X132.120 Y136.487 E29.13305
G1 X132.521 Y136.357 E29.15112
G1 X132.521 Y132.700 E29.30746
G1 X132.923 Y132.700 E29.32464
G1 X132.923 Y136.307 E29.47886
G1 X133.325 Y136.331 E29.49607
G1 X133.325 Y132.700 E29.65133
G1 X133.727 Y132.700 E29.66851
G1 X133.727 Y136.432 E29.82807
G1 X133.842 Y136.467 E29.83323
G1 X134.129 Y136.620 E29.84712
G1 X134.129 Y132.700 E30.01472
G1 X134.530 Y132.700 E30.03190
G1 X134.530 Y136.923 E30.21246
G1 X134.830 Y137.277 E30.23229
G1 X134.932 Y137.469 E30.24159
G1 X134.932 Y132.700 E30.44550
G1 X135.334 Y132.700 E30.46268
G1 X135.334 Y167.300 E31.94196
G1 X135.736 Y167.300 E31.95913
G1 X135.736 Y132.700 E33.43841
G1 X136.138 Y132.700 E33.45559
G1 X136.138 Y167.300 E34.93486
G1 X136.540 Y167.300 E34.95204
G1 X136.540 Y132.700 E36.43132
G1 X136.941 Y132.700 E36.44850
G1 X136.941 Y167.300 E37.92777
G1 X137.343 Y167.300 E37.94495
G1 X137.343 Y132.700 E39.42422
G1 X137.745 Y132.700 E39.44140
G1 X137.745 Y167.300 E40.92068
G1 X138.147 Y167.300 E40.93786
G1 X138.147 Y132.700 E42.41713
G1 X138.549 Y132.700 E42.43431
G1 X138.549 Y167.300 E43.91358
G1 X138.950 Y167.300 E43.93076
G1 X138.950 Y132.700 E45.41004
G1 X139.352 Y132.700 E45.42722
G1 X139.352 Y167.300 E46.90649
G1 X139.754 Y167.300 E46.92367
G1 X139.754 Y132.700 E48.40295
G1 X140.156 Y132.700 E48.42012
G1 X140.156 Y167.300 E49.89940
G1 X140.558 Y167.300 E49.91658
G1 X140.558 Y132.700 E51.39585
G1 X140.959 Y132.700 E51.41303
G1 X140.959 Y167.300 E52.89231
