; generated by Slic3r 1.3.1-dev (Build 8c69278) on 2021-12-10 at 13:24:50

; external perimeters extrusion width = 0.45mm (3.99mm^3/s)
; perimeters extrusion width = 0.45mm (3.99mm^3/s)
; infill extrusion width = 0.45mm (3.99mm^3/s)
; solid infill extrusion width = 0.45mm (4.99mm^3/s)
; top infill extrusion width = 0.45mm (3.00mm^3/s)
; support material extrusion width = 0.45mm (4.99mm^3/s)

M107
G92 E0
M104 S205 ; set temperature
G28 ; home all axes
G1 Z5 F5000 ; lift nozzle

; Filament gcode

M109 S205 ; set temperature and wait for it to be reached
G21 ; set units to millimeters
G90 ; use absolute coordinates
M82 ; use absolute distances for extrusion
G92 E0
G1 Z0.250 F7800.000
G1 E-2.00000 F2400.00000
G92 E0
G1 X157.994 Y108.346 F7800.000
G1 E2.00000 F2400.00000
G1 F2400.000
G1 X142.006 Y108.346 E2.68351
G1 X141.688 Y108.374 E2.69719
G1 X141.385 Y108.455 E2.71060
G1 X141.100 Y108.588 E2.72401
G1 X140.873 Y108.747 E2.73586
G1 X159.127 Y108.747 E3.51624
G1 X159.379 Y108.990 E3.53120
G1 X159.489 Y109.147 E3.53943
G1 X140.511 Y109.147 E4.35078
G1 X140.442 Y109.247 E4.35597
G1 X140.304 Y109.548 E4.37012
G1 X159.696 Y109.548 E5.19914
G1 X159.772 Y109.834 E5.21180
G1 X159.782 Y109.948 E5.21671
G1 X140.218 Y109.948 E6.05315
G1 X140.200 Y110.349 E6.07029
G1 X159.800 Y110.349 E6.90828
G1 X159.800 Y110.750 E6.92540
G1 X140.200 Y110.750 E7.76338
G1 X140.200 Y111.150 E7.78050
G1 X159.800 Y111.150 E8.61849
G1 X159.800 Y111.551 E8.63561
G1 X140.200 Y111.551 E9.47359
G1 X140.200 Y111.951 E9.49072
G1 X159.800 Y111.951 E10.32870
G1 X159.800 Y112.352 E10.34582
G1 X140.200 Y112.352 E11.18381
G1 X140.200 Y112.752 E11.20093
G1 X159.800 Y112.752 E12.03891
G1 X159.800 Y113.153 E12.05604
G1 X140.200 Y113.153 E12.89402
G1 X140.200 Y113.553 E12.91114
G1 X159.800 Y113.553 E13.74913
G1 X159.800 Y113.954 E13.76625
G1 X140.200 Y113.954 E14.60423
G1 X140.189 Y114.354 E14.62136
G1 X159.811 Y114.354 E15.46028
G1 X159.828 Y114.755 E15.47742
G1 X140.172 Y114.755 E16.31780
G1 X140.155 Y115.155 E16.33494
G1 X159.845 Y115.155 E17.17678
G1 X159.862 Y115.556 E17.19391
G1 X140.138 Y115.556 E18.03721
G1 X140.108 Y115.956 E18.05438
G1 X159.892 Y115.956 E18.90020
G1 X159.943 Y116.357 E18.91746
G1 X140.057 Y116.357 E19.76768
G1 X140.005 Y116.757 E19.78495
G1 X159.995 Y116.757 E20.63957
G1 X160.046 Y117.158 E20.65683
G1 X139.954 Y117.158 E21.51585
G1 X139.899 Y117.558 E21.53313
G1 X160.101 Y117.558 E22.39686
G1 X160.188 Y117.959 E22.41437
G1 X139.812 Y117.959 E23.28550
G1 X139.725 Y118.359 E23.30302
G1 X160.275 Y118.359 E24.18155
G1 X160.361 Y118.760 E24.19907
G1 X139.639 Y118.760 E25.08501
G1 X139.552 Y119.160 E25.10253
G1 X160.448 Y119.160 E25.99586
G1 X160.567 Y119.561 E26.01374
G1 X139.433 Y119.561 E26.91730
G1 X139.310 Y119.961 E26.93522
G1 X160.690 Y119.961 E27.84931
G1 X160.813 Y120.362 E27.86722
G1 X139.187 Y120.362 E28.79183
G1 X139.064 Y120.762 E28.80974
G1 X160.936 Y120.762 E29.74487
G1 X161.090 Y121.163 E29.76322
G1 X138.910 Y121.163 E30.71150
G1 X138.748 Y121.563 E30.72997
G1 X161.252 Y121.563 E31.69206
G1 X161.413 Y121.964 E31.71052
G1 X138.587 Y121.964 E32.68642
G1 X138.425 Y122.364 E32.70489
G1 X161.575 Y122.364 E33.69459
G1 X161.770 Y122.765 E33.71364
G1 X138.230 Y122.765 E34.72004
G1 X138.027 Y123.165 E34.73923
G1 X161.973 Y123.165 E35.76296
G1 X162.175 Y123.566 E35.78215
G1 X137.825 Y123.566 E36.82320
G1 X137.622 Y123.967 E36.84239
G1 X162.378 Y123.967 E37.90077
G1 X162.625 Y124.367 E37.92089
G1 X137.375 Y124.367 E39.00038
G1 X137.128 Y124.768 E39.02051
G1 X162.872 Y124.768 E40.12118
G1 X163.120 Y125.168 E40.14131
G1 X136.880 Y125.168 E41.26313
G1 X136.616 Y125.569 E41.28365
G1 X163.384 Y125.569 E42.42807
G1 X163.682 Y125.969 E42.44940
G1 X136.318 Y125.969 E43.61925
G1 X136.021 Y126.370 E43.64058
G1 X163.979 Y126.370 E44.83586
G1 X164.276 Y126.770 E44.85719
G1 X135.724 Y126.770 E46.07790
G1 X135.376 Y127.171 E46.10057
G1 X164.624 Y127.171 E47.35102
G1 X164.978 Y127.571 E47.37387
G1 X135.022 Y127.571 E48.65458
G1 X134.668 Y127.972 E48.67744
G1 X165.332 Y127.972 E49.98842
G1 X165.730 Y128.372 E50.01257
G1 X134.270 Y128.372 E51.35761
G1 X133.850 Y128.773 E51.38242
G1 X166.150 Y128.773 E52.76336
G1 X166.570 Y129.173 E52.78817
G1 X133.430 Y129.173 E54.20502
G1 X132.954 Y129.574 E54.23161
G1 X167.046 Y129.574 E55.68913
G1 X167.545 Y129.974 E55.71648
G1 X132.455 Y129.974 E57.21664
G1 X131.955 Y130.375 E57.24406
G1 X168.045 Y130.375 E58.78703
G1 X168.642 Y130.775 E58.81774
G1 X131.358 Y130.775 E60.41171
G1 X130.762 Y131.176 E60.44242
G1 X169.238 Y131.176 E62.08737
G1 X169.843 Y131.576 E62.11839
G1 X130.157 Y131.576 E63.81506
G1 X129.547 Y131.977 E63.84626
G1 X170.453 Y131.977 E65.59510
G1 X171.063 Y132.377 E65.62630
G1 X128.937 Y132.377 E67.42729
G1 X128.354 Y132.778 E67.45754
G1 X171.646 Y132.778 E69.30840
G1 X172.178 Y133.178 E69.33687
G1 X127.822 Y133.178 E71.23323
G1 X127.290 Y133.579 E71.26170
G1 X149.313 Y133.579 E72.20328
G1 X148.620 Y133.979 E72.23752
G1 X126.758 Y133.979 E73.17219
G1 X126.274 Y134.380 E73.19902
G1 X147.926 Y134.380 E74.12468
G1 X147.232 Y134.780 E74.15892
G1 X125.808 Y134.780 E75.07487
G1 X125.342 Y135.181 E75.10115
G1 X146.539 Y135.181 E76.00738
G1 X145.845 Y135.581 E76.04163
G1 X124.875 Y135.581 E76.93814
G1 X124.457 Y135.982 E76.96291
G1 X145.151 Y135.982 E77.84765
G1 X144.457 Y136.382 E77.88190
G1 X124.047 Y136.382 E78.75452
G1 X123.637 Y136.783 E78.77902
G1 X143.764 Y136.783 E79.63950
G1 X143.070 Y137.184 E79.67375
G1 X123.227 Y137.184 E80.52210
G1 X122.850 Y137.584 E80.54562
G1 X142.376 Y137.584 E81.38043
G1 X141.683 Y137.985 E81.41467
G1 X122.489 Y137.985 E82.23523
G1 X122.129 Y138.385 E82.25827
G1 X140.989 Y138.385 E83.06459
G1 X140.295 Y138.786 E83.09883
G1 X121.768 Y138.786 E83.89090
G1 X121.418 Y139.186 E83.91366
G1 X139.601 Y139.186 E84.69106
G1 X138.908 Y139.587 E84.72531
G1 X121.101 Y139.587 E85.48658
G1 X120.785 Y139.987 E85.50840
G1 X138.214 Y139.987 E86.25354
G1 X137.520 Y140.388 E86.28778
G1 X120.469 Y140.388 E87.01679
G1 X120.152 Y140.788 E87.03861
G1 X136.827 Y140.788 E87.75149
G1 X136.133 Y141.189 E87.78573
G1 X119.857 Y141.189 E88.48158
G1 X119.580 Y141.589 E88.50238
G1 X135.439 Y141.589 E89.18039
G1 X134.745 Y141.990 E89.21464
G1 X119.304 Y141.990 E89.87482
G1 X119.027 Y142.390 E89.89562
G1 X134.052 Y142.390 E90.53797
G1 X133.358 Y142.791 E90.57221
G1 X118.751 Y142.791 E91.19672
G1 X118.496 Y143.191 E91.21701
G1 X132.664 Y143.191 E91.82273
G1 X131.971 Y143.592 E91.85698
G1 X118.256 Y143.592 E92.44332
G1 X118.016 Y143.992 E92.46328
G1 X131.277 Y143.992 E93.03023
G1 X130.583 Y144.393 E93.06447
G1 X117.776 Y144.393 E93.61203
G1 X117.536 Y144.793 E93.63199
G1 X129.889 Y144.793 E94.16016
G1 X129.196 Y145.194 E94.19440
G1 X117.311 Y145.194 E94.70249
G1 X117.105 Y145.594 E94.72175
G1 X128.502 Y145.594 E95.20900
G1 X127.808 Y145.995 E95.24325
G1 X116.899 Y145.995 E95.70966
G1 X116.692 Y146.395 E95.72893
G1 X127.115 Y146.395 E96.17451
G1 X126.421 Y146.796 E96.20876
G1 X116.486 Y146.796 E96.63351
G1 X116.284 Y147.196 E96.65267
G1 X125.727 Y147.196 E97.05638
G1 X125.033 Y147.597 E97.09062
G1 X116.110 Y147.597 E97.47214
G1 X115.935 Y147.997 E97.49082
G1 X124.376 Y147.997 E97.85173
G1 X124.272 Y148.102 E97.85804
G1 X124.177 Y148.238 E97.86513
G1 X124.104 Y148.398 E97.87265
G1 X115.760 Y148.398 E98.22939
G1 X115.585 Y148.798 E98.24808
G1 X124.050 Y148.798 E98.60999
G1 X124.050 Y149.199 E98.62712
G1 X115.410 Y149.199 E98.99651
G1 X115.354 Y149.328 E99.00254
G1 X115.256 Y149.599 E99.01487
G1 X124.050 Y149.599 E99.39087
G1 X124.050 Y150.000 E99.40799
G1 X115.111 Y150.000 E99.79020
G1 X114.966 Y150.401 E99.80841
G1 X124.050 Y150.401 E100.19681
G1 X124.050 Y150.801 E100.21393
G1 X114.821 Y150.801 E100.60853
G1 X114.676 Y151.202 E100.62674
G1 X124.050 Y151.202 E101.02754
G1 X124.050 Y151.602 E101.04467
G1 X114.532 Y151.602 E101.45160
G1 X114.415 Y152.003 E101.46943
G1 X124.050 Y152.003 E101.88135
G1 X124.050 Y152.403 E101.89848
G1 X114.299 Y152.403 E102.31538
G1 X114.182 Y152.804 E102.33321
G1 X124.050 Y152.804 E102.75509
G1 X124.050 Y153.204 E102.77222
G1 X114.066 Y153.204 E103.19908
G1 X113.949 Y153.605 E103.21691
G1 X124.050 Y153.605 E103.64876
G1 X124.050 Y154.005 E103.66588
G1 X113.841 Y154.005 E104.10235
G1 X113.752 Y154.406 E104.11989
G1 X124.050 Y154.406 E104.56017
G1 X124.050 Y154.806 E104.57729
G1 X113.663 Y154.806 E105.02138
G1 X113.574 Y155.207 E105.03892
G1 X124.050 Y155.207 E105.48681
G1 X124.050 Y155.607 E105.50393
G1 X113.485 Y155.607 E105.95564
G1 X113.396 Y156.008 E105.97318
G1 X124.050 Y156.008 E106.42869
G1 X124.050 Y156.408 E106.44582
G1 X113.319 Y156.408 E106.90460
G1 X113.257 Y156.809 E106.92193
G1 X124.050 Y156.809 E107.38339
G1 X124.050 Y157.209 E107.40051
G1 X113.194 Y157.209 E107.86464
G1 X113.132 Y157.610 E107.88197
G1 X124.050 Y157.610 E108.34876
G1 X124.050 Y158.010 E108.36589
G1 X113.069 Y158.010 E108.83535
G1 X113.007 Y158.411 E108.85268
G1 X124.050 Y158.411 E109.32482
G1 X124.050 Y158.811 E109.34194
G1 X112.959 Y158.811 E109.81612
G1 X112.923 Y159.212 E109.83331
G1 X124.050 Y159.212 E110.30904
G1 X124.050 Y159.612 E110.32617
G1 X112.887 Y159.612 E110.80345
G1 X112.850 Y160.013 E110.82064
G1 X124.050 Y160.013 E111.29948
G1 X124.050 Y160.413 E111.31660
G1 X112.814 Y160.413 E111.79699
G1 X112.778 Y160.814 E111.81419
G1 X124.050 Y160.814 E112.29613
G1 X124.050 Y161.214 E112.31325
G1 X112.757 Y161.214 E112.79608
G1 X112.746 Y161.615 E112.81321
G1 X124.050 Y161.615 E113.29649
G1 X124.050 Y162.015 E113.31361
G1 X112.736 Y162.015 E113.79734
G1 X112.725 Y162.416 E113.81447
G1 X124.050 Y162.416 E114.29864
G1 X124.050 Y162.816 E114.31576
G1 X112.715 Y162.816 E114.80039
G1 X112.704 Y163.217 E114.81752
G1 X124.050 Y163.217 E115.30259
G1 X124.050 Y163.617 E115.31971
G1 X112.710 Y163.617 E115.80454
G1 X112.725 Y164.018 E115.82168
G1 X124.050 Y164.018 E116.30586
G1 X124.050 Y164.419 E116.32299
G1 X112.740 Y164.419 E116.80652
G1 X112.756 Y164.819 E116.82365
G1 X124.050 Y164.819 E117.30653
G1 X124.050 Y165.220 E117.32365
G1 X112.771 Y165.220 E117.80588
G1 X112.786 Y165.620 E117.82301
G1 X124.050 Y165.620 E118.30459
G1 X124.050 Y166.021 E118.32171
G1 X112.818 Y166.021 E118.80192
G1 X112.859 Y166.421 E118.81913
G1 X124.050 Y166.421 E119.29758
G1 X124.050 Y166.822 E119.31471
G1 X112.900 Y166.822 E119.79140
G1 X112.941 Y167.222 E119.80861
G1 X124.050 Y167.222 E120.28355
G1 X124.050 Y167.623 E120.30067
G1 X112.983 Y167.623 E120.77385
G1 X113.024 Y168.023 E120.79106
G1 X124.050 Y168.023 E121.26248
G1 X124.050 Y168.424 E121.27960
G1 X113.083 Y168.424 E121.74849
G1 X113.150 Y168.824 E121.76585
G1 X124.050 Y168.824 E122.23186
G1 X124.050 Y169.225 E122.24898
G1 X113.218 Y169.225 E122.71211
G1 X113.285 Y169.625 E122.72947
G1 X124.050 Y169.625 E123.18972
G1 X124.050 Y170.026 E123.20684
G1 X113.352 Y170.026 E123.66421
G1 X113.420 Y170.426 E123.68157
G1 X124.050 Y170.426 E124.13606
G1 X124.050 Y170.827 E124.15319
G1 X113.508 Y170.827 E124.60389
G1 X113.602 Y171.227 E124.62148
G1 X124.050 Y171.227 E125.06816
G1 X124.050 Y171.628 E125.08528
G1 X113.697 Y171.628 E125.52793
G1 X113.791 Y172.028 E125.54552
G1 X124.050 Y172.028 E125.98415
G1 X124.050 Y172.429 E126.00128
G1 X113.885 Y172.429 E126.43589
G1 X113.979 Y172.829 E126.45347
G1 X124.050 Y172.829 E126.88406
G1 X124.050 Y173.230 E126.90118
G1 X114.100 Y173.230 E127.32660
G1 X114.222 Y173.630 E127.34449
G1 X124.050 Y173.630 E127.76470
G1 X124.050 Y174.031 E127.78182
G1 X114.343 Y174.031 E128.19683
G1 X114.465 Y174.431 E128.21473
G1 X124.050 Y174.431 E128.62453
G1 X124.050 Y174.832 E128.64165
G1 X114.587 Y174.832 E129.04625
G1 X114.716 Y175.232 E129.06424
G1 X124.050 Y175.232 E129.46333
G1 X124.050 Y175.633 E129.48045
G1 X114.866 Y175.633 E129.87311
G1 X115.016 Y176.033 E129.89140
G1 X124.050 Y176.033 E130.27763
G1 X124.050 Y176.434 E130.29475
G1 X115.167 Y176.434 E130.67455
G1 X115.317 Y176.834 E130.69284
G1 X124.050 Y176.834 E131.06621
G1 X124.050 Y177.235 E131.08333
G1 X115.468 Y177.235 E131.45026
G1 X115.638 Y177.636 E131.46887
G1 X124.054 Y177.636 E131.82871
G1 X124.116 Y177.940 E131.84200
G1 X124.168 Y178.036 E131.84665
G1 X115.818 Y178.036 E132.20363
G1 X115.999 Y178.437 E132.22241
G1 X124.583 Y178.437 E132.58943
G1 X125.274 Y178.837 E132.62356
G1 X116.179 Y178.837 E133.01240
G1 X116.360 Y179.238 E133.03118
G1 X125.965 Y179.238 E133.44182
G1 X126.655 Y179.638 E133.47595
G1 X116.547 Y179.638 E133.90813
G1 X116.759 Y180.039 E133.92751
G1 X127.346 Y180.039 E134.38013
G1 X128.037 Y180.439 E134.41427
G1 X116.972 Y180.439 E134.88733
G1 X117.184 Y180.840 E134.90671
G1 X128.727 Y180.840 E135.40022
G1 X129.418 Y181.240 E135.43435
G1 X117.396 Y181.240 E135.94830
G1 X117.609 Y181.641 E135.96769
G1 X129.775 Y181.641 E136.48783
G1 X129.800 Y181.784 E136.49403
G1 X129.800 Y182.041 E136.50504
G1 X117.853 Y182.041 E137.01584
G1 X118.099 Y182.442 E137.03595
G1 X129.800 Y182.442 E137.53621
G1 X129.800 Y182.842 E137.55333
G1 X118.346 Y182.842 E138.04304
G1 X118.593 Y183.243 E138.06315
G1 X129.800 Y183.243 E138.54231
G1 X129.800 Y183.643 E138.55944
G1 X118.839 Y183.643 E139.02805
G1 X119.116 Y184.044 E139.04887
G1 X129.800 Y184.044 E139.50565
G1 X129.800 Y184.444 E139.52277
G1 X119.400 Y184.444 E139.96743
G1 X119.683 Y184.845 E139.98841
G1 X129.800 Y184.845 E140.42093
G1 X129.800 Y185.245 E140.43806
G1 X119.967 Y185.245 E140.85845
G1 X120.251 Y185.646 E140.87944
G1 X129.800 Y185.646 E141.28771
G1 X129.800 Y186.046 E141.30483
G1 X120.572 Y186.046 E141.69935
G1 X120.897 Y186.447 E141.72138
G1 X129.800 Y186.447 E142.10204
G1 X129.800 Y186.847 E142.11916
G1 X121.221 Y186.847 E142.48596
G1 X121.545 Y187.248 E142.50799
G1 X129.800 Y187.248 E142.86093
G1 X129.800 Y187.648 E142.87806
G1 X121.882 Y187.648 E143.21658
G1 X122.251 Y188.049 E143.23987
G1 X129.800 Y188.049 E143.56261
G1 X129.800 Y188.449 E143.57974
G1 X122.620 Y188.449 E143.88670
G1 X122.990 Y188.850 E143.90998
G1 X129.800 Y188.850 E144.20116
G1 X129.768 Y189.250 E144.21834
G1 X123.359 Y189.250 E144.49233
G1 X123.773 Y189.651 E144.51697
G1 X129.678 Y189.651 E144.76944
G1 X129.650 Y189.765 E144.77447
G1 X129.525 Y190.051 E144.78783
G1 X124.193 Y190.051 E145.01579
G1 X124.613 Y190.452 E145.04060
G1 X129.294 Y190.452 E145.24074
G1 X129.216 Y190.572 E145.24684
G1 X128.960 Y190.853 E145.26308
G1 X125.033 Y190.853 E145.43101
G1 X125.130 Y190.945 E145.43674
G1 X125.553 Y191.253 E145.45912
G1 X128.441 Y191.253 E145.58261
G1 X128.143 Y191.417 E145.59716
G1 X127.709 Y191.570 E145.61681
G1 X127.257 Y191.649 E145.63645
G1 X126.797 Y191.654 E145.65613
G1 E143.65613 F2400.00000
G92 E0
G1 X173.192 Y191.654 F7800.000
G1 E2.00000 F2400.00000
G1 F2400.000
G1 X173.657 Y191.583 E2.02008
G1 X174.093 Y191.439 E2.03972
G1 X174.447 Y191.253 E2.05681
G1 X171.559 Y191.253 E2.18030
G1 X171.454 Y191.196 E2.18539
G1 X171.040 Y190.853 E2.20840
G1 X174.967 Y190.853 E2.37632
G1 X175.387 Y190.452 E2.40113
G1 X170.706 Y190.452 E2.60127
G1 X170.534 Y190.186 E2.61481
G1 X170.475 Y190.051 E2.62109
G1 X175.807 Y190.051 E2.84906
G1 X176.227 Y189.651 E2.87386
G1 X170.321 Y189.651 E3.12634
G1 X170.232 Y189.250 E3.14388
G1 X176.641 Y189.250 E3.41787
G1 X177.010 Y188.850 E3.44116
G1 X170.200 Y188.850 E3.73234
G1 X170.200 Y188.449 E3.74946
G1 X177.380 Y188.449 E4.05642
G1 X177.749 Y188.049 E4.07971
G1 X170.200 Y188.049 E4.40245
G1 X170.200 Y187.648 E4.41957
G1 X178.118 Y187.648 E4.75810
G1 X178.455 Y187.248 E4.78048
G1 X170.200 Y187.248 E5.13342
G1 X170.200 Y186.847 E5.15054
G1 X178.779 Y186.847 E5.51734
G1 X179.103 Y186.447 E5.53937
G1 X170.200 Y186.447 E5.92003
G1 X170.200 Y186.046 E5.93716
G1 X179.428 Y186.046 E6.33168
G1 X179.749 Y185.646 E6.35364
G1 X170.200 Y185.646 E6.76191
G1 X170.200 Y185.245 E6.77903
G1 X180.033 Y185.245 E7.19943
G1 X180.317 Y184.845 E7.22041
G1 X170.200 Y184.845 E7.65293
G1 X170.200 Y184.444 E7.67006
G1 X180.600 Y184.444 E8.11471
G1 X180.884 Y184.044 E8.13569
G1 X170.200 Y184.044 E8.59247
G1 X170.200 Y183.643 E8.60959
G1 X181.161 Y183.643 E9.07821
G1 X181.407 Y183.243 E9.09832
G1 X170.200 Y183.243 E9.57749
G1 X170.200 Y182.842 E9.59461
G1 X181.654 Y182.842 E10.08432
G1 X181.901 Y182.442 E10.10443
