; generated by Slic3r 1.3.1-dev (Build 8c69278) on 2021-12-10 at 13:24:50

; external perimeters extrusion width = 0.45mm (3.99mm^3/s)
; perimeters extrusion width = 0.45mm (3.99mm^3/s)
; infill extrusion width = 0.45mm (3.99mm^3/s)
; solid infill extrusion width = 0.45mm (4.99mm^3/s)
; top infill extrusion width = 0.45mm (3.00mm^3/s)
; support material extrusion width = 0.45mm (4.99mm^3/s)

M107
G92 E0
M104 S205 ; set temperature
G28 ; home all axes
G1 Z5 F5000 ; lift nozzle

; Filament gcode

M109 S205 ; set temperature and wait for it to be reached
G21 ; set units to millimeters
G90 ; use absolute coordinates
M82 ; use absolute distances for extrusion
G92 E0
G1 Z0.250 F7800.000
G1 E-2.00000 F2400.00000
G92 E0
G1 X112.701 Y163.360 F7800.000
G1 E2.00000 F2400.00000
G1 F2400.000
G1 X112.792 Y165.762 E2.10278
G1 X113.036 Y168.145 E2.20521
G1 X113.102 Y168.535 E2.22209
G1 X113.102 Y157.803 E2.68090
G1 X113.349 Y156.220 E2.74940
G1 X113.503 Y155.527 E2.77977
G1 X113.503 Y170.803 E3.43289
G1 X113.904 Y172.510 E3.50785
G1 X113.904 Y153.761 E4.30944
G1 X114.305 Y152.382 E4.37081
G1 X114.305 Y173.905 E5.29095
G1 X114.706 Y175.207 E5.34921
G1 X114.706 Y151.117 E6.37911
G1 X115.107 Y150.010 E6.42948
G1 X115.107 Y176.275 E7.55240
G1 X115.508 Y177.343 E7.60117
G1 X115.508 Y148.975 E8.81399
G1 X115.909 Y148.056 E8.85684
G1 X115.909 Y178.238 E10.14721
G1 X116.310 Y179.128 E10.18894
G1 X116.310 Y147.137 E11.55662
G1 X116.711 Y146.358 E11.59407
G1 X116.711 Y179.949 E13.03015
G1 X117.112 Y180.705 E13.06674
G1 X117.112 Y145.580 E14.56842
G1 X117.513 Y144.830 E14.60478
G1 X117.513 Y181.461 E16.17084
G1 X117.915 Y182.142 E16.20463
G1 X117.915 Y144.161 E17.82840
G1 X118.316 Y143.492 E17.86175
G1 X118.316 Y182.793 E19.54196
G1 X118.717 Y183.444 E19.57466
G1 X118.717 Y142.840 E21.31062
G1 X119.118 Y142.259 E21.34079
G1 X119.118 Y184.046 E23.12730
G1 X119.519 Y184.612 E23.15697
G1 X119.519 Y141.678 E24.99253
G1 X119.920 Y141.097 E25.02270
G1 X119.920 Y185.179 E26.90730
G1 X120.321 Y185.736 E26.93664
G1 X120.321 Y140.575 E28.86741
G1 X120.722 Y140.067 E28.89507
G1 X120.722 Y186.231 E30.86873
G1 X121.123 Y186.727 E30.89598
G1 X121.123 Y139.559 E32.91253
G1 X121.524 Y139.057 E32.94000
G1 X121.524 Y187.222 E34.99920
G1 X121.925 Y187.695 E35.02571
G1 X121.925 Y138.611 E37.12418
G1 X122.326 Y138.166 E37.14981
G1 X122.326 Y188.130 E39.28594
G1 X122.727 Y188.565 E39.31124
G1 X122.727 Y137.720 E41.48502
G1 X123.128 Y137.280 E41.51049
G1 X123.128 Y189.001 E43.72171
G1 X123.530 Y189.419 E43.74648
G1 X123.530 Y136.888 E45.99232
G1 X123.931 Y136.496 E46.01629
G1 X123.931 Y189.801 E48.29525
G1 X124.332 Y190.184 E48.31894
G1 X124.332 Y178.251 E48.82911
G1 X124.177 Y178.056 E48.83977
G1 X124.116 Y177.940 E48.84534
G1 X124.064 Y177.745 E48.85396
G1 X124.050 Y177.589 E48.86067
G1 X124.050 Y148.704 E50.09558
G1 X124.064 Y148.548 E50.10229
G1 X124.107 Y148.388 E50.10937
G1 X124.177 Y148.238 E50.11646
G1 X124.332 Y148.042 E50.12711
G1 X124.332 Y136.104 E50.63750
G1 X124.733 Y135.712 E50.66147
G1 X124.733 Y147.771 E51.17700
G1 X125.134 Y147.539 E51.19680
G1 X125.134 Y135.359 E51.71751
G1 X125.535 Y135.015 E51.74011
G1 X125.535 Y147.307 E52.26564
G1 X125.936 Y147.076 E52.28544
G1 X125.936 Y134.671 E52.81580
G1 X126.337 Y134.326 E52.83840
G1 X126.337 Y146.844 E53.37358
G1 X126.738 Y146.613 E53.39338
G1 X126.738 Y133.994 E53.93286
G1 X127.139 Y133.692 E53.95433
G1 X127.139 Y146.381 E54.49681
G1 X127.540 Y146.150 E54.51661
G1 X127.540 Y133.390 E55.06211
G1 X127.941 Y133.088 E55.08357
G1 X127.941 Y145.918 E55.63207
G1 X128.342 Y145.687 E55.65187
G1 X128.342 Y132.787 E56.20338
G1 X128.743 Y132.505 E56.22434
G1 X128.743 Y145.455 E56.77801
G1 X129.144 Y145.223 E56.79781
G1 X129.144 Y132.241 E57.35284
G1 X129.546 Y131.978 E57.37335
G1 X129.546 Y144.992 E57.92973
G1 X129.947 Y144.760 E57.94953
G1 X129.947 Y131.714 E58.50728
G1 X130.348 Y131.451 E58.52779
G1 X130.348 Y144.529 E59.08689
G1 X130.749 Y144.297 E59.10669
G1 X130.749 Y131.185 E59.66728
G1 X131.150 Y130.915 E59.68794
G1 X131.150 Y144.066 E60.25015
G1 X131.551 Y143.834 E60.26995
G1 X131.551 Y130.646 E60.83378
G1 X131.952 Y130.377 E60.85443
G1 X131.952 Y143.602 E61.41988
G1 X132.353 Y143.371 E61.43968
G1 X132.353 Y130.056 E62.00891
G1 X132.754 Y129.734 E62.03090
G1 X132.754 Y143.139 E62.60401
G1 X133.155 Y142.908 E62.62381
G1 X133.155 Y129.412 E63.20078
G1 X133.556 Y129.053 E63.22381
G1 X133.556 Y142.676 E63.80626
G1 X133.957 Y142.445 E63.82606
G1 X133.957 Y128.670 E64.41497
G1 X134.358 Y128.287 E64.43867
G1 X134.358 Y142.213 E65.03403
G1 X134.759 Y141.982 E65.05383
G1 X134.759 Y127.868 E65.65722
G1 X135.161 Y127.414 E65.68311
G1 X135.161 Y141.750 E66.29601
G1 X135.562 Y141.518 E66.31581
G1 X135.562 Y126.961 E66.93820
G1 X135.963 Y126.448 E66.96601
G1 X135.963 Y141.287 E67.60041
G1 X136.364 Y141.055 E67.62021
G1 X136.364 Y125.908 E68.26780
G1 X136.765 Y125.355 E68.29702
G1 X136.765 Y140.824 E68.95837
G1 X137.166 Y140.592 E68.97817
G1 X137.166 Y124.706 E69.65737
G1 X137.567 Y124.057 E69.68999
G1 X137.567 Y140.361 E70.38703
G1 X137.968 Y140.129 E70.40683
G1 X137.968 Y123.283 E71.12705
G1 X138.369 Y122.490 E71.16504
G1 X138.369 Y139.898 E71.90926
G1 X138.770 Y139.666 E71.92906
G1 X138.770 Y121.509 E72.70532
G1 X139.039 Y120.841 E72.73609
G1 X139.171 Y120.412 E72.75530
G1 X139.171 Y139.434 E73.56857
G1 X139.572 Y139.203 E73.58837
G1 X139.572 Y119.068 E74.44920
G1 X139.908 Y117.517 E74.51705
G1 X139.973 Y117.005 E74.53912
G1 X139.973 Y138.971 E75.47825
G1 X140.374 Y138.740 E75.49805
G1 X140.374 Y109.391 E76.75281
G1 X140.442 Y109.247 E76.75960
G1 X140.621 Y108.990 E76.77301
G1 X140.775 Y108.836 E76.78232
G1 X140.775 Y138.508 E78.05090
G1 X141.177 Y138.277 E78.07070
G1 X141.177 Y108.552 E79.34149
G1 X141.385 Y108.455 E79.35130
G1 X141.578 Y108.404 E79.35985
G1 X141.578 Y138.045 E80.62710
G1 X141.979 Y137.814 E80.64690
G1 X141.979 Y108.349 E81.90660
G1 X142.009 Y108.346 E81.90789
G1 X142.380 Y108.346 E81.92375
G1 X142.380 Y137.582 E83.17367
G1 X142.781 Y137.350 E83.19346
G1 X142.781 Y108.346 E84.43348
G1 X143.182 Y108.346 E84.45062
G1 X143.182 Y137.119 E85.68074
G1 X143.583 Y136.887 E85.70054
G1 X143.583 Y108.346 E86.92075
G1 X143.984 Y108.346 E86.93789
G1 X143.984 Y136.656 E88.14821
G1 X144.385 Y136.424 E88.16801
G1 X144.385 Y108.346 E89.36842
G1 X144.786 Y108.346 E89.38557
G1 X144.786 Y136.193 E90.57608
G1 X145.187 Y135.961 E90.59588
G1 X145.187 Y108.346 E91.77649
G1 X145.588 Y108.346 E91.79364
G1 X145.588 Y135.730 E92.96436
G1 X145.989 Y135.498 E92.98415
G1 X145.989 Y108.346 E94.14497
G1 X146.390 Y108.346 E94.16212
G1 X146.390 Y135.266 E95.31303
G1 X146.792 Y135.035 E95.33283
G1 X146.792 Y108.346 E96.47384
G1 X147.193 Y108.346 E96.49099
G1 X147.193 Y134.803 E97.62211
G1 X147.594 Y134.572 E97.64191
G1 X147.594 Y108.346 E98.76312
G1 X147.995 Y108.346 E98.78027
G1 X147.995 Y134.340 E99.89158
G1 X148.396 Y134.109 E99.91138
G1 X148.396 Y108.346 E101.01280
G1 X148.797 Y108.346 E101.02995
G1 X148.797 Y133.877 E102.12146
G1 X149.198 Y133.646 E102.14126
G1 X149.198 Y108.346 E103.22288
G1 X149.599 Y108.346 E103.24003
G1 X149.599 Y133.421 E104.31206
G1 X149.814 Y133.345 E104.32183
G1 X150.000 Y133.329 E104.32980
G1 X150.000 Y108.346 E105.39787
G1 X150.401 Y108.346 E105.41501
G1 X150.401 Y133.421 E106.48705
G1 X150.802 Y133.646 E106.50669
G1 X150.802 Y108.346 E107.58831
G1 X151.203 Y108.346 E107.60546
G1 X151.203 Y133.877 E108.69698
G1 X151.604 Y134.109 E108.71678
G1 X151.604 Y108.346 E109.81819
G1 X152.005 Y108.346 E109.83534
G1 X152.005 Y134.340 E110.94666
G1 X152.406 Y134.572 E110.96646
G1 X152.406 Y108.346 E112.08768
G1 X152.808 Y108.346 E112.10483
G1 X152.808 Y134.803 E113.23594
G1 X153.209 Y135.035 E113.25574
G1 X153.209 Y108.346 E114.39676
G1 X153.610 Y108.346 E114.41391
G1 X153.610 Y135.267 E115.56483
G1 X154.011 Y135.498 E115.58463
G1 X154.011 Y108.346 E116.74544
G1 X154.412 Y108.346 E116.76259
G1 X154.412 Y135.730 E117.93331
G1 X154.813 Y135.961 E117.95311
G1 X154.813 Y108.346 E119.13372
G1 X155.214 Y108.346 E119.15087
G1 X155.214 Y136.193 E120.34139
G1 X155.615 Y136.424 E120.36119
G1 X155.615 Y108.346 E121.56160
G1 X156.016 Y108.346 E121.57875
G1 X156.016 Y136.656 E122.78907
G1 X156.417 Y136.887 E122.80886
G1 X156.417 Y108.346 E124.02908
G1 X156.818 Y108.346 E124.04623
G1 X156.818 Y137.119 E125.27634
G1 X157.219 Y137.351 E125.29614
G1 X157.219 Y108.346 E126.53616
G1 X157.620 Y108.346 E126.55330
G1 X157.620 Y137.582 E127.80322
G1 X158.021 Y137.814 E127.82302
G1 X158.021 Y108.349 E129.08272
G1 X158.312 Y108.374 E129.09521
G1 X158.423 Y108.404 E129.10008
G1 X158.423 Y138.045 E130.36733
G1 X158.824 Y138.277 E130.38713
G1 X158.824 Y108.553 E131.65793
G1 X159.157 Y108.768 E131.67489
G1 X159.225 Y108.836 E131.67899
G1 X159.225 Y138.508 E132.94757
G1 X159.626 Y138.740 E132.96737
G1 X159.626 Y109.391 E134.22212
G1 X159.691 Y109.531 E134.22873
G1 X159.772 Y109.834 E134.24214
G1 X159.800 Y110.155 E134.25592
G1 X159.800 Y114.097 E134.42446
G1 X159.873 Y115.811 E134.49779
G1 X160.027 Y117.006 E134.54929
G1 X160.027 Y138.971 E135.48838
G1 X160.428 Y139.203 E135.50818
G1 X160.428 Y119.068 E136.36899
G1 X160.829 Y120.412 E136.42894
G1 X160.829 Y139.435 E137.24220
G1 X161.230 Y139.666 E137.26200
G1 X161.230 Y121.509 E138.03825
G1 X161.631 Y122.490 E138.08357
G1 X161.631 Y139.898 E138.82778
G1 X162.032 Y140.129 E138.84758
G1 X162.032 Y123.283 E139.56779
G1 X162.433 Y124.057 E139.60505
G1 X162.433 Y140.361 E140.30209
G1 X162.834 Y140.592 E140.32189
G1 X162.834 Y124.706 E141.00108
G1 X163.235 Y125.355 E141.03370
G1 X163.235 Y140.824 E141.69504
G1 X163.636 Y141.055 E141.71484
G1 X163.636 Y125.908 E142.36243
G1 X164.037 Y126.448 E142.39119
G1 X164.037 Y141.287 E143.02558
G1 X164.439 Y141.519 E143.04538
G1 X164.439 Y126.961 E143.66777
G1 X164.840 Y127.414 E143.69366
G1 X164.840 Y141.750 E144.30655
G1 X165.241 Y141.982 E144.32635
G1 X165.241 Y127.868 E144.92974
G1 X165.642 Y128.288 E144.95455
G1 X165.642 Y142.213 E145.54991
G1 X166.043 Y142.445 E145.56971
G1 X166.043 Y128.670 E146.15862
G1 X166.444 Y129.053 E146.18231
G1 X166.444 Y142.676 E146.76476
G1 X166.845 Y142.908 E146.78456
G1 X166.845 Y129.412 E147.36153
G1 X167.246 Y129.734 E147.38353
G1 X167.246 Y143.139 E147.95663
G1 X167.647 Y143.371 E147.97643
G1 X167.647 Y130.056 E148.54566
G1 X168.048 Y130.377 E148.56760
G1 X168.048 Y143.603 E149.13305
G1 X168.449 Y143.834 E149.15285
G1 X168.449 Y130.646 E149.71667
G1 X168.850 Y130.915 E149.73733
G1 X168.850 Y144.066 E150.29954
G1 X169.251 Y144.297 E150.31934
G1 X169.251 Y131.185 E150.87993
G1 X169.652 Y131.451 E150.90052
G1 X169.652 Y144.529 E151.45962
G1 X170.054 Y144.760 E151.47942
G1 X170.054 Y131.715 E152.03716
G1 X170.455 Y131.978 E152.05767
G1 X170.455 Y144.992 E152.61406
G1 X170.856 Y145.223 E152.63386
G1 X170.856 Y132.241 E153.18888
G1 X171.257 Y132.505 E153.20939
G1 X171.257 Y145.455 E153.76306
G1 X171.658 Y145.687 E153.78286
G1 X171.658 Y132.787 E154.33437
G1 X172.059 Y133.089 E154.35583
G1 X172.059 Y145.918 E154.90433
G1 X172.460 Y146.150 E154.92413
G1 X172.460 Y133.390 E155.46963
G1 X172.861 Y133.692 E155.49109
G1 X172.861 Y146.381 E156.03357
G1 X173.262 Y146.613 E156.05337
G1 X173.262 Y133.994 E156.59285
G1 X173.663 Y134.326 E156.61512
G1 X173.663 Y146.844 E157.15030
G1 X174.064 Y147.076 E157.17010
G1 X174.064 Y134.671 E157.70045
G1 X174.465 Y135.015 E157.72305
G1 X174.465 Y147.307 E158.24859
G1 X174.866 Y147.539 E158.26839
G1 X174.866 Y135.359 E158.78910
G1 X175.267 Y135.712 E158.81194
G1 X175.267 Y147.771 E159.32746
G1 X175.482 Y147.895 E159.33807
G1 X175.668 Y148.042 E159.34823
G1 X175.668 Y136.104 E159.85861
G1 X176.070 Y136.496 E159.88258
G1 X176.070 Y189.801 E162.16153
G1 X176.471 Y189.419 E162.18523
G1 X176.471 Y136.888 E164.43106
G1 X176.872 Y137.280 E164.45503
G1 X176.872 Y189.000 E166.66624
G1 X177.273 Y188.565 E166.69154
G1 X177.273 Y137.720 E168.86531
G1 X177.674 Y138.166 E168.89094
G1 X177.674 Y188.130 E171.02705
G1 X178.075 Y187.695 E171.05235
G1 X178.075 Y138.611 E173.15081
G1 X178.476 Y139.057 E173.17644
G1 X178.476 Y187.222 E175.23563
G1 X178.877 Y186.727 E175.26288
G1 X178.877 Y139.559 E177.27941
G1 X179.278 Y140.067 E177.30707
G1 X179.278 Y186.231 E179.28072
G1 X179.679 Y185.736 E179.30797
G1 X179.679 Y140.575 E181.23872
G1 X180.080 Y141.098 E181.26690
G1 X180.080 Y185.178 E183.15147
G1 X180.481 Y184.612 E183.18114
G1 X180.481 Y141.678 E185.01668
G1 X180.882 Y142.259 E185.04686
G1 X180.882 Y184.046 E186.83335
G1 X181.283 Y183.444 E186.86427
G1 X181.283 Y142.840 E188.60021
G1 X181.685 Y143.492 E188.63295
G1 X181.685 Y182.793 E190.31315
G1 X182.086 Y182.142 E190.34585
G1 X182.086 Y144.161 E191.96961
G1 X182.487 Y144.830 E192.00295
G1 X182.487 Y181.460 E193.56899
G1 X182.888 Y180.704 E193.60558
G1 X182.888 Y145.580 E195.10723
G1 X183.289 Y146.359 E195.14466
G1 X183.289 Y179.948 E196.58072
G1 X183.495 Y179.560 E196.59954
G1 X183.690 Y179.127 E196.61981
G1 X183.690 Y147.138 E197.98747
G1 X184.091 Y148.056 E198.03032
G1 X184.091 Y178.238 E199.32067
G1 X184.492 Y177.343 E199.36260
G1 X184.492 Y148.975 E200.57540
G1 X184.646 Y149.328 E200.59189
G1 X184.893 Y150.010 E200.62288
G1 X184.893 Y176.275 E201.74576
G1 X185.294 Y175.207 E201.79453
G1 X185.294 Y151.118 E202.82441
G1 X185.462 Y151.581 E202.84548
G1 X185.695 Y152.383 E202.88118
G1 X185.695 Y173.904 E203.80128
G1 X186.019 Y172.840 E203.84883
G1 X186.096 Y172.510 E203.86335
G1 X186.096 Y153.761 E204.66490
G1 X186.497 Y155.527 E204.74232
G1 X186.497 Y170.803 E205.39539
G1 X186.567 Y170.508 E205.40833
G1 X186.898 Y168.534 E205.49391
G1 X186.898 Y157.804 E205.95265
G1 X187.021 Y158.587 E205.98655
G1 X187.237 Y160.973 E206.08897
G1 X187.299 Y163.371 E206.19151
G1 E204.19151 F2400.00000
G92 E0
G1 X170.455 Y181.310 F7800.000
G1 E2.00000 F2400.00000
G1 F2400.000
G1 X170.331 Y181.414 E2.00691
G1 X170.236 Y181.579 E2.01504
G1 X170.200 Y181.784 E2.02392
G1 X170.200 Y188.853 E2.32616
G1 X170.238 Y189.319 E2.34616
G1 X170.350 Y189.765 E2.36581
G1 X170.455 Y190.005 E2.37698
G1 X170.455 Y181.310 E2.74868
G1 X170.856 Y181.070 E2.76869
G1 X170.856 Y190.651 E3.17831
G1 X171.093 Y190.911 E3.19339
G1 X171.257 Y191.040 E3.20228
G1 X171.257 Y180.838 E3.63844
G1 X171.658 Y180.607 E3.65824
G1 X171.658 Y191.307 E4.11574
G1 X171.857 Y191.417 E4.12546
G1 X172.059 Y191.488 E4.13460
G1 X172.059 Y180.375 E4.60972
G1 X172.460 Y180.143 E4.62952
G1 X172.460 Y191.599 E5.11930
G1 X172.743 Y191.649 E5.13159
G1 X172.861 Y191.650 E5.13663
G1 X172.861 Y179.912 E5.63848
G1 X173.262 Y179.680 E5.65828
G1 X173.262 Y191.644 E6.16978
G1 X173.657 Y191.583 E6.18685
G1 X173.663 Y179.449 E6.70562
G1 X174.064 Y179.217 E6.72542
G1 X174.064 Y191.448 E7.24834
G1 X174.093 Y191.439 E7.24964
G1 X174.465 Y191.243 E7.26761
G1 X174.465 Y178.986 E7.79167
G1 X174.866 Y178.754 E7.81147
G1 X174.866 Y190.948 E8.33280
G1 X175.267 Y190.566 E8.35647
G1 X175.267 Y178.522 E8.87138
G1 X175.482 Y178.398 E8.88199
G1 X175.668 Y178.251 E8.89215
G1 X175.668 Y190.184 E9.40231
G1 E7.40231 F2400.00000
G92 E0
G1 X129.546 Y190.004 F7800.000
G1 E2.00000 F2400.00000
G1 F2400.000
G1 X129.546 Y181.314 E2.37153
G1 X129.144 Y181.082 E2.39135
G1 X129.144 Y190.651 E2.80045
G1 X128.907 Y190.911 E2.81554
G1 X128.743 Y191.040 E2.82443
G1 X128.743 Y180.849 E3.26012
G1 X128.342 Y180.616 E3.27994
G1 X128.342 Y191.307 E3.73701
G1 X128.143 Y191.417 E3.74674
G1 X127.941 Y191.488 E3.75588
G1 X127.941 Y180.384 E4.23061
G1 X127.540 Y180.151 E4.25044
G1 X127.540 Y191.599 E4.73987
G1 X127.257 Y191.649 E4.75217
G1 X127.139 Y191.650 E4.75721
G1 X127.139 Y179.919 E5.25877
G1 X126.738 Y179.686 E5.27859
G1 X126.738 Y191.644 E5.78984
G1 X126.337 Y191.581 E5.80721
G1 X126.337 Y179.453 E6.32568
G1 X125.936 Y179.221 E6.34550
G1 X125.936 Y191.448 E6.86826
G1 X125.535 Y191.244 E6.88752
G1 X125.535 Y178.988 E7.41146
G1 X125.134 Y178.756 E7.43128
G1 X125.134 Y190.948 E7.95255
G1 X124.733 Y190.566 E7.97622
G1 X124.733 Y178.523 E8.49111
G1 X124.518 Y178.398 E8.50174
G1 X124.332 Y178.251 E8.51189
G1 Z0.250 F7800.000
G1 Z0.500 F7800.000
G1 X126.796 Y191.653 F7800.000
G1 F2400.000
G1 X127.257 Y191.649 E8.53159
G1 X127.709 Y191.570 E8.55124
