; Generated by RP3 on 2021-07-8
; Job 0 - 3D Cloner

G21 ; set units to millimeters
M107 ;fan off
G28 ;home all axes
G90 ;absolute coordinates
G28 E0 ;home all axes
G1 E20.0 F100.0 ;extrude 20mm material with 100 mm/min speed
G28 E0 ;home all axes
G90 ;use absolute coordinates
M82 ; use absolute distances for extrusion
G92 E0 ;home of axes
M104 S90
G1 E-2.00000 F24000 ;retracts 2mm of material
M106 S102

(Layer 1)
G1  Z0.250 F2400

(Raster 1)
G92 E0
G1  X0026.647 Y0056.452 F2400
G1  E2.00000 F2400
G1  X0026.647 Y0004.597 E4.371 F2400
G1  X0026.247 Y0004.589 E4.389
G1  X0026.247 Y0056.451 E6.760
G1  X0025.847 Y0056.451 E6.779
G1  X0025.847 Y0004.592 E9.150
G1  X0025.447 Y0004.597 E9.168
G1  X0025.447 Y0056.451 E11.539
G1  X0025.047 Y0056.450 E11.557
G1  X0025.047 Y0004.602 E13.927
G1  X0024.647 Y0004.608 E13.946
G1  X0024.647 Y0056.450 E16.316
G1  X0024.247 Y0056.450 E16.334
G1  X0024.247 Y0004.613 E18.704
G1  X0023.847 Y0004.618 E18.722
G1  X0023.847 Y0056.449 E21.092
G1  X0023.447 Y0056.449 E21.110
G1  X0023.447 Y0004.623 E23.480
G1  X0023.047 Y0004.629 E23.498
G1  X0023.047 Y0056.449 E25.867
G1  X0022.647 Y0056.448 E25.886
G1  X0022.647 Y0004.634 E28.255
G1  X0022.347 Y0004.638 E28.268
G1  X0022.346 Y0021.434 E29.036
G1  X0022.312 Y0021.786 E29.052
G1  X0022.247 Y0022.009 E29.063
G1  X0022.247 Y0026.928 E29.288
G1  X0021.847 Y0026.356 E29.320
G1  X0021.847 Y0022.664 E29.489
G1  X0021.447 Y0023.149 E29.517
G1  X0021.447 Y0025.784 E29.638
G1  X0021.424 Y0025.751 E29.640
G1  X0021.371 Y0025.705 E29.643
G1  X0021.047 Y0025.540 E29.660
G1  X0021.047 Y0023.384 E29.758
G1  X0020.956 Y0023.432 E29.763
G1  X0020.900 Y0023.448 E29.766
G1  X0020.647 Y0023.472 E29.777
G1  X0020.647 Y0025.429 E29.867
G1  X0020.299 Y0025.356 E29.883
G1  X0020.247 Y0025.353 E29.885
G1  X0020.247 Y0023.510 E29.970
G1  X0019.876 Y0023.546 E29.987
G1  X0019.847 Y0023.543 E29.988
G1  X0019.847 Y0025.332 E30.070
G1  X0019.447 Y0025.310 E30.088
G1  X0019.447 Y0023.429 E30.174
G1  X0019.048 Y0023.236 E30.194
G1  X0019.047 Y0023.236 E30.194
G1  X0019.047 Y0025.289 E30.288
G1  X0018.782 Y0025.274 E30.300
G1  X0018.647 Y0025.222 E30.307
G1  X0018.647 Y0022.908 E30.413
G1  X0018.247 Y0022.467 E30.440
G1  X0018.247 Y0024.994 E30.555
G1  X0017.975 Y0024.787 E30.571
G1  X0017.847 Y0024.631 E30.580
G1  X0017.847 Y0022.110 E30.696
G1  X0017.447 Y0021.764 E30.720
G1  X0017.447 Y0024.143 E30.828
G1  X0017.047 Y0023.698 E30.856
G1  X0017.047 Y0021.419 E30.960
G1  X0016.647 Y0021.074 E30.984
G1  X0016.647 Y0023.282 E31.085
G1  X0016.247 Y0022.960 E31.109
G1  X0016.247 Y0020.743 E31.210
G1  X0015.847 Y0020.497 E31.231
G1  X0015.847 Y0022.637 E31.329
G1  X0015.447 Y0022.315 E31.353
G1  X0015.447 Y0020.250 E31.447
G1  X0015.112 Y0020.044 E31.465
G1  X0015.047 Y0020.012 E31.469
G1  X0015.047 Y0021.993 E31.559
G1  X0014.971 Y0021.931 E31.564
G1  X0014.647 Y0021.749 E31.581
G1  X0014.647 Y0019.819 E31.669
G1  X0014.368 Y0019.684 E31.683
G1  X0014.247 Y0019.635 E31.689
G1  X0014.247 Y0021.523 E31.775
G1  X0014.071 Y0021.423 E31.784
G1  X0013.847 Y0021.325 E31.796
G1  X0013.847 Y0019.470 E31.880
G1  X0013.594 Y0019.367 E31.893
G1  X0013.447 Y0019.319 E31.900
G1  X0013.447 Y0021.150 E31.984
G1  X0013.121 Y0021.008 E32.000
G1  X0013.047 Y0020.984 E32.004
G1  X0013.047 Y0019.191 E32.086
G1  X0012.799 Y0019.111 E32.097
G1  X0012.647 Y0019.073 E32.105
G1  X0012.647 Y0020.856 E32.186
G1  X0012.247 Y0020.728 E32.205
G1  X0012.247 Y0018.972 E32.286
G1  X0011.988 Y0018.907 E32.298
G1  X0011.847 Y0018.883 E32.304
G1  X0011.847 Y0020.626 E32.384
G1  X0011.447 Y0020.535 E32.403
G1  X0011.447 Y0018.815 E32.481
G1  X0011.174 Y0018.768 E32.494
G1  X0011.047 Y0018.758 E32.500
G1  X0011.047 Y0020.474 E32.578
G1  X0010.647 Y0020.418 E32.597
G1  X0010.647 Y0018.725 E32.674
G1  X0010.247 Y0018.691 E32.693
G1  X0010.247 Y0020.409 E32.771
G1  X0009.847 Y0020.407 E32.789
G1  X0009.847 Y0018.658 E32.869
G1  X0009.790 Y0018.654 E32.872
G1  X0009.447 Y0018.670 E32.888
G1  X0009.447 Y0020.406 E32.967
G1  X0009.047 Y0020.404 E32.985
G1  X0009.047 Y0018.690 E33.064
G1  X0008.647 Y0018.710 E33.082
G1  X0008.647 Y0020.403 E33.159
G1  X0008.543 Y0020.402 E33.164
G1  X0008.247 Y0020.457 E33.178
G1  X0008.247 Y0018.730 E33.257
G1  X0008.124 Y0018.736 E33.263
G1  X0007.847 Y0018.780 E33.275
G1  X0007.847 Y0020.531 E33.355
G1  X0007.447 Y0020.606 E33.374
G1  X0007.447 Y0018.844 E33.455
G1  X0007.293 Y0018.868 E33.462
G1  X0007.047 Y0018.923 E33.473
G1  X0007.047 Y0020.680 E33.554
G1  X0007.015 Y0020.686 E33.555
G1  X0006.647 Y0020.808 E33.573
G1  X0006.647 Y0019.013 E33.655
G1  X0006.475 Y0019.052 E33.663
G1  X0006.247 Y0019.126 E33.674
G1  X0006.247 Y0020.940 E33.757
G1  X0005.847 Y0021.072 E33.776
G1  X0005.847 Y0019.255 E33.859
G1  X0005.566 Y0019.346 E33.873
G1  X0005.447 Y0019.396 E33.879
G1  X0005.447 Y0021.221 E33.962
G1  X0005.047 Y0021.421 E33.982
G1  X0005.047 Y0019.567 E34.067
G1  X0004.647 Y0019.738 E34.087
G1  X0004.647 Y0021.620 E34.173
G1  X0004.422 Y0021.733 E34.185
G1  X0004.365 Y0021.783 E34.188
G1  X0004.340 Y0021.854 E34.192
G1  X0004.283 Y0022.517 E34.222
G1  X0004.247 Y0022.600 E34.226
G1  X0004.247 Y0019.908 E34.349
G1  X0004.144 Y0019.952 E34.354
G1  X0003.847 Y0020.116 E34.370
G1  X0003.847 Y0023.262 E34.514
G1  X0003.666 Y0023.471 E34.526
G1  X0003.447 Y0023.598 E34.538
G1  X0003.447 Y0020.336 E34.687
G1  X0003.403 Y0020.360 E34.689
G1  X0003.345 Y0020.378 E34.692
G1  X0003.284 Y0020.372 E34.695
G1  X0003.047 Y0020.294 E34.706
G1  X0003.047 Y0023.803 E34.867
G1  X0002.829 Y0023.864 E34.877
G1  X0002.647 Y0023.859 E34.885
G1  X0002.647 Y0020.216 E35.052
G1  X0002.469 Y0020.200 E35.060
G1  X0002.247 Y0020.264 E35.071
G1  X0002.247 Y0023.848 E35.235
G1  X0002.084 Y0023.843 E35.242
G1  X0001.847 Y0023.763 E35.253
G1  X0001.847 Y0020.379 E35.408
G1  X0001.558 Y0020.462 E35.422
G1  X0001.447 Y0020.545 E35.428
G1  X0001.447 Y0023.553 E35.566
G1  X0001.349 Y0023.492 E35.571
G1  X0001.052 Y0023.196 E35.590
G1  X0001.047 Y0023.187 E35.591
G1  X0001.047 Y0020.934 E35.694
G1  E33.694 F2400

(Raster 2)
G92 E0
G1  X0022.247 Y0027.558 F2400
G1  E2.00000 F2400
G1  X0022.247 Y0033.453 E2.270 F2400
G1  X0022.235 Y0033.410 E2.272
G1  X0022.029 Y0033.039 E2.291
G1  X0021.981 Y0032.987 E2.294
G1  X0021.847 Y0032.899 E2.302
G1  X0021.847 Y0028.090 E2.521
G1  X0021.504 Y0028.362 E2.541
G1  X0021.447 Y0028.386 E2.544
G1  X0021.447 Y0032.638 E2.739
G1  X0021.233 Y0032.498 E2.750
G1  X0021.047 Y0032.441 E2.759
G1  X0021.047 Y0028.552 E2.937
G1  X0020.952 Y0028.591 E2.942
G1  X0020.647 Y0028.629 E2.956
G1  X0020.647 Y0032.371 E3.127
G1  X0020.438 Y0032.350 E3.136
G1  X0020.247 Y0032.350 E3.145
G1  X0020.247 Y0028.648 E3.314
G1  X0019.847 Y0028.649 E3.333
G1  X0019.847 Y0032.350 E3.502
G1  X0019.447 Y0032.350 E3.520
G1  X0019.447 Y0028.649 E3.689
G1  X0019.047 Y0028.649 E3.708
G1  X0019.047 Y0032.350 E3.877
G1  X0018.647 Y0032.349 E3.895
G1  X0018.647 Y0028.649 E4.064
G1  X0018.247 Y0028.649 E4.083
G1  X0018.247 Y0032.349 E4.252
G1  X0017.847 Y0032.349 E4.270
G1  X0017.847 Y0028.650 E4.439
G1  X0017.447 Y0028.650 E4.458
G1  X0017.447 Y0032.349 E4.627
G1  X0017.206 Y0032.349 E4.638
G1  X0017.047 Y0032.310 E4.645
G1  X0017.047 Y0028.704 E4.810
G1  X0016.751 Y0028.784 E4.824
G1  X0016.647 Y0028.873 E4.830
G1  X0016.647 Y0032.112 E4.978
G1  E2.978 F2400

(Raster 3)
G92 E0
G1  X0022.247 Y0034.065 F2400
G1  E2.00000 F2400
G1  X0022.247 Y0038.976 E2.225 F2400
G1  X0022.238 Y0038.921 E2.227
G1  X0022.047 Y0038.490 E2.249
G1  X0021.847 Y0038.230 E2.264
G1  X0021.847 Y0034.829 E2.419
G1  X0021.637 Y0035.082 E2.434
G1  X0021.447 Y0035.220 E2.445
G1  X0021.447 Y0037.879 E2.567
G1  X0021.139 Y0037.662 E2.584
G1  X0021.047 Y0037.634 E2.588
G1  X0021.047 Y0035.458 E2.688
G1  X0020.789 Y0035.563 E2.700
G1  X0020.647 Y0035.587 E2.707
G1  X0020.647 Y0037.510 E2.795
G1  X0020.427 Y0037.442 E2.805
G1  X0020.247 Y0037.439 E2.814
G1  X0020.247 Y0035.643 E2.896
G1  X0019.847 Y0035.648 E2.914
G1  X0019.847 Y0037.467 E2.997
G1  X0019.679 Y0037.494 E3.005
G1  X0019.447 Y0037.590 E3.016
G1  X0019.447 Y0035.653 E3.105
G1  X0019.190 Y0035.656 E3.117
G1  X0019.047 Y0035.679 E3.123
G1  X0019.047 Y0037.790 E3.220
G1  X0018.647 Y0038.092 E3.243
G1  X0018.647 Y0035.779 E3.349
G1  X0018.445 Y0035.856 E3.359
G1  X0018.247 Y0036.006 E3.370
G1  X0018.247 Y0038.515 E3.485
G1  X0017.847 Y0038.941 E3.511
G1  X0017.847 Y0036.363 E3.629
G1  X0017.447 Y0036.831 E3.657
G1  X0017.447 Y0039.310 E3.771
G1  X0017.167 Y0039.562 E3.788
G1  X0017.047 Y0039.653 E3.795
G1  X0017.047 Y0037.299 E3.903
G1  X0016.790 Y0037.599 E3.921
G1  X0016.647 Y0037.715 E3.929
G1  X0016.647 Y0039.959 E4.032
G1  X0016.286 Y0040.235 E4.052
G1  X0016.247 Y0040.260 E4.054
G1  X0016.247 Y0038.039 E4.156
G1  X0015.847 Y0038.363 E4.180
G1  X0015.847 Y0040.510 E4.278
G1  X0015.447 Y0040.760 E4.299
G1  X0015.447 Y0038.687 E4.394
G1  X0015.047 Y0039.010 E4.418
G1  X0015.047 Y0040.974 E4.507
G1  X0014.647 Y0041.175 E4.528
G1  X0014.647 Y0039.238 E4.616
G1  X0014.247 Y0039.452 E4.637
G1  X0014.247 Y0041.363 E4.725
G1  X0013.847 Y0041.515 E4.744
G1  X0013.847 Y0039.667 E4.829
G1  X0013.634 Y0039.781 E4.840
G1  X0013.447 Y0039.856 E4.849
G1  X0013.447 Y0041.666 E4.932
G1  X0013.056 Y0041.814 E4.951
G1  X0013.047 Y0041.817 E4.951
G1  X0013.047 Y0040.017 E5.033
G1  X0012.903 Y0040.075 E5.041
G1  X0012.647 Y0040.146 E5.053
G1  X0012.647 Y0041.911 E5.133
G1  X0012.247 Y0042.005 E5.152
G1  X0012.247 Y0040.258 E5.232
G1  X0011.847 Y0040.370 E5.251
G1  X0011.847 Y0042.099 E5.330
G1  X0011.447 Y0042.193 E5.349
G1  X0011.447 Y0040.447 E5.429
G1  X0011.047 Y0040.516 E5.447
G1  X0011.047 Y0042.241 E5.526
G1  X0010.647 Y0042.286 E5.545
G1  X0010.647 Y0040.585 E5.622
G1  X0010.640 Y0040.586 E5.623
G1  X0010.247 Y0040.609 E5.641
G1  X0010.247 Y0042.324 E5.719
G1  X0009.847 Y0042.326 E5.737
G1  X0009.847 Y0040.633 E5.815
G1  X0009.603 Y0040.647 E5.826
G1  X0009.447 Y0040.635 E5.833
G1  X0009.447 Y0042.329 E5.911
G1  X0009.047 Y0042.331 E5.929
G1  X0009.047 Y0040.603 E6.008
G1  X0008.647 Y0040.572 E6.026
G1  X0008.647 Y0042.303 E6.105
G1  X0008.247 Y0042.263 E6.124
G1  X0008.247 Y0040.541 E6.202
G1  X0008.078 Y0040.527 E6.210
G1  X0007.847 Y0040.478 E6.221
G1  X0007.847 Y0042.223 E6.301
G1  X0007.816 Y0042.220 E6.302
G1  X0007.447 Y0042.148 E6.319
G1  X0007.447 Y0040.391 E6.400
G1  X0007.047 Y0040.305 E6.418
G1  X0007.047 Y0042.070 E6.499
G1  X0006.724 Y0042.007 E6.514
G1  X0006.647 Y0041.984 E6.518
G1  X0006.647 Y0040.219 E6.599
G1  X0006.559 Y0040.200 E6.603
G1  X0006.247 Y0040.078 E6.618
G1  X0006.247 Y0041.867 E6.700
G1  X0005.847 Y0041.749 E6.719
G1  X0005.847 Y0039.922 E6.802
G1  X0005.447 Y0039.766 E6.822
G1  X0005.447 Y0041.606 E6.906
G1  X0005.047 Y0041.441 E6.926
G1  X0005.047 Y0039.587 E7.011
G1  X0004.647 Y0039.382 E7.031
G1  X0004.647 Y0041.276 E7.118
G1  X0004.502 Y0041.217 E7.125
G1  X0004.247 Y0041.084 E7.138
G1  X0004.247 Y0038.375 E7.262
G1  X0004.085 Y0038.013 E7.280
G1  X0003.847 Y0037.734 E7.297
G1  X0003.847 Y0040.875 E7.440
G1  X0003.447 Y0040.666 E7.461
G1  X0003.447 Y0037.403 E7.610
G1  X0003.133 Y0037.220 E7.627
G1  X0003.047 Y0037.196 E7.631
G1  X0003.047 Y0040.683 E7.790
G1  X0002.647 Y0040.776 E7.809
G1  X0002.647 Y0037.134 E7.976
G1  X0002.247 Y0037.128 E7.994
G1  X0002.247 Y0040.744 E8.159
G1  X0001.875 Y0040.683 E8.176
G1  X0001.847 Y0040.668 E8.178
G1  X0001.847 Y0037.241 E8.335
G1  X0001.711 Y0037.284 E8.341
G1  X0001.447 Y0037.469 E8.356
G1  X0001.447 Y0040.457 E8.492
G1  X0001.387 Y0040.425 E8.496
G1  X0001.047 Y0040.017 E8.520
G1  X0001.047 Y0037.833 E8.620
G1  E6.620 F2400

(Layer 2)
G1  Z0.500 F2400

(Raster 1)
G92 E0
G1  X0022.347 Y0004.153 F2400
G1  E2.00000 F2400
G1  X0027.047 Y0004.153 E2.215 F2400
G1  X0027.047 Y0004.553 E2.233
G1  X0022.347 Y0004.553 E2.448
G1  X0022.347 Y0004.953 E2.466
G1  X0027.047 Y0004.953 E2.681
G1  X0027.047 Y0005.353 E2.700
G1  X0022.347 Y0005.353 E2.914
G1  X0022.347 Y0005.753 E2.933
G1  X0027.047 Y0005.753 E3.148
G1  X0027.047 Y0006.153 E3.166
G1  X0022.347 Y0006.153 E3.381
G1  X0022.347 Y0006.553 E3.399
G1  X0027.047 Y0006.553 E3.614
G1  X0027.047 Y0006.953 E3.632
G1  X0022.347 Y0006.953 E3.847
G1  X0022.347 Y0007.353 E3.865
G1  X0027.047 Y0007.353 E4.080
G1  X0027.047 Y0007.753 E4.099
G1  X0022.347 Y0007.753 E4.313
G1  X0022.347 Y0008.153 E4.332
G1  X0027.047 Y0008.153 E4.547
G1  X0027.047 Y0008.553 E4.565
G1  X0022.347 Y0008.553 E4.780
G1  X0022.347 Y0008.953 E4.798
G1  X0027.047 Y0008.953 E5.013
G1  X0027.047 Y0009.353 E5.031
G1  X0022.347 Y0009.353 E5.246
G1  X0022.347 Y0009.753 E5.264
G1  X0027.047 Y0009.753 E5.479
G1  X0027.047 Y0010.153 E5.498
G1  X0022.347 Y0010.153 E5.712
G1  X0022.347 Y0010.553 E5.731
G1  X0027.047 Y0010.553 E5.946
G1  X0027.047 Y0010.953 E5.964
G1  X0022.347 Y0010.953 E6.179
G1  X0022.347 Y0011.353 E6.197
G1  X0027.047 Y0011.353 E6.412
G1  X0027.047 Y0011.753 E6.430
G1  X0022.347 Y0011.753 E6.645
G1  X0022.347 Y0012.153 E6.663
G1  X0027.047 Y0012.153 E6.878
G1  X0027.047 Y0012.553 E6.897
G1  X0022.347 Y0012.553 E7.112
G1  X0022.347 Y0012.953 E7.130
G1  X0027.047 Y0012.953 E7.345
G1  X0027.047 Y0013.353 E7.363
G1  X0022.347 Y0013.353 E7.578
G1  X0022.347 Y0013.753 E7.596
G1  X0027.047 Y0013.753 E7.811
G1  X0027.047 Y0014.153 E7.829
G1  X0022.347 Y0014.153 E8.044
G1  X0022.347 Y0014.553 E8.062
G1  X0027.047 Y0014.553 E8.277
G1  X0027.047 Y0014.953 E8.296
G1  X0022.347 Y0014.953 E8.511
G1  X0022.347 Y0015.353 E8.529
G1  X0027.047 Y0015.353 E8.744
G1  X0027.047 Y0015.753 E8.762
G1  X0022.347 Y0015.753 E8.977
G1  X0022.347 Y0016.153 E8.995
G1  X0027.047 Y0016.153 E9.210
G1  X0027.047 Y0016.553 E9.228
G1  X0022.347 Y0016.553 E9.443
G1  X0022.347 Y0016.953 E9.462
G1  X0027.047 Y0016.953 E9.676
G1  X0027.047 Y0017.353 E9.695
G1  X0022.347 Y0017.353 E9.910
G1  X0022.347 Y0017.753 E9.928
G1  X0027.047 Y0017.753 E10.143
G1  X0027.047 Y0018.153 E10.161
G1  X0022.347 Y0018.153 E10.376
G1  X0022.347 Y0018.553 E10.394
G1  X0027.047 Y0018.553 E10.609
G1  X0027.047 Y0018.953 E10.627
G1  X0022.347 Y0018.953 E10.842
G1  X0022.347 Y0019.353 E10.861
G1  X0027.047 Y0019.353 E11.075
G1  X0027.047 Y0019.753 E11.094
G1  X0022.347 Y0019.753 E11.309
G1  X0022.347 Y0020.153 E11.327
G1  X0027.047 Y0020.153 E11.542
G1  X0027.047 Y0020.553 E11.560
G1  X0022.347 Y0020.553 E11.775
G1  X0022.347 Y0020.953 E11.793
G1  X0027.047 Y0020.953 E12.008
G1  X0027.047 Y0021.353 E12.026
G1  X0022.347 Y0021.353 E12.241
G1  X0022.347 Y0021.425 E12.245
G1  X0022.315 Y0021.753 E12.260
G1  X0027.047 Y0021.753 E12.476
G1  X0027.047 Y0022.153 E12.494
G1  X0022.202 Y0022.153 E12.716
G1  X0022.167 Y0022.272 E12.721
G1  X0022.138 Y0022.325 E12.724
G1  X0021.948 Y0022.553 E12.738
G1  X0027.047 Y0022.553 E12.971
G1  X0027.047 Y0022.953 E12.989
G1  X0021.614 Y0022.953 E13.238
G1  X0021.436 Y0023.167 E13.250
G1  X0021.390 Y0023.204 E13.253
G1  X0021.106 Y0023.353 E13.268
G1  X0027.047 Y0023.353 E13.539
G1  X0027.047 Y0023.753 E13.558
G1  X0017.096 Y0023.753 E14.013
G1  X0017.439 Y0024.133 E14.036
G1  X0017.455 Y0024.153 E14.037
G1  X0027.047 Y0024.153 E14.476
G1  X0027.047 Y0024.553 E14.494
G1  X0017.782 Y0024.553 E14.918
G1  X0017.971 Y0024.783 E14.931
G1  X0018.193 Y0024.953 E14.944
G1  X0027.047 Y0024.953 E15.349
G1  X0027.047 Y0025.353 E15.367
G1  X0020.218 Y0025.353 E15.679
G1  X0020.273 Y0025.356 E15.682
G1  X0020.952 Y0025.492 E15.713
G1  X0021.356 Y0025.698 E15.734
G1  X0021.408 Y0025.743 E15.737
G1  X0021.415 Y0025.753 E15.738
G1  X0027.047 Y0025.753 E15.995
G1  X0027.047 Y0026.153 E16.014
G1  X0021.699 Y0026.153 E16.258
G1  X0021.983 Y0026.553 E16.281
G1  X0027.047 Y0026.553 E16.512
G1  X0027.047 Y0026.953 E16.530
G1  X0022.267 Y0026.953 E16.749
G1  X0022.271 Y0026.958 E16.749
G1  X0022.259 Y0027.353 E16.767
G1  X0027.047 Y0027.353 E16.986
G1  X0027.047 Y0027.753 E17.004
G1  X0022.155 Y0027.753 E17.228
G1  X0022.071 Y0027.901 E17.236
G1  X0022.034 Y0027.944 E17.238
G1  X0021.771 Y0028.153 E17.254
G1  X0027.047 Y0028.153 E17.495
G1  X0027.047 Y0028.553 E17.513
G1  X0021.041 Y0028.553 E17.788
G1  X0020.948 Y0028.592 E17.793
