; generated by Slic3r 1.3.1-dev (Build 8c69278) on 2021-12-10 at 13:24:52

; external perimeters extrusion width = 0.45mm (3.99mm^3/s)
; perimeters extrusion width = 0.45mm (3.99mm^3/s)
; infill extrusion width = 0.45mm (3.99mm^3/s)
; solid infill extrusion width = 0.45mm (4.99mm^3/s)
; top infill extrusion width = 0.45mm (3.00mm^3/s)
; support material extrusion width = 0.45mm (4.99mm^3/s)

M107
G92 E0
M104 S205 ; set temperature
G28 ; home all axes
G1 Z5 F5000 ; lift nozzle

; Filament gcode

M109 S205 ; set temperature and wait for it to be reached
G21 ; set units to millimeters
G90 ; use absolute coordinates
M82 ; use absolute distances for extrusion
G92 E0
G1 Z0.250 F7800.000
G1 E-2.00000 F2400.00000
G92 E0
G1 X136.853 Y141.526 F7800.000
G1 E2.00000 F2400.00000
G1 F2400.000
G1 X136.903 Y141.127 E2.01719
G1 X137.123 Y140.610 E2.04120
G1 X137.257 Y140.440 E2.05046
G1 X137.257 Y142.679 E2.14617
G1 X137.532 Y142.953 E2.16274
G1 X137.662 Y143.034 E2.16931
G1 X137.662 Y140.057 E2.29661
G1 X137.723 Y140.011 E2.29987
G1 X138.066 Y139.912 E2.31517
G1 X138.066 Y143.233 E2.45719
G1 X138.256 Y143.298 E2.46577
G1 X138.471 Y143.303 E2.47494
G1 X138.471 Y139.795 E2.62492
G1 X138.625 Y139.751 E2.63177
G1 X138.875 Y139.773 E2.64253
G1 X138.875 Y143.312 E2.79383
G1 X138.979 Y143.314 E2.79825
G1 X139.280 Y143.225 E2.81169
G1 X139.280 Y139.873 E2.95498
G1 X139.503 Y139.946 E2.96501
G1 X139.685 Y139.846 E2.97387
G1 X139.685 Y142.991 E3.10833
G1 X139.796 Y142.926 E3.11383
G1 X140.089 Y142.582 E3.13317
G1 X140.089 Y139.623 E3.25967
G1 X140.318 Y139.497 E3.27083
G1 X140.494 Y139.422 E3.27901
G1 X140.494 Y141.217 E3.35577
G1 X140.898 Y141.015 E3.37510
G1 X140.898 Y139.248 E3.45063
G1 X141.303 Y139.075 E3.46945
G1 X141.303 Y140.813 E3.54376
G1 X141.707 Y140.613 E3.56306
G1 X141.713 Y138.899 E3.63632
G1 X142.112 Y138.770 E3.65423
G1 X142.112 Y140.479 E3.72728
G1 X142.516 Y140.347 E3.74548
G1 X142.516 Y138.640 E3.81845
G1 X142.921 Y138.536 E3.83630
G1 X142.921 Y140.214 E3.90803
G1 X143.179 Y140.130 E3.91963
G1 X143.326 Y140.103 E3.92600
G1 X143.326 Y138.445 E3.99687
G1 X143.730 Y138.372 E4.01444
G1 X143.730 Y140.029 E4.08526
G1 X144.135 Y139.954 E4.10284
G1 X144.135 Y138.307 E4.17329
G1 X144.539 Y138.272 E4.19064
G1 X144.539 Y139.880 E4.25939
G1 X144.731 Y139.849 E4.26768
G1 X144.944 Y139.850 E4.27679
G1 X144.944 Y138.252 E4.34511
G1 X145.348 Y138.232 E4.36243
G1 X145.348 Y139.852 E4.43171
G1 X145.753 Y139.855 E4.44901
G1 X145.753 Y138.211 E4.51927
G1 X145.929 Y138.202 E4.52680
G1 X146.157 Y138.221 E4.53661
G1 X146.157 Y139.857 E4.60655
G1 X146.562 Y139.859 E4.62384
G1 X146.562 Y138.254 E4.69247
G1 X146.967 Y138.287 E4.70982
G1 X146.967 Y139.889 E4.77828
G1 X147.371 Y139.946 E4.79575
G1 X147.371 Y138.326 E4.86501
G1 X147.776 Y138.395 E4.88256
G1 X147.776 Y140.024 E4.95217
G1 X148.180 Y140.117 E4.96991
G1 X148.180 Y138.468 E5.04037
G1 X148.585 Y138.570 E5.05821
G1 X148.585 Y140.234 E5.12935
G1 X148.989 Y140.364 E5.14752
G1 X148.989 Y138.676 E5.21971
G1 X149.394 Y138.806 E5.23787
G1 X149.394 Y140.506 E5.31055
G1 X149.798 Y140.683 E5.32944
G1 X149.798 Y138.942 E5.40388
G1 X150.203 Y139.108 E5.42257
G1 X150.203 Y140.861 E5.49752
G1 X150.608 Y141.083 E5.51726
G1 X150.608 Y139.282 E5.59427
G1 X151.012 Y139.478 E5.61348
G1 X151.012 Y141.312 E5.69191
G1 X151.161 Y141.396 E5.69922
G1 X151.417 Y141.603 E5.71327
G1 X151.417 Y139.697 E5.79475
G1 X151.821 Y139.946 E5.81507
G1 X151.821 Y141.929 E5.89985
G1 X152.226 Y142.256 E5.92208
G1 X152.226 Y140.195 E6.01017
G1 X152.430 Y140.321 E6.02045
G1 X152.630 Y140.494 E6.03174
G1 X152.630 Y142.582 E6.12103
G1 X152.937 Y142.828 E6.13781
G1 X153.035 Y142.931 E6.14390
G1 X153.035 Y140.843 E6.23318
G1 X153.439 Y141.191 E6.25602
G1 X153.439 Y143.388 E6.34993
G1 X153.844 Y143.864 E6.37663
G1 X153.844 Y141.540 E6.47595
G1 X154.249 Y141.889 E6.49879
G1 X154.249 Y144.318 E6.60262
G1 X154.653 Y144.612 E6.62402
G1 X154.653 Y142.324 E6.72187
G1 X154.767 Y142.450 E6.72914
G1 X155.058 Y142.690 E6.74527
G1 X155.058 Y144.736 E6.83272
G1 X155.462 Y144.756 E6.85004
G1 X155.462 Y142.922 E6.92845
G1 X155.605 Y142.993 E6.93528
G1 X155.867 Y143.064 E6.94685
G1 X155.867 Y144.776 E7.02008
G1 X156.271 Y144.797 E7.03740
G1 X156.271 Y143.073 E7.11110
G1 X156.676 Y143.036 E7.12847
G1 X156.676 Y144.849 E7.20600
G1 X157.080 Y144.937 E7.22370
G1 X157.080 Y142.998 E7.30660
G1 X157.485 Y142.796 E7.32593
G1 X157.485 Y145.129 E7.42565
G1 X157.585 Y145.181 E7.43046
G1 X157.628 Y145.227 E7.43316
G1 X157.890 Y145.600 E7.45264
G1 X157.890 Y142.378 E7.59041
G1 X158.294 Y141.893 E7.61740
G1 X158.294 Y146.179 E7.80062
G1 E5.80062 F2400.00000
G92 E0
G1 X152.630 Y148.669 F7800.000
G1 E2.00000 F2400.00000
G1 F2400.000
G1 X152.630 Y151.253 E2.11048
G1 X152.709 Y151.470 E2.12032
G1 X152.985 Y151.707 E2.13589
G1 X153.035 Y151.719 E2.13807
G1 X153.035 Y148.297 E2.28434
G1 X153.370 Y148.201 E2.29927
G1 X153.439 Y148.201 E2.30222
G1 X153.439 Y151.800 E2.45612
G1 X153.844 Y151.800 E2.47341
G1 X153.844 Y148.201 E2.62732
G1 X154.249 Y148.200 E2.64461
G1 X154.249 Y151.800 E2.79852
G1 X154.653 Y151.800 E2.81582
G1 X154.653 Y148.200 E2.96973
G1 X155.058 Y148.200 E2.98703
G1 X155.058 Y151.800 E3.14094
G1 X155.462 Y151.800 E3.15824
G1 X155.462 Y148.200 E3.31216
G1 X155.867 Y148.200 E3.32946
G1 X155.867 Y151.800 E3.48339
G1 X156.271 Y151.800 E3.50068
G1 X156.271 Y148.200 E3.65462
G1 X156.676 Y148.194 E3.67192
G1 X156.676 Y151.805 E3.82630
G1 X157.080 Y151.850 E3.84370
G1 X157.080 Y148.150 E4.00192
G1 X157.485 Y147.992 E4.02048
G1 X157.485 Y151.989 E4.19135
G1 X157.890 Y152.263 E4.21224
G1 X157.890 Y147.745 E4.40536
G1 X158.277 Y147.449 E4.42621
G1 X158.294 Y147.375 E4.42947
G1 X158.294 Y152.639 E4.65454
G1 E2.65454 F2400.00000
G92 E0
G1 X137.257 Y157.340 F7800.000
G1 E2.00000 F2400.00000
G1 F2400.000
G1 X137.257 Y159.509 E2.09272
G1 X137.571 Y159.886 E2.11367
G1 X137.662 Y159.934 E2.11809
G1 X137.662 Y156.985 E2.24418
G1 X137.880 Y156.830 E2.25562
G1 X138.066 Y156.771 E2.26396
G1 X138.066 Y160.141 E2.40803
G1 X138.471 Y160.207 E2.42555
G1 X138.471 Y156.679 E2.57635
G1 X138.875 Y156.684 E2.59364
G1 X138.875 Y160.207 E2.74427
G1 X139.280 Y160.113 E2.76202
G1 X139.280 Y156.775 E2.90475
G1 X139.685 Y157.009 E2.92472
G1 X139.685 Y160.152 E3.05910
G1 X140.089 Y160.364 E3.07863
G1 X140.089 Y157.418 E3.20456
G1 X140.194 Y157.540 E3.21143
G1 X140.358 Y157.905 E3.22852
G1 X140.455 Y158.762 E3.26540
G1 X140.494 Y158.782 E3.26726
G1 X140.494 Y160.576 E3.34397
G1 X140.898 Y160.765 E3.36305
G1 X140.898 Y158.990 E3.43893
G1 X141.303 Y159.198 E3.45837
G1 X141.303 Y160.931 E3.53246
G1 X141.707 Y161.097 E3.55116
G1 X141.707 Y159.363 E3.62529
G1 X142.112 Y159.522 E3.64387
G1 X142.112 Y161.231 E3.71696
G1 X142.516 Y161.350 E3.73498
G1 X142.516 Y159.680 E3.80636
G1 X142.691 Y159.746 E3.81434
G1 X142.921 Y159.797 E3.82440
G1 X142.921 Y161.467 E3.89581
G1 X143.326 Y161.545 E3.91343
G1 X143.326 Y159.885 E3.98442
G1 X143.730 Y159.973 E4.00212
G1 X143.730 Y161.624 E4.07268
G1 X144.135 Y161.687 E4.09019
G1 X144.135 Y160.061 E4.15968
G1 X144.539 Y160.102 E4.17706
G1 X144.539 Y161.727 E4.24654
G1 X144.944 Y161.767 E4.26392
G1 X144.944 Y160.134 E4.33374
G1 X145.348 Y160.166 E4.35109
G1 X145.348 Y161.781 E4.42012
G1 X145.753 Y161.778 E4.43741
G1 X145.753 Y160.197 E4.50503
G1 X146.157 Y160.174 E4.52235
G1 X146.157 Y161.776 E4.59084
G1 X146.562 Y161.763 E4.60815
G1 X146.562 Y160.150 E4.67710
G1 X146.967 Y160.106 E4.69450
G1 X146.967 Y161.717 E4.76337
G1 X147.371 Y161.671 E4.78077
G1 X147.371 Y160.037 E4.85065
G1 X147.776 Y159.967 E4.86820
G1 X147.776 Y161.601 E4.93805
G1 X148.180 Y161.506 E4.95582
G1 X148.180 Y159.871 E5.02569
G1 X148.585 Y159.759 E5.04365
G1 X148.585 Y161.410 E5.11426
G1 X148.989 Y161.315 E5.13203
G1 X148.989 Y159.646 E5.20337
G1 X149.394 Y159.493 E5.22187
G1 X149.394 Y161.191 E5.29447
G1 X149.798 Y161.037 E5.31297
G1 X149.798 Y159.330 E5.38597
G1 X150.203 Y159.115 E5.40555
G1 X150.203 Y160.884 E5.48118
G1 X150.608 Y160.716 E5.49991
G1 X150.608 Y158.899 E5.57756
G1 X151.012 Y158.684 E5.59716
G1 X151.012 Y160.512 E5.67532
G1 X151.417 Y160.309 E5.69468
G1 X151.417 Y158.398 E5.77637
G1 X151.821 Y158.072 E5.79860
G1 X151.821 Y160.062 E5.88370
G1 X152.226 Y159.809 E5.90411
G1 X152.226 Y157.745 E5.99235
G1 X152.630 Y157.419 E6.01458
G1 X152.630 Y159.526 E6.10469
G1 X153.035 Y159.216 E6.12648
G1 X153.035 Y157.067 E6.21838
G1 X153.439 Y156.593 E6.24501
G1 X153.439 Y158.887 E6.34308
G1 X153.844 Y158.521 E6.36640
G1 X153.844 Y156.120 E6.46908
G1 X154.161 Y155.749 E6.48993
G1 X154.249 Y155.682 E6.49464
G1 X154.249 Y158.104 E6.59816
G1 X154.653 Y157.672 E6.62344
G1 X154.653 Y155.388 E6.72111
G1 X154.967 Y155.266 E6.73551
G1 X155.058 Y155.251 E6.73943
G1 X155.058 Y157.332 E6.82838
G1 X155.315 Y157.140 E6.84209
G1 X155.462 Y157.083 E6.84884
G1 X155.462 Y155.204 E6.92917
G1 X155.867 Y155.200 E6.94647
G1 X155.867 Y156.935 E7.02063
G1 X156.271 Y156.879 E7.03808
G1 X156.271 Y155.196 E7.11006
G1 X156.476 Y155.193 E7.11882
G1 X156.676 Y155.161 E7.12747
G1 X156.676 Y156.911 E7.20228
G1 X157.080 Y157.042 E7.22046
G1 X157.080 Y155.061 E7.30517
G1 X157.370 Y154.946 E7.31849
G1 X157.485 Y154.865 E7.32450
G1 X157.485 Y157.231 E7.42565
G1 X157.890 Y157.522 E7.44695
G1 X157.890 Y154.541 E7.57439
G1 X158.224 Y154.151 E7.59636
G1 X158.294 Y153.973 E7.60451
G1 X158.294 Y158.076 E7.77989
G1 X158.455 Y158.448 E7.79725
G1 X158.548 Y159.057 E7.82355
G1 X158.548 Y175.898 E8.54358
G1 X158.699 Y175.898 E8.55002
G1 X158.699 Y124.185 E10.76089
G1 X159.103 Y124.180 E10.77819
G1 X159.103 Y175.898 E12.98930
G1 X159.508 Y175.898 E13.00660
G1 X159.508 Y124.174 E15.21794
G1 X159.912 Y124.169 E15.23523
G1 X159.912 Y175.898 E17.44680
G1 X160.317 Y175.898 E17.46410
G1 X160.317 Y124.164 E19.67590
G1 X160.721 Y124.158 E19.69319
G1 X160.721 Y175.898 E21.90522
G1 X161.126 Y175.898 E21.92252
G1 X161.126 Y124.153 E24.13478
G1 X161.531 Y124.148 E24.15208
G1 X161.531 Y175.898 E26.36456
G1 X161.935 Y175.898 E26.38186
G1 X161.935 Y124.142 E28.59458
G1 X162.340 Y124.137 E28.61188
G1 X162.340 Y175.898 E30.82481
G1 X162.744 Y175.898 E30.84210
G1 X162.744 Y124.146 E33.05467
G1 X163.149 Y124.154 E33.07197
G1 X163.149 Y175.899 E35.28419
G1 Z0.250 F7800.000
G1 Z0.500 F7800.000
G1 E33.28419 F2400.00000
G92 E0
G1 X158.548 Y176.672 F7800.000
G1 E2.00000 F2400.00000
G1 F2400.000
G1 X158.620 Y176.672 E2.00306
G1 X158.548 Y176.672 E2.00612
G1 X158.548 Y176.271 E2.02327
G1 X163.149 Y176.271 E2.21996
G1 X163.149 Y175.869 E2.23711
G1 X158.548 Y175.869 E2.43380
G1 X158.548 Y175.468 E2.45095
G1 X163.149 Y175.468 E2.64764
G1 X163.149 Y175.067 E2.66479
G1 X158.548 Y175.067 E2.86148
G1 X158.548 Y174.666 E2.87863
G1 X163.149 Y174.666 E3.07532
G1 X163.149 Y174.265 E3.09247
G1 X158.548 Y174.265 E3.28916
G1 X158.548 Y173.864 E3.30631
G1 X163.149 Y173.864 E3.50301
G1 X163.149 Y173.463 E3.52016
G1 X158.548 Y173.463 E3.71685
G1 X158.548 Y173.061 E3.73400
G1 X163.149 Y173.061 E3.93069
G1 X163.149 Y172.660 E3.94784
G1 X158.548 Y172.660 E4.14453
G1 X158.548 Y172.259 E4.16168
G1 X163.149 Y172.259 E4.35837
G1 X163.149 Y171.858 E4.37552
G1 X158.548 Y171.858 E4.57221
G1 X158.548 Y171.457 E4.58936
G1 X163.149 Y171.457 E4.78606
G1 X163.149 Y171.056 E4.80321
G1 X158.548 Y171.056 E4.99990
G1 X158.548 Y170.655 E5.01705
G1 X163.149 Y170.655 E5.21374
G1 X163.149 Y170.253 E5.23089
G1 X158.548 Y170.253 E5.42758
G1 X158.548 Y169.852 E5.44473
G1 X163.149 Y169.852 E5.64142
G1 X163.149 Y169.451 E5.65857
G1 X158.548 Y169.451 E5.85526
G1 X158.548 Y169.050 E5.87241
G1 X163.149 Y169.050 E6.06910
G1 X163.149 Y168.649 E6.08625
G1 X158.548 Y168.649 E6.28295
G1 X158.548 Y168.248 E6.30010
G1 X163.149 Y168.248 E6.49679
G1 X163.149 Y167.847 E6.51394
G1 X158.548 Y167.847 E6.71063
G1 X158.548 Y167.445 E6.72778
G1 X163.149 Y167.445 E6.92447
G1 X163.149 Y167.044 E6.94162
G1 X158.548 Y167.044 E7.13831
G1 X158.548 Y166.643 E7.15546
G1 X163.149 Y166.643 E7.35215
G1 X163.149 Y166.242 E7.36930
G1 X158.548 Y166.242 E7.56599
G1 X158.548 Y165.841 E7.58314
G1 X163.149 Y165.841 E7.77984
G1 X163.149 Y165.440 E7.79699
G1 X158.548 Y165.440 E7.99368
G1 X158.548 Y165.039 E8.01083
G1 X163.149 Y165.039 E8.20752
G1 X163.149 Y164.637 E8.22467
G1 X158.548 Y164.637 E8.42136
G1 X158.548 Y164.236 E8.43851
G1 X163.149 Y164.236 E8.63520
G1 X163.149 Y163.835 E8.65235
G1 X158.548 Y163.835 E8.84904
G1 X158.548 Y163.434 E8.86619
G1 X163.149 Y163.434 E9.06289
G1 X163.149 Y163.033 E9.08004
G1 X158.548 Y163.033 E9.27673
G1 X158.548 Y162.632 E9.29388
G1 X163.149 Y162.632 E9.49057
G1 X163.149 Y162.231 E9.50772
G1 X158.548 Y162.231 E9.70441
G1 X158.548 Y161.829 E9.72156
G1 X163.149 Y161.829 E9.91825
G1 X163.149 Y161.428 E9.93540
G1 X158.548 Y161.428 E10.13209
G1 X158.548 Y161.027 E10.14924
G1 X163.149 Y161.027 E10.34593
G1 X163.149 Y160.626 E10.36308
G1 X158.548 Y160.626 E10.55978
G1 X158.548 Y160.225 E10.57693
G1 X163.149 Y160.225 E10.77362
G1 X163.149 Y159.824 E10.79077
G1 X158.548 Y159.824 E10.98746
G1 X158.548 Y159.423 E11.00461
G1 X163.149 Y159.423 E11.20130
G1 X163.149 Y159.021 E11.21845
G1 X158.543 Y159.021 E11.41535
G1 X158.481 Y158.620 E11.43271
G1 X163.149 Y158.620 E11.63226
G1 X163.149 Y158.219 E11.64941
G1 X158.356 Y158.219 E11.85432
G1 X158.253 Y157.980 E11.86546
G1 X158.133 Y157.818 E11.87406
G1 X163.149 Y157.818 E12.08850
G1 X163.149 Y157.417 E12.10565
G1 X157.749 Y157.417 E12.33649
G1 X157.333 Y157.123 E12.35828
G1 X157.004 Y157.016 E12.37307
G1 X163.149 Y157.016 E12.63577
G1 X163.149 Y156.615 E12.65292
G1 X153.421 Y156.615 E13.06881
G1 X153.764 Y156.213 E13.09137
G1 X163.149 Y156.213 E13.49261
G1 X163.149 Y155.812 E13.50976
G1 X154.106 Y155.812 E13.89634
G1 X154.160 Y155.750 E13.89983
G1 X154.604 Y155.411 E13.92374
G1 X163.149 Y155.411 E14.28905
G1 X163.149 Y155.010 E14.30620
G1 X157.210 Y155.010 E14.56010
G1 X157.365 Y154.949 E14.56721
G1 X157.849 Y154.609 E14.59252
G1 X163.149 Y154.609 E14.81909
G1 X163.149 Y154.208 E14.83624
G1 X158.177 Y154.208 E15.04882
G1 X158.223 Y154.154 E15.05184
G1 X158.361 Y153.807 E15.06784
G1 X163.149 Y153.807 E15.27253
G1 X163.149 Y153.405 E15.28968
G1 X158.472 Y153.405 E15.48963
G1 X158.462 Y153.004 E15.50679
G1 X163.149 Y153.004 E15.70718
G1 X163.149 Y152.603 E15.72433
G1 X158.275 Y152.603 E15.93272
G1 X158.175 Y152.454 E15.94040
G1 X157.801 Y152.202 E15.95965
G1 X163.149 Y152.202 E16.18826
G1 X163.149 Y151.801 E16.20541
G1 X153.373 Y151.800 E16.62336
G1 X152.981 Y151.703 E16.64063
G1 X152.708 Y151.468 E16.65605
G1 X152.683 Y151.400 E16.65915
G1 X163.149 Y151.400 E17.10660
G1 X163.149 Y150.999 E17.12375
G1 X152.557 Y150.999 E17.57659
G1 X152.570 Y150.597 E17.59375
G1 X163.149 Y150.597 E18.04603
G1 X163.149 Y150.196 E18.06318
G1 X152.583 Y150.196 E18.51491
G1 X152.596 Y149.795 E18.53207
G1 X163.149 Y149.795 E18.98324
G1 X163.149 Y149.394 E19.00039
G1 X152.609 Y149.394 E19.45101
G1 X152.622 Y148.993 E19.46817
G1 X163.149 Y148.993 E19.91823
G1 X163.149 Y148.592 E19.93538
G1 X152.677 Y148.592 E20.38306
G1 X152.740 Y148.490 E20.38816
G1 X152.934 Y148.325 E20.39906
G1 X153.357 Y148.203 E20.41789
G1 X163.149 Y148.191 E20.83652
G1 X163.149 Y147.789 E20.85367
G1 X157.835 Y147.789 E21.08084
G1 X158.193 Y147.515 E21.10012
G1 X158.284 Y147.388 E21.10680
G1 X163.149 Y147.388 E21.31477
G1 X163.149 Y146.987 E21.33192
G1 X158.460 Y146.987 E21.53237
G1 X158.485 Y146.586 E21.54955
G1 X163.149 Y146.586 E21.74893
G1 X163.149 Y146.185 E21.76608
G1 X158.307 Y146.185 E21.97310
G1 X158.026 Y145.784 E21.99403
G1 X163.149 Y145.784 E22.21304
G1 X163.149 Y145.383 E22.23019
G1 X157.745 Y145.383 E22.46120
G1 X157.650 Y145.248 E22.46825
G1 X157.650 Y145.214 E22.46971
G1 X157.202 Y144.981 E22.49127
G1 X163.149 Y144.981 E22.74550
G1 X163.149 Y144.580 E22.76265
G1 X154.593 Y144.580 E23.12844
G1 X154.157 Y144.247 E23.15190
G1 X154.101 Y144.179 E23.15566
G1 X163.149 Y144.179 E23.54247
G1 X163.149 Y143.778 E23.55962
G1 X153.773 Y143.778 E23.96046
G1 X153.430 Y143.377 E23.98303
G1 X163.149 Y143.377 E24.39854
G1 X163.149 Y142.976 E24.41569
G1 X157.131 Y142.976 E24.67299
G1 X157.583 Y142.742 E24.69474
G1 X157.729 Y142.575 E24.70425
G1 X163.149 Y142.575 E24.93597
G1 X163.149 Y142.173 E24.95312
