; Generated by RP3 on 2021-07-8
; Job 0 - 3D Cloner

G21 ; set units to millimeters
M107 ;fan off
G28 ;home all axes
G90 ;absolute coordinates
G28 E0 ;home all axes
G1 E20.0 F100.0 ;extrude 20mm material with 100 mm/min speed
G28 E0 ;home all axes
G90 ;use absolute coordinates
M82 ; use absolute distances for extrusion
G92 E0 ;home of axes
M104 S90
G1 E-2.00000 F24000 ;retracts 2mm of material
M106 S102

(Layer 1)
G1  Z0.250 F2400

(Raster 1)
G92 E0
G1  X0005.350 Y0004.654 F2400
G1  E2.00000 F2400
G1  X0000.650 Y0004.654 E2.215 F2400
G1  X0000.650 Y0005.054 E2.233
G1  X0005.351 Y0005.054 E2.448
G1  X0005.352 Y0005.454 E2.466
G1  X0000.650 Y0005.454 E2.681
G1  X0000.650 Y0005.854 E2.700
G1  X0005.353 Y0005.854 E2.915
G1  X0005.353 Y0006.254 E2.933
G1  X0000.650 Y0006.254 E3.148
G1  X0000.650 Y0006.654 E3.166
G1  X0005.354 Y0006.654 E3.381
G1  X0005.355 Y0007.054 E3.400
G1  X0000.650 Y0007.054 E3.615
G1  X0000.650 Y0007.454 E3.633
G1  X0005.356 Y0007.454 E3.848
G1  X0005.357 Y0007.854 E3.867
G1  X0000.650 Y0007.854 E4.082
G1  X0000.650 Y0008.254 E4.100
G1  X0005.357 Y0008.254 E4.315
G1  X0005.358 Y0008.654 E4.333
G1  X0000.650 Y0008.654 E4.549
G1  X0000.650 Y0009.054 E4.567
G1  X0005.359 Y0009.054 E4.782
G1  X0005.360 Y0009.454 E4.801
G1  X0000.650 Y0009.454 E5.016
G1  X0000.650 Y0009.854 E5.034
G1  X0005.360 Y0009.854 E5.250
G1  X0005.361 Y0010.254 E5.268
G1  X0000.650 Y0010.254 E5.483
G1  X0000.650 Y0010.654 E5.502
G1  X0005.362 Y0010.654 E5.717
G1  X0005.363 Y0011.054 E5.735
G1  X0000.650 Y0011.054 E5.951
G1  X0000.650 Y0011.454 E5.969
G1  X0005.364 Y0011.454 E6.185
G1  X0005.364 Y0011.854 E6.203
G1  X0000.650 Y0011.854 E6.418
G1  X0000.650 Y0012.254 E6.437
G1  X0005.365 Y0012.254 E6.652
G1  X0005.366 Y0012.654 E6.671
G1  X0000.650 Y0012.654 E6.886
G1  X0000.650 Y0013.054 E6.904
G1  X0005.367 Y0013.054 E7.120
G1  X0005.367 Y0013.454 E7.138
G1  X0000.650 Y0013.454 E7.354
G1  X0000.650 Y0013.854 E7.372
G1  X0005.384 Y0013.854 E7.589
G1  X0005.420 Y0014.075 E7.599
G1  X0005.484 Y0014.254 E7.608
G1  X0000.650 Y0014.254 E7.829
G1  X0000.650 Y0014.654 E7.847
G1  X0005.628 Y0014.654 E8.075
G1  X0005.693 Y0014.835 E8.083
G1  X0005.847 Y0015.054 E8.096
G1  X0000.650 Y0015.054 E8.333
G1  X0000.650 Y0015.454 E8.352
G1  X0006.129 Y0015.454 E8.602
G1  X0006.229 Y0015.597 E8.610
G1  X0006.531 Y0015.854 E8.628
G1  X0000.650 Y0015.854 E8.897
G1  X0000.650 Y0016.254 E8.915
G1  X0007.175 Y0016.254 E9.214
G1  X0007.394 Y0016.370 E9.225
G1  X0008.151 Y0016.654 E9.262
G1  X0000.650 Y0016.654 E9.605
G1  X0000.650 Y0017.054 E9.623
G1  X0009.218 Y0017.054 E10.015
G1  X0010.285 Y0017.454 E10.067
G1  X0000.650 Y0017.454 E10.508
G1  X0000.650 Y0017.854 E10.526
G1  X0011.352 Y0017.854 E11.015
G1  X0012.419 Y0018.254 E11.067
G1  X0000.650 Y0018.254 E11.605
G1  X0000.650 Y0018.654 E11.624
G1  X0013.486 Y0018.654 E12.210
G1  X0014.553 Y0019.054 E12.263
G1  X0000.650 Y0019.054 E12.898
G1  X0000.650 Y0019.454 E12.916
G1  X0007.577 Y0019.454 E13.233
G1  X0007.109 Y0019.628 E13.256
G1  X0006.827 Y0019.786 E13.271
G1  X0006.740 Y0019.854 E13.276
G1  X0000.650 Y0019.854 E13.554
G1  X0000.650 Y0020.254 E13.573
G1  X0006.251 Y0020.254 E13.829
G1  X0006.103 Y0020.411 E13.839
G1  X0005.928 Y0020.654 E13.852
G1  X0000.650 Y0020.654 E14.094
G1  X0000.650 Y0021.054 E14.112
G1  X0005.691 Y0021.054 E14.342
G1  X0005.599 Y0021.230 E14.351
G1  X0005.526 Y0021.454 E14.362
G1  X0000.650 Y0021.454 E14.585
G1  X0000.650 Y0021.854 E14.603
G1  X0005.429 Y0021.854 E14.822
G1  X0005.376 Y0022.254 E14.840
G1  X0000.650 Y0022.254 E15.056
G1  X0000.650 Y0022.654 E15.075
G1  X0005.350 Y0022.654 E15.290
G1  X0005.350 Y0023.054 E15.308
G1  X0000.650 Y0023.054 E15.523
G1  X0000.650 Y0023.454 E15.541
G1  X0005.350 Y0023.454 E15.756
G1  X0005.350 Y0023.854 E15.774
G1  X0000.650 Y0023.854 E15.989
G1  X0000.650 Y0024.254 E16.007
G1  X0005.350 Y0024.254 E16.222
G1  X0005.350 Y0024.654 E16.241
G1  X0000.650 Y0024.654 E16.455
G1  X0000.650 Y0025.054 E16.474
G1  X0005.350 Y0025.054 E16.689
G1  X0005.350 Y0025.454 E16.707
G1  X0000.650 Y0025.454 E16.922
G1  X0000.650 Y0025.854 E16.940
G1  X0005.350 Y0025.854 E17.155
G1  X0005.350 Y0026.254 E17.173
G1  X0000.650 Y0026.254 E17.388
G1  X0000.650 Y0026.654 E17.406
G1  X0005.350 Y0026.654 E17.621
G1  X0005.350 Y0027.054 E17.640
G1  X0000.650 Y0027.054 E17.854
G1  X0000.650 Y0027.454 E17.873
G1  X0005.350 Y0027.454 E18.088
G1  X0005.350 Y0027.854 E18.106
G1  X0000.650 Y0027.854 E18.321
G1  X0000.650 Y0028.254 E18.339
G1  X0005.350 Y0028.254 E18.554
G1  X0005.350 Y0028.654 E18.572
G1  X0000.650 Y0028.654 E18.787
G1  X0000.650 Y0029.054 E18.805
G1  X0005.350 Y0029.054 E19.020
G1  X0005.350 Y0029.454 E19.039
G1  X0000.650 Y0029.454 E19.253
G1  X0000.650 Y0029.854 E19.272
G1  X0005.350 Y0029.854 E19.487
G1  X0005.350 Y0030.254 E19.505
G1  X0000.650 Y0030.254 E19.720
G1  X0000.650 Y0030.654 E19.738
G1  X0005.350 Y0030.654 E19.953
G1  X0005.350 Y0031.054 E19.971
G1  X0000.650 Y0031.054 E20.186
G1  X0000.650 Y0031.454 E20.204
G1  X0005.350 Y0031.454 E20.419
G1  X0005.350 Y0031.854 E20.438
G1  X0000.650 Y0031.854 E20.653
G1  X0000.650 Y0032.254 E20.671
G1  X0005.350 Y0032.254 E20.886
G1  X0005.350 Y0032.654 E20.904
G1  X0000.650 Y0032.654 E21.119
G1  X0000.650 Y0033.054 E21.137
G1  X0005.350 Y0033.054 E21.352
G1  X0005.350 Y0033.454 E21.370
G1  X0000.650 Y0033.454 E21.585
G1  X0000.650 Y0033.854 E21.604
G1  X0005.350 Y0033.854 E21.818
G1  X0005.350 Y0034.254 E21.837
G1  X0000.650 Y0034.254 E22.052
G1  X0000.650 Y0034.654 E22.070
G1  X0005.350 Y0034.654 E22.285
G1  X0005.350 Y0035.054 E22.303
G1  X0000.650 Y0035.054 E22.518
G1  X0000.650 Y0035.454 E22.536
G1  X0005.350 Y0035.454 E22.751
G1  X0005.350 Y0035.854 E22.769
G1  X0000.650 Y0035.854 E22.984
G1  X0000.650 Y0036.254 E23.003
G1  X0005.350 Y0036.254 E23.218
G1  X0005.350 Y0036.654 E23.236
G1  X0000.650 Y0036.654 E23.451
G1  X0000.650 Y0037.054 E23.469
G1  X0005.350 Y0037.054 E23.684
G1  X0005.350 Y0037.454 E23.702
G1  X0000.650 Y0037.454 E23.917
G1  X0000.650 Y0037.854 E23.935
G1  X0005.350 Y0037.854 E24.150
G1  X0005.350 Y0038.254 E24.169
G1  X0000.650 Y0038.254 E24.383
G1  X0000.650 Y0038.654 E24.402
G1  X0005.356 Y0038.654 E24.617
G1  X0005.369 Y0038.883 E24.627
G1  X0005.404 Y0039.054 E24.635
G1  X0000.650 Y0039.054 E24.853
G1  X0000.650 Y0039.454 E24.871
G1  X0005.504 Y0039.454 E25.093
G1  X0005.679 Y0039.854 E25.113
G1  X0000.650 Y0039.854 E25.343
G1  X0000.650 Y0040.254 E25.361
G1  X0005.861 Y0040.254 E25.599
G1  X0006.124 Y0040.613 E25.620
G1  X0006.166 Y0040.654 E25.622
G1  X0000.650 Y0040.654 E25.875
G1  X0000.650 Y0041.054 E25.893
G1  X0006.619 Y0041.054 E26.166
G1  X0006.878 Y0041.241 E26.180
G1  X0007.431 Y0041.454 E26.207
G1  X0000.650 Y0041.454 E26.517
G1  X0000.650 Y0041.854 E26.536
G1  X0014.798 Y0041.854 E27.183
G1  X0013.732 Y0042.254 E27.235
G1  X0000.650 Y0042.254 E27.833
G1  X0000.650 Y0042.654 E27.851
G1  X0012.665 Y0042.654 E28.400
G1  X0011.599 Y0043.054 E28.452
G1  X0000.650 Y0043.054 E28.953
G1  X0000.650 Y0043.454 E28.971
G1  X0010.532 Y0043.454 E29.423
G1  X0009.465 Y0043.854 E29.475
G1  X0000.650 Y0043.854 E29.878
G1  X0000.650 Y0044.254 E29.897
G1  X0008.399 Y0044.254 E30.251
G1  X0007.376 Y0044.638 E30.301
G1  X0007.346 Y0044.654 E30.302
G1  X0000.650 Y0044.654 E30.608
G1  X0000.650 Y0045.054 E30.627
G1  X0006.632 Y0045.054 E30.900
G1  X0006.207 Y0045.424 E30.926
G1  X0006.183 Y0045.454 E30.928
G1  X0000.650 Y0045.454 E31.181
G1  X0000.650 Y0045.854 E31.199
G1  X0005.871 Y0045.854 E31.438
G1  X0005.659 Y0046.234 E31.458
G1  X0005.653 Y0046.254 E31.459
G1  X0000.650 Y0046.254 E31.687
G1  X0000.650 Y0046.654 E31.706
G1  X0005.531 Y0046.654 E31.929
G1  X0005.409 Y0047.054 E31.948
G1  X0000.650 Y0047.054 E32.166
G1  X0000.650 Y0047.454 E32.184
G1  X0005.372 Y0047.454 E32.400
G1  X0005.352 Y0047.854 E32.418
G1  X0000.650 Y0047.854 E32.633
G1  X0000.650 Y0048.254 E32.651
G1  X0005.350 Y0048.254 E32.866
G1  X0005.350 Y0048.654 E32.884
G1  X0000.650 Y0048.654 E33.099
G1  X0000.650 Y0049.054 E33.118
G1  X0005.350 Y0049.054 E33.333
G1  X0005.350 Y0049.454 E33.351
G1  X0000.650 Y0049.454 E33.566
G1  X0000.650 Y0049.854 E33.584
G1  X0005.350 Y0049.854 E33.799
G1  X0005.350 Y0050.254 E33.817
G1  X0000.650 Y0050.254 E34.032
G1  X0000.650 Y0050.654 E34.050
G1  X0005.350 Y0050.654 E34.265
G1  X0005.350 Y0051.054 E34.283
G1  X0000.650 Y0051.054 E34.498
G1  X0000.650 Y0051.454 E34.517
G1  X0005.350 Y0051.454 E34.732
G1  X0005.350 Y0051.854 E34.750
G1  X0000.650 Y0051.854 E34.965
G1  X0000.650 Y0052.254 E34.983
G1  X0005.350 Y0052.254 E35.198
G1  X0005.350 Y0052.654 E35.216
G1  X0000.650 Y0052.654 E35.431
G1  X0000.650 Y0053.054 E35.449
G1  X0005.350 Y0053.054 E35.664
G1  X0005.350 Y0053.454 E35.683
G1  X0000.650 Y0053.454 E35.897
G1  X0000.650 Y0053.854 E35.916
G1  X0005.350 Y0053.854 E36.131
G1  X0005.350 Y0054.254 E36.149
G1  X0000.650 Y0054.254 E36.364
G1  X0000.650 Y0054.654 E36.382
G1  X0005.350 Y0054.654 E36.597
G1  X0005.350 Y0055.054 E36.615
G1  X0000.650 Y0055.054 E36.830
G1  X0000.650 Y0055.454 E36.848
G1  X0005.350 Y0055.454 E37.063
G1  X0005.350 Y0055.854 E37.082
G1  X0000.650 Y0055.854 E37.296
G1  X0000.650 Y0056.254 E37.315
G1  X0005.350 Y0056.254 E37.530
G1  E35.530 F2400

(Raster 2)
G92 E0
G1  X0009.414 Y0019.454 F2400
G1  E2.00000 F2400
G1  X0015.620 Y0019.454 E2.284 F2400
G1  X0016.687 Y0019.854 E2.336
G1  X0010.535 Y0019.854 E2.617
G1  X0011.601 Y0020.254 E2.669
G1  X0017.754 Y0020.254 E2.950
G1  X0018.821 Y0020.654 E3.003
G1  X0012.668 Y0020.654 E3.284
G1  X0013.735 Y0021.054 E3.336
G1  X0019.888 Y0021.054 E3.617
G1  X0020.954 Y0021.454 E3.669
G1  X0014.802 Y0021.454 E3.951
G1  X0015.869 Y0021.854 E4.003
G1  X0022.021 Y0021.854 E4.284
G1  X0023.088 Y0022.254 E4.336
G1  X0016.936 Y0022.254 E4.617
G1  X0018.003 Y0022.654 E4.669
G1  X0024.155 Y0022.654 E4.951
G1  X0025.222 Y0023.054 E5.003
G1  X0019.070 Y0023.054 E5.284
G1  X0020.137 Y0023.454 E5.336
G1  X0026.289 Y0023.454 E5.618
G1  X0027.356 Y0023.854 E5.670
G1  X0021.204 Y0023.854 E5.951
G1  X0022.270 Y0024.254 E6.003
G1  X0028.423 Y0024.254 E6.284
G1  X0029.490 Y0024.654 E6.336
G1  X0023.337 Y0024.654 E6.618
G1  X0024.404 Y0025.054 E6.670
G1  X0030.557 Y0025.054 E6.951
G1  X0031.624 Y0025.454 E7.003
G1  X0025.471 Y0025.454 E7.285
G1  X0026.538 Y0025.854 E7.337
G1  X0032.691 Y0025.854 E7.618
G1  X0033.758 Y0026.254 E7.670
G1  X0027.605 Y0026.254 E7.951
G1  X0028.672 Y0026.654 E8.003
G1  X0034.825 Y0026.654 E8.285
G1  X0035.571 Y0026.934 E8.321
G1  X0036.111 Y0027.054 E8.347
G1  X0029.739 Y0027.054 E8.638
G1  X0030.806 Y0027.454 E8.690
G1  X0052.728 Y0027.454 E9.692
G1  X0052.874 Y0027.854 E9.712
G1  X0031.635 Y0027.854 E10.683
G1  X0031.745 Y0027.913 E10.688
G1  X0032.145 Y0028.254 E10.712
G1  X0053.019 Y0028.254 E11.667
G1  X0053.032 Y0028.289 E11.669
G1  X0053.118 Y0028.654 E11.686
G1  X0032.457 Y0028.654 E12.630
G1  X0032.740 Y0029.054 E12.653
G1  X0053.210 Y0029.054 E13.589
G1  X0053.270 Y0029.454 E13.607
G1  X0032.883 Y0029.454 E14.539
G1  X0033.014 Y0029.854 E14.558
G1  X0053.318 Y0029.854 E15.487
G1  X0053.330 Y0030.254 E15.505
G1  X0033.074 Y0030.254 E16.431
G1  X0033.099 Y0030.635 E16.449
G1  X0033.096 Y0030.654 E16.449
G1  X0053.343 Y0030.654 E17.375
G1  X0053.346 Y0030.752 E17.380
G1  X0053.326 Y0031.054 E17.393
G1  X0033.037 Y0031.054 E18.321
G1  X0033.007 Y0031.264 E18.331
G1  X0032.945 Y0031.454 E18.340
G1  X0053.283 Y0031.454 E19.270
G1  X0053.223 Y0031.854 E19.288
G1  X0032.790 Y0031.854 E20.222
G1  X0032.639 Y0032.141 E20.237
G1  X0032.553 Y0032.254 E20.244
G1  X0053.141 Y0032.254 E21.185
G1  X0053.046 Y0032.654 E21.204
G1  X0032.241 Y0032.654 E22.155
G1  X0031.652 Y0033.054 E22.188
G1  X0052.907 Y0033.054 E23.159
G1  X0052.761 Y0033.454 E23.179
G1  X0031.038 Y0033.454 E24.172
G1  X0029.972 Y0033.854 E24.224
G1  X0052.583 Y0033.854 E25.258
G1  X0052.374 Y0034.254 E25.278
G1  X0038.024 Y0034.254 E25.935
G1  X0038.338 Y0034.381 E25.950
G1  X0038.381 Y0034.408 E25.952
G1  X0038.657 Y0034.654 E25.969
G1  X0052.133 Y0034.654 E26.585
G1  X0051.868 Y0035.054 E26.607
G1  X0039.098 Y0035.054 E27.191
G1  X0039.476 Y0035.454 E27.216
G1  X0051.581 Y0035.454 E27.770
G1  X0051.230 Y0035.854 E27.794
G1  X0039.854 Y0035.854 E28.314
G1  X0040.231 Y0036.254 E28.339
G1  X0050.788 Y0036.254 E28.822
G1  X0050.328 Y0036.654 E28.850
G1  X0040.637 Y0036.654 E29.293
G1  X0041.147 Y0037.025 E29.322
G1  X0041.194 Y0037.054 E29.324
G1  X0049.770 Y0037.054 E29.716
G1  X0049.200 Y0037.418 E29.747
G1  X0049.112 Y0037.454 E29.752
G1  X0041.873 Y0037.454 E30.083
G1  X0042.796 Y0037.854 E30.129
G1  X0048.122 Y0037.854 E30.372
G1  X0047.809 Y0037.981 E30.387
G1  X0046.561 Y0038.254 E30.446
G1  X0044.560 Y0038.254 E30.537
G1  E28.537 F2400

(Raster 3)
G92 E0
G1  X0047.903 Y0023.054 F2400
G1  E2.00000 F2400
G1  X0043.055 Y0023.054 E2.222 F2400
G1  X0042.940 Y0023.084 E2.227
G1  X0042.085 Y0023.454 E2.270
G1  X0048.885 Y0023.454 E2.581
G1  X0049.209 Y0023.586 E2.597
G1  X0049.626 Y0023.854 E2.619
G1  X0041.384 Y0023.854 E2.996
G1  X0040.781 Y0024.254 E3.029
G1  X0050.225 Y0024.254 E3.461
G1  X0050.682 Y0024.654 E3.489
G1  X0040.323 Y0024.654 E3.962
G1  X0039.944 Y0025.054 E3.988
G1  X0051.140 Y0025.054 E4.499
G1  X0051.188 Y0025.097 E4.502
G1  X0051.501 Y0025.454 E4.524
G1  X0039.565 Y0025.454 E5.070
G1  X0039.187 Y0025.854 E5.095
G1  X0051.807 Y0025.854 E5.672
G1  X0052.072 Y0026.254 E5.694
G1  X0038.765 Y0026.254 E6.302
G1  X0038.421 Y0026.567 E6.324
G1  X0038.375 Y0026.595 E6.326
G1  X0038.227 Y0026.654 E6.333
G1  X0052.327 Y0026.654 E6.978
G1  X0052.535 Y0027.054 E6.999
G1  X0037.217 Y0027.054 E7.699
G1  E5.699 F2400

(Raster 4)
G92 E0
G1  X0035.062 Y0034.254 F2400
G1  E2.00000 F2400
G1  X0028.906 Y0034.254 E2.281 F2400
G1  X0027.840 Y0034.654 E2.334
G1  X0033.996 Y0034.654 E2.615
G1  X0032.929 Y0035.054 E2.667
G1  X0026.774 Y0035.054 E2.948
G1  X0025.708 Y0035.454 E3.001
G1  X0031.862 Y0035.454 E3.282
G1  X0030.796 Y0035.854 E3.334
G1  X0024.642 Y0035.854 E3.615
G1  X0023.575 Y0036.254 E3.667
G1  X0029.729 Y0036.254 E3.949
G1  X0028.663 Y0036.654 E4.001
G1  X0022.509 Y0036.654 E4.282
G1  X0021.443 Y0037.054 E4.334
G1  X0027.596 Y0037.054 E4.616
G1  X0026.530 Y0037.454 E4.668
G1  X0020.377 Y0037.454 E4.949
G1  X0019.311 Y0037.854 E5.001
G1  X0025.463 Y0037.854 E5.282
G1  X0024.397 Y0038.254 E5.334
G1  X0018.245 Y0038.254 E5.616
G1  X0017.179 Y0038.654 E5.668
G1  X0023.330 Y0038.654 E5.949
G1  X0022.264 Y0039.054 E6.001
G1  X0016.112 Y0039.054 E6.282
G1  X0015.046 Y0039.454 E6.334
G1  X0021.197 Y0039.454 E6.616
G1  X0020.131 Y0039.854 E6.668
G1  X0013.980 Y0039.854 E6.949
G1  X0012.914 Y0040.254 E7.001
G1  X0019.064 Y0040.254 E7.282
G1  X0017.998 Y0040.654 E7.334
G1  X0011.848 Y0040.654 E7.615
G1  X0010.782 Y0041.054 E7.667
G1  X0016.931 Y0041.054 E7.949
G1  X0015.865 Y0041.454 E8.001
G1  X0009.715 Y0041.454 E8.282
G1  E6.282 F2400

(Layer 2)
G1  Z0.500 F2400

(Raster 1)
G92 E0
G1  X0052.946 Y0032.948 F2400
G1  E2.00000 F2400
G1  X0052.946 Y0028.052 E2.224 F2400
G1  X0052.691 Y0027.354 E2.258
G1  X0052.546 Y0027.074 E2.272
G1  X0052.546 Y0033.922 E2.585
G1  X0052.274 Y0034.441 E2.612
G1  X0052.146 Y0034.635 E2.623
G1  X0052.146 Y0026.368 E3.001
G1  X0051.746 Y0025.760 E3.034
G1  X0051.746 Y0035.238 E3.467
G1  X0051.670 Y0035.354 E3.474
G1  X0051.346 Y0035.721 E3.496
G1  X0051.346 Y0025.277 E3.973
G1  X0051.201 Y0025.111 E3.984
G1  X0050.946 Y0024.887 E3.999
G1  X0050.946 Y0036.117 E4.513
G1  X0050.546 Y0036.463 E4.537
G1  X0050.546 Y0024.535 E5.082
G1  X0050.185 Y0024.217 E5.104
G1  X0050.146 Y0024.192 E5.106
G1  X0050.146 Y0036.810 E5.683
G1  X0050.127 Y0036.826 E5.684
G1  X0049.746 Y0037.069 E5.705
G1  X0049.746 Y0023.933 E6.305
G1  X0049.346 Y0023.675 E6.327
G1  X0049.346 Y0037.323 E6.951
G1  X0049.183 Y0037.427 E6.960
G1  X0048.946 Y0037.522 E6.972
G1  X0048.946 Y0023.480 E7.614
G1  X0048.546 Y0023.317 E7.633
G1  X0048.546 Y0037.681 E8.290
G1  X0048.146 Y0037.841 E8.310
G1  X0048.146 Y0023.155 E8.981
G1  X0047.811 Y0023.019 E8.998
G1  X0047.746 Y0023.009 E9.001
G1  X0047.746 Y0037.996 E9.686
