; Generated by RP3 on 2021-07-8
; Job 0 - 3D Cloner

G21 ; set units to millimeters
M107 ;fan off
G28 ;home all axes
G90 ;absolute coordinates
G28 E0 ;home all axes
G1 E20.0 F100.0 ;extrude 20mm material with 100 mm/min speed
G28 E0 ;home all axes
G90 ;use absolute coordinates
M82 ; use absolute distances for extrusion
G92 E0 ;home of axes
M104 S90
G1 E-2.00000 F24000 ;retracts 2mm of material
M106 S102

(Layer 1)
G1  Z0.250 F2400

(Raster 1)
G92 E0
G1  X0096.279 Y0000.961 F2400
G1  E2.00000 F2400
G1  X0004.611 Y0000.961 E6.191 F2400
G1  X0003.744 Y0001.335 E6.234
G1  X0003.703 Y0001.361 E6.236
G1  X0097.186 Y0001.361 E10.510
G1  X0097.810 Y0001.761 E10.544
G1  X0003.079 Y0001.761 E14.875
G1  X0002.942 Y0001.849 E14.883
G1  X0002.596 Y0002.161 E14.904
G1  X0098.294 Y0002.161 E19.280
G1  X0098.654 Y0002.486 E19.302
G1  X0098.715 Y0002.561 E19.306
G1  X0002.175 Y0002.561 E23.720
G1  X0001.855 Y0002.961 E23.743
G1  X0099.035 Y0002.961 E28.186
G1  X0099.249 Y0003.229 E28.202
G1  X0099.323 Y0003.361 E28.209
G1  X0001.566 Y0003.361 E32.679
G1  X0001.341 Y0003.761 E32.700
G1  X0099.548 Y0003.761 E37.190
G1  X0099.715 Y0004.059 E37.205
G1  X0099.752 Y0004.161 E37.210
G1  X0001.137 Y0004.161 E41.719
G1  X0000.991 Y0004.561 E41.738
G1  X0099.898 Y0004.561 E46.260
G1  X0100.041 Y0004.953 E46.279
G1  X0100.042 Y0004.961 E46.280
G1  X0000.847 Y0004.961 E50.815
G1  X0000.772 Y0005.361 E50.834
G1  X0100.118 Y0005.361 E55.376
G1  X0100.193 Y0005.761 E55.394
G1  X0000.696 Y0005.761 E59.943
G1  X0000.672 Y0005.889 E59.949
G1  X0000.666 Y0006.161 E59.962
G1  X0100.223 Y0006.161 E64.513
G1  X0100.233 Y0006.561 E64.532
G1  X0000.657 Y0006.561 E69.084
G1  X0000.650 Y0006.840 E69.097
G1  X0000.667 Y0006.961 E69.103
G1  X0010.137 Y0006.961 E69.536
G1  X0010.055 Y0006.994 E69.540
G1  X0009.829 Y0007.158 E69.553
G1  X0009.658 Y0007.361 E69.565
G1  X0000.723 Y0007.361 E69.973
G1  X0000.780 Y0007.761 E69.992
G1  X0009.496 Y0007.761 E70.390
G1  X0009.467 Y0007.898 E70.397
G1  X0009.475 Y0008.161 E70.409
G1  X0000.901 Y0008.161 E70.801
G1  X0001.026 Y0008.561 E70.820
G1  X0009.619 Y0008.561 E71.213
G1  X0009.696 Y0008.694 E71.220
G1  X0009.872 Y0008.881 E71.231
G1  X0009.967 Y0008.961 E71.237
G1  X0001.202 Y0008.961 E71.638
G1  X0001.403 Y0009.361 E71.658
G1  X0010.444 Y0009.361 E72.072
G1  X0010.921 Y0009.761 E72.100
G1  X0001.654 Y0009.761 E72.524
G1  X0001.947 Y0010.161 E72.546
G1  X0011.398 Y0010.161 E72.979
G1  X0011.874 Y0010.561 E73.007
G1  X0002.305 Y0010.561 E73.445
G1  X0002.710 Y0010.961 E73.471
G1  X0012.351 Y0010.961 E73.911
G1  X0012.828 Y0011.361 E73.940
G1  X0003.182 Y0011.361 E74.381
G1  X0003.659 Y0011.761 E74.409
G1  X0013.305 Y0011.761 E74.850
G1  X0013.781 Y0012.161 E74.879
G1  X0004.136 Y0012.161 E75.320
G1  X0004.612 Y0012.561 E75.348
G1  X0014.258 Y0012.561 E75.789
G1  X0014.735 Y0012.961 E75.818
G1  X0005.089 Y0012.961 E76.259
G1  X0005.566 Y0013.361 E76.287
G1  X0015.212 Y0013.361 E76.728
G1  X0015.688 Y0013.761 E76.756
G1  X0006.042 Y0013.761 E77.198
G1  X0006.519 Y0014.161 E77.226
G1  X0016.165 Y0014.161 E77.667
G1  X0016.642 Y0014.561 E77.695
G1  X0006.996 Y0014.561 E78.136
G1  X0007.473 Y0014.961 E78.165
G1  X0017.118 Y0014.961 E78.606
G1  X0017.595 Y0015.361 E78.634
G1  X0007.949 Y0015.361 E79.075
G1  X0008.426 Y0015.761 E79.104
G1  X0018.072 Y0015.761 E79.545
G1  X0018.549 Y0016.161 E79.573
G1  X0008.903 Y0016.161 E80.014
G1  X0009.379 Y0016.561 E80.043
G1  X0019.025 Y0016.561 E80.484
G1  X0019.502 Y0016.961 E80.512
G1  X0009.856 Y0016.961 E80.953
G1  X0010.333 Y0017.361 E80.982
G1  X0019.979 Y0017.361 E81.423
G1  X0020.456 Y0017.761 E81.451
G1  X0010.809 Y0017.761 E81.892
G1  X0011.286 Y0018.161 E81.921
G1  X0020.932 Y0018.161 E82.362
G1  X0021.409 Y0018.561 E82.390
G1  X0011.763 Y0018.561 E82.831
G1  X0012.240 Y0018.961 E82.860
G1  X0021.886 Y0018.961 E83.301
G1  X0022.363 Y0019.361 E83.329
G1  X0012.716 Y0019.361 E83.770
G1  X0013.193 Y0019.761 E83.799
G1  X0022.839 Y0019.761 E84.240
G1  X0023.316 Y0020.161 E84.268
G1  X0013.670 Y0020.161 E84.709
G1  X0014.146 Y0020.561 E84.737
G1  X0023.793 Y0020.561 E85.179
G1  X0024.270 Y0020.961 E85.207
G1  X0014.623 Y0020.961 E85.648
G1  X0015.100 Y0021.361 E85.676
G1  X0024.746 Y0021.361 E86.117
G1  X0025.223 Y0021.761 E86.146
G1  X0015.576 Y0021.761 E86.587
G1  X0016.053 Y0022.161 E86.615
G1  X0025.700 Y0022.161 E87.056
G1  X0026.176 Y0022.561 E87.085
G1  X0016.530 Y0022.561 E87.526
G1  X0017.007 Y0022.961 E87.554
G1  X0026.653 Y0022.961 E87.995
G1  X0027.130 Y0023.361 E88.024
G1  X0017.483 Y0023.361 E88.465
G1  X0017.960 Y0023.761 E88.493
G1  X0027.607 Y0023.761 E88.934
G1  X0028.083 Y0024.161 E88.963
G1  X0018.437 Y0024.161 E89.404
G1  X0018.913 Y0024.561 E89.432
G1  X0028.560 Y0024.561 E89.873
G1  X0029.037 Y0024.961 E89.902
G1  X0019.390 Y0024.961 E90.343
G1  X0019.867 Y0025.361 E90.371
G1  X0029.514 Y0025.361 E90.812
G1  X0029.990 Y0025.761 E90.841
G1  X0020.344 Y0025.761 E91.282
G1  X0020.820 Y0026.161 E91.310
G1  X0030.467 Y0026.161 E91.751
G1  X0030.944 Y0026.561 E91.780
G1  X0021.297 Y0026.561 E92.221
G1  X0021.774 Y0026.961 E92.249
G1  X0031.421 Y0026.961 E92.690
G1  X0031.897 Y0027.361 E92.719
G1  X0022.250 Y0027.361 E93.160
G1  X0022.727 Y0027.761 E93.188
G1  X0032.546 Y0027.761 E93.637
G1  E91.637 F2400

(Raster 2)
G92 E0
G1  X0090.758 Y0006.961 F2400
G1  E2.00000 F2400
G1  X0100.222 Y0006.961 E2.433 F2400
G1  X0100.166 Y0007.361 E2.451
G1  X0091.230 Y0007.361 E2.860
G1  X0091.352 Y0007.590 E2.872
G1  X0091.394 Y0007.761 E2.880
G1  X0100.110 Y0007.761 E3.278
G1  X0100.107 Y0007.783 E3.279
G1  X0099.988 Y0008.161 E3.297
G1  X0091.414 Y0008.161 E3.689
G1  X0091.350 Y0008.413 E3.701
G1  X0091.271 Y0008.561 E3.709
G1  X0099.864 Y0008.561 E4.102
G1  X0099.823 Y0008.691 E4.108
G1  X0099.687 Y0008.961 E4.122
G1  X0090.920 Y0008.961 E4.523
G1  X0090.443 Y0009.361 E4.551
G1  X0099.487 Y0009.361 E4.964
G1  X0099.396 Y0009.542 E4.974
G1  X0099.236 Y0009.761 E4.986
G1  X0089.967 Y0009.761 E5.410
G1  X0089.490 Y0010.161 E5.438
G1  X0098.946 Y0010.161 E5.871
G1  X0098.836 Y0010.312 E5.879
G1  X0098.584 Y0010.561 E5.895
G1  X0089.013 Y0010.561 E6.333
G1  X0088.537 Y0010.961 E6.361
G1  X0098.179 Y0010.961 E6.802
G1  X0098.155 Y0010.985 E6.804
G1  X0097.707 Y0011.361 E6.831
G1  X0088.060 Y0011.361 E7.272
G1  X0087.583 Y0011.761 E7.300
G1  X0097.230 Y0011.761 E7.741
G1  X0096.754 Y0012.161 E7.770
G1  X0087.107 Y0012.161 E8.211
G1  X0086.630 Y0012.561 E8.239
G1  X0096.277 Y0012.561 E8.680
G1  X0095.800 Y0012.961 E8.709
G1  X0086.153 Y0012.961 E9.150
G1  X0085.677 Y0013.361 E9.178
G1  X0095.324 Y0013.361 E9.619
G1  X0094.847 Y0013.761 E9.648
G1  X0085.200 Y0013.761 E10.089
G1  X0084.723 Y0014.161 E10.117
G1  X0094.370 Y0014.161 E10.558
G1  X0093.893 Y0014.561 E10.587
G1  X0084.247 Y0014.561 E11.028
G1  X0083.770 Y0014.961 E11.056
G1  X0093.417 Y0014.961 E11.497
G1  X0092.940 Y0015.361 E11.526
G1  X0083.293 Y0015.361 E11.967
G1  X0082.817 Y0015.761 E11.995
G1  X0092.463 Y0015.761 E12.436
G1  X0091.987 Y0016.161 E12.465
G1  X0082.340 Y0016.161 E12.906
G1  X0081.863 Y0016.561 E12.934
G1  X0091.510 Y0016.561 E13.375
G1  X0091.033 Y0016.961 E13.404
G1  X0081.387 Y0016.961 E13.845
G1  X0080.910 Y0017.361 E13.873
G1  X0090.557 Y0017.361 E14.314
G1  X0090.080 Y0017.761 E14.343
G1  X0080.433 Y0017.761 E14.784
G1  X0079.957 Y0018.161 E14.812
G1  X0089.603 Y0018.161 E15.253
G1  X0089.127 Y0018.561 E15.282
G1  X0079.480 Y0018.561 E15.723
G1  X0079.003 Y0018.961 E15.751
G1  X0088.650 Y0018.961 E16.192
G1  X0088.173 Y0019.361 E16.221
G1  X0078.527 Y0019.361 E16.662
G1  X0078.050 Y0019.761 E16.690
G1  X0087.697 Y0019.761 E17.131
G1  X0087.220 Y0020.161 E17.159
G1  X0077.573 Y0020.161 E17.601
G1  X0077.097 Y0020.561 E17.629
G1  X0086.743 Y0020.561 E18.070
G1  X0086.266 Y0020.961 E18.098
G1  X0076.620 Y0020.961 E18.539
G1  X0076.143 Y0021.361 E18.568
G1  X0085.790 Y0021.361 E19.009
G1  X0085.313 Y0021.761 E19.037
G1  X0075.667 Y0021.761 E19.478
G1  X0075.190 Y0022.161 E19.507
G1  X0084.836 Y0022.161 E19.948
G1  X0084.360 Y0022.561 E19.976
G1  X0074.713 Y0022.561 E20.417
G1  X0074.237 Y0022.961 E20.446
G1  X0083.883 Y0022.961 E20.887
G1  X0083.406 Y0023.361 E20.915
G1  X0073.760 Y0023.361 E21.356
G1  X0073.283 Y0023.761 E21.385
G1  X0082.930 Y0023.761 E21.826
G1  X0082.453 Y0024.161 E21.854
G1  X0072.807 Y0024.161 E22.295
G1  X0072.330 Y0024.561 E22.324
G1  X0081.976 Y0024.561 E22.765
G1  X0081.500 Y0024.961 E22.793
G1  X0071.853 Y0024.961 E23.234
G1  X0071.377 Y0025.361 E23.263
G1  X0081.023 Y0025.361 E23.704
G1  X0080.546 Y0025.761 E23.732
G1  X0070.900 Y0025.761 E24.173
G1  X0070.424 Y0026.161 E24.202
G1  X0080.070 Y0026.161 E24.643
G1  X0079.593 Y0026.561 E24.671
G1  X0069.947 Y0026.561 E25.112
G1  X0069.470 Y0026.961 E25.141
G1  X0079.116 Y0026.961 E25.582
G1  X0078.639 Y0027.361 E25.610
G1  X0068.994 Y0027.361 E26.051
G1  X0068.906 Y0027.435 E26.056
G1  X0068.514 Y0027.694 E26.078
G1  X0068.336 Y0027.761 E26.086
G1  X0078.163 Y0027.761 E26.536
G1  X0077.686 Y0028.161 E26.564
G1  X0023.204 Y0028.161 E29.055
G1  X0023.680 Y0028.561 E29.084
G1  X0077.209 Y0028.561 E31.531
G1  X0076.733 Y0028.961 E31.559
G1  X0024.157 Y0028.961 E33.963
G1  X0024.634 Y0029.361 E33.992
G1  X0076.256 Y0029.361 E36.352
G1  X0076.252 Y0029.364 E36.352
G1  X0075.842 Y0029.761 E36.378
G1  X0025.111 Y0029.761 E38.698
G1  X0025.587 Y0030.161 E38.726
G1  X0075.432 Y0030.161 E41.005
G1  X0075.118 Y0030.561 E41.028
G1  X0026.064 Y0030.561 E43.271
G1  X0026.541 Y0030.961 E43.299
G1  X0074.805 Y0030.961 E45.506
G1  X0074.754 Y0031.026 E45.510
G1  X0074.559 Y0031.361 E45.527
G1  X0027.017 Y0031.361 E47.701
G1  X0027.494 Y0031.761 E47.730
G1  X0074.326 Y0031.761 E49.871
G1  X0074.190 Y0031.994 E49.883
G1  X0074.121 Y0032.161 E49.891
G1  X0027.971 Y0032.161 E52.001
G1  X0028.412 Y0032.531 E52.028
G1  X0028.443 Y0032.561 E52.030
G1  X0073.957 Y0032.561 E54.110
G1  X0073.792 Y0032.961 E54.130
G1  X0028.855 Y0032.961 E56.185
G1  X0029.108 Y0033.207 E56.201
G1  X0029.227 Y0033.361 E56.210
G1  X0073.679 Y0033.361 E58.242
G1  X0073.575 Y0033.761 E58.261
G1  X0029.535 Y0033.761 E60.275
G1  X0029.706 Y0033.983 E60.287
G1  X0029.805 Y0034.161 E60.297
G1  X0044.152 Y0034.161 E60.953
G1  X0043.455 Y0034.209 E60.985
G1  X0042.436 Y0034.418 E61.032
G1  X0042.027 Y0034.561 E61.052
G1  X0030.029 Y0034.561 E61.600
G1  X0030.185 Y0034.839 E61.615
G1  X0030.232 Y0034.961 E61.621
G1  X0041.062 Y0034.961 E62.116
G1  X0040.528 Y0035.233 E62.144
G1  X0040.343 Y0035.361 E62.154
G1  X0030.385 Y0035.361 E62.609
G1  X0030.535 Y0035.754 E62.628
G1  X0030.537 Y0035.761 E62.629
G1  X0039.764 Y0035.761 E63.051
G1  X0039.672 Y0035.825 E63.056
G1  X0039.303 Y0036.161 E63.079
G1  X0030.626 Y0036.161 E63.475
G1  X0030.715 Y0036.561 E63.494
G1  X0038.874 Y0036.561 E63.867
G1  X0038.538 Y0036.961 E63.891
G1  X0030.768 Y0036.961 E64.246
G1  X0030.797 Y0037.361 E64.265
G1  X0038.211 Y0037.361 E64.603
G1  X0037.960 Y0037.761 E64.625
G1  X0030.817 Y0037.761 E64.952
G1  X0030.788 Y0038.161 E64.970
G1  X0037.709 Y0038.161 E65.286
G1  X0037.669 Y0038.225 E65.290
G1  X0037.515 Y0038.561 E65.307
G1  X0030.760 Y0038.561 E65.616
G1  X0030.752 Y0038.667 E65.621
G1  X0030.688 Y0038.961 E65.634
G1  X0037.332 Y0038.961 E65.938
G1  X0037.249 Y0039.143 E65.947
G1  X0037.174 Y0039.361 E65.958
G1  X0030.600 Y0039.361 E66.258
G1  X0030.542 Y0039.624 E66.271
G1  X0030.505 Y0039.761 E66.277
G1  X0037.038 Y0039.761 E66.576
G1  X0036.901 Y0040.161 E66.595
G1  X0030.398 Y0040.161 E66.892
G1  X0030.292 Y0040.561 E66.911
G1  X0036.764 Y0040.561 E67.207
G1  X0036.628 Y0040.961 E67.227
G1  X0030.185 Y0040.961 E67.521
G1  X0030.078 Y0041.361 E67.540
G1  X0036.497 Y0041.361 E67.834
G1  X0036.390 Y0041.761 E67.853
G1  X0029.971 Y0041.761 E68.146
G1  X0029.952 Y0041.834 E68.149
G1  X0029.885 Y0042.161 E68.165
G1  X0036.284 Y0042.161 E68.457
G1  X0036.177 Y0042.561 E68.476
G1  X0029.802 Y0042.561 E68.768
G1  X0029.720 Y0042.961 E68.786
G1  X0036.071 Y0042.961 E69.077
G1  X0035.964 Y0043.361 E69.096
G1  X0029.638 Y0043.361 E69.385
G1  X0029.555 Y0043.761 E69.404
G1  X0035.878 Y0043.761 E69.693
G1  X0035.800 Y0044.161 E69.711
G1  X0029.473 Y0044.161 E70.001
G1  X0029.470 Y0044.177 E70.001
G1  X0029.415 Y0044.561 E70.019
G1  X0035.723 Y0044.561 E70.307
G1  X0035.645 Y0044.961 E70.326
G1  X0029.358 Y0044.961 E70.614
G1  X0029.301 Y0045.361 E70.632
G1  X0035.567 Y0045.361 E70.919
G1  X0035.502 Y0045.699 E70.934
G1  X0035.494 Y0045.761 E70.937
G1  X0029.243 Y0045.761 E71.223
G1  X0029.186 Y0046.161 E71.241
G1  X0035.445 Y0046.161 E71.527
G1  X0035.395 Y0046.561 E71.546
G1  X0029.134 Y0046.561 E71.832
G1  X0029.100 Y0046.961 E71.851
G1  X0035.346 Y0046.961 E72.136
G1  X0035.296 Y0047.361 E72.154
G1  X0029.067 Y0047.361 E72.439
G1  X0029.034 Y0047.761 E72.458
G1  X0035.246 Y0047.761 E72.742
G1  X0035.223 Y0047.947 E72.750
G1  X0035.212 Y0048.161 E72.760
G1  X0029.001 Y0048.161 E73.044
G1  X0028.968 Y0048.561 E73.062
G1  X0035.190 Y0048.561 E73.347
G1  X0035.168 Y0048.961 E73.365
G1  X0028.944 Y0048.961 E73.650
G1  X0028.935 Y0049.361 E73.668
G1  X0035.146 Y0049.361 E73.952
G1  X0035.124 Y0049.761 E73.970
G1  X0028.926 Y0049.761 E74.254
G1  X0028.917 Y0050.161 E74.272
G1  X0035.102 Y0050.161 E74.555
G1  X0035.100 Y0050.209 E74.557
G1  X0035.105 Y0050.561 E74.573
G1  X0028.907 Y0050.561 E74.856
G1  X0028.898 Y0050.961 E74.875
G1  X0035.110 Y0050.961 E75.159
G1  X0035.116 Y0051.361 E75.177
G1  X0028.902 Y0051.361 E75.461
G1  X0028.916 Y0051.761 E75.479
G1  X0035.122 Y0051.761 E75.763
G1  X0035.127 Y0052.161 E75.781
G1  X0028.931 Y0052.161 E76.065
G1  X0028.946 Y0052.561 E76.083
G1  X0035.139 Y0052.561 E76.366
G1  X0035.172 Y0052.961 E76.384
G1  X0028.960 Y0052.961 E76.668
G1  X0028.975 Y0053.361 E76.687
G1  X0035.205 Y0053.361 E76.972
G1  X0035.238 Y0053.761 E76.990
G1  X0029.006 Y0053.761 E77.275
G1  X0029.045 Y0054.161 E77.293
G1  X0035.271 Y0054.161 E77.578
G1  X0035.304 Y0054.561 E77.596
G1  X0029.083 Y0054.561 E77.881
G1  X0029.122 Y0054.961 E77.899
G1  X0035.353 Y0054.961 E78.184
G1  X0035.414 Y0055.361 E78.202
G1  X0029.161 Y0055.361 E78.488
G1  X0029.199 Y0055.761 E78.507
G1  X0035.475 Y0055.761 E78.794
G1  X0035.536 Y0056.161 E78.812
G1  X0029.259 Y0056.161 E79.099
G1  X0029.322 Y0056.561 E79.118
G1  X0035.597 Y0056.561 E79.405
G1  X0035.658 Y0056.961 E79.423
G1  X0029.385 Y0056.961 E79.710
G1  X0029.448 Y0057.361 E79.728
G1  X0035.753 Y0057.361 E80.017
G1  X0035.848 Y0057.761 E80.036
G1  X0029.510 Y0057.761 E80.325
G1  X0029.565 Y0058.108 E80.341
G1  X0029.577 Y0058.161 E80.344
G1  X0035.944 Y0058.161 E80.635
G1  X0036.026 Y0058.503 E80.651
G1  X0036.046 Y0058.561 E80.654
G1  X0029.669 Y0058.561 E80.945
G1  X0029.762 Y0058.961 E80.964
G1  X0036.184 Y0058.961 E81.258
G1  X0036.321 Y0059.361 E81.277
G1  X0029.854 Y0059.361 E81.573
G1  X0029.947 Y0059.761 E81.591
G1  X0036.459 Y0059.761 E81.889
G1  X0036.538 Y0059.989 E81.900
G1  X0036.617 Y0060.161 E81.909
G1  X0030.061 Y0060.161 E82.209
G1  X0030.189 Y0060.561 E82.228
G1  X0036.800 Y0060.561 E82.530
G1  X0036.983 Y0060.961 E82.550
G1  X0030.317 Y0060.961 E82.855
G1  X0030.445 Y0061.361 E82.874
G1  X0037.166 Y0061.361 E83.181
G1  X0037.192 Y0061.419 E83.184
G1  X0037.391 Y0061.761 E83.202
G1  X0030.580 Y0061.761 E83.514
G1  X0030.746 Y0062.161 E83.534
G1  X0037.624 Y0062.161 E83.848
G1  X0037.857 Y0062.561 E83.869
G1  X0030.912 Y0062.561 E84.187
G1  X0031.078 Y0062.961 E84.207
G1  X0038.115 Y0062.961 E84.528
G1  X0038.403 Y0063.361 E84.551
G1  X0031.244 Y0063.361 E84.878
G1  X0031.260 Y0063.400 E84.880
G1  X0031.446 Y0063.761 E84.899
G1  X0038.691 Y0063.761 E85.230
G1  X0038.902 Y0064.054 E85.246
G1  X0038.996 Y0064.161 E85.253
G1  X0031.652 Y0064.161 E85.589
G1  X0031.859 Y0064.561 E85.609
G1  X0039.348 Y0064.561 E85.952
G1  X0039.700 Y0064.961 E85.976
G1  X0032.065 Y0064.961 E86.325
G1  X0032.110 Y0065.050 E86.330
G1  X0032.305 Y0065.361 E86.346
G1  X0040.076 Y0065.361 E86.702
G1  X0040.506 Y0065.761 E86.729
G1  X0032.556 Y0065.761 E87.092
G1  X0032.806 Y0066.161 E87.114
G1  X0040.936 Y0066.161 E87.485
