; generated by Slic3r 1.3.1-dev (Build 8c69278) on 2021-12-10 at 13:24:52

; external perimeters extrusion width = 0.45mm (3.99mm^3/s)
; perimeters extrusion width = 0.45mm (3.99mm^3/s)
; infill extrusion width = 0.45mm (3.99mm^3/s)
; solid infill extrusion width = 0.45mm (4.99mm^3/s)
; top infill extrusion width = 0.45mm (3.00mm^3/s)
; support material extrusion width = 0.45mm (4.99mm^3/s)

M107
G92 E0
M104 S205 ; set temperature
G28 ; home all axes
G1 Z5 F5000 ; lift nozzle

; Filament gcode

M109 S205 ; set temperature and wait for it to be reached
G21 ; set units to millimeters
G90 ; use absolute coordinates
M82 ; use absolute distances for extrusion
G92 E0
G1 Z0.250 F7800.000
G1 E-2.00000 F2400.00000
G92 E0
G1 X137.600 Y142.996 F7800.000
G1 E2.00000 F2400.00000
G1 F2400.000
G1 X139.675 Y142.996 E2.08871
G1 X139.796 Y142.926 E2.09466
G1 X140.078 Y142.595 E2.11328
G1 X137.199 Y142.595 E2.23634
G1 X137.027 Y142.316 E2.25035
G1 X136.984 Y142.193 E2.25591
G1 X140.306 Y142.193 E2.39792
G1 X140.389 Y141.996 E2.40709
G1 X140.406 Y141.792 E2.41582
G1 X136.880 Y141.792 E2.56656
G1 X136.853 Y141.527 E2.57796
G1 X136.870 Y141.391 E2.58382
G1 X140.438 Y141.391 E2.73639
G1 X140.451 Y141.238 E2.74293
G1 X140.949 Y140.990 E2.76674
G1 X136.961 Y140.990 E2.93721
G1 X137.141 Y140.588 E2.95600
G1 X141.778 Y140.588 E3.15427
G1 X143.003 Y140.187 E3.20937
G1 E1.20937 F2400.00000
G92 E0
G1 X148.633 Y138.582 F7800.000
G1 E2.00000 F2400.00000
G1 F2400.000
G1 X148.129 Y138.456 E2.02221
G1 X147.306 Y138.315 E2.05791
G1 X145.929 Y138.202 E2.11698
G1 X144.260 Y138.286 E2.18840
G1 X143.441 Y138.419 E2.22389
G1 X142.718 Y138.582 E2.25557
G1 X148.633 Y138.582 E2.50844
G1 X148.928 Y138.656 E2.52147
G1 X149.900 Y138.983 E2.56529
G1 X141.516 Y138.983 E2.92371
G1 X140.580 Y139.385 E2.96727
G1 X150.820 Y139.385 E3.40508
G1 X151.239 Y139.587 E3.42499
G1 X151.562 Y139.786 E3.44117
G1 X139.793 Y139.786 E3.94431
G1 X139.503 Y139.946 E3.95847
G1 X139.014 Y139.786 E3.98048
G1 X138.502 Y139.786 E4.00234
G1 X137.723 Y140.011 E4.03702
G1 X137.490 Y140.187 E4.04951
G1 X143.003 Y140.187 E4.28520
G1 X143.209 Y140.124 E4.29442
G1 X144.731 Y139.849 E4.36053
G1 X146.774 Y139.861 E4.44789
G1 X147.552 Y139.972 E4.48148
G1 X148.439 Y140.187 E4.52050
G1 X152.213 Y140.187 E4.68185
G1 X152.430 Y140.321 E4.69277
G1 X152.740 Y140.588 E4.71027
G1 X149.583 Y140.588 E4.84526
G1 X150.252 Y140.882 E4.87648
G1 X150.442 Y140.990 E4.88584
G1 X153.206 Y140.990 E5.00398
G1 X153.671 Y141.391 E5.03025
G1 X151.152 Y141.391 E5.13795
G1 X151.652 Y141.792 E5.16535
G1 X154.136 Y141.792 E5.27157
G1 X154.301 Y141.934 E5.28088
G1 X154.535 Y142.193 E5.29581
G1 X152.149 Y142.193 E5.39785
G1 X152.646 Y142.595 E5.42516
G1 X154.942 Y142.595 E5.52334
G1 X155.152 Y142.769 E5.53499
G1 X155.616 Y142.996 E5.55708
G1 X153.093 Y142.996 E5.66497
G1 X153.447 Y143.397 E5.68787
G1 X163.149 Y143.397 E6.10263
G1 X163.149 Y143.798 E6.11978
G1 X153.791 Y143.798 E6.51987
G1 X154.119 Y144.200 E6.54203
G1 X163.149 Y144.200 E6.92809
G1 X163.149 Y144.601 E6.94524
G1 X154.623 Y144.601 E7.30974
G1 X154.963 Y144.731 E7.32527
G1 X156.483 Y144.807 E7.39038
G1 X157.148 Y144.952 E7.41944
G1 X157.244 Y145.002 E7.42408
G1 X163.149 Y145.002 E7.67654
G1 X163.149 Y145.403 E7.69369
G1 X157.752 Y145.403 E7.92442
G1 X158.033 Y145.805 E7.94536
G1 X163.149 Y145.805 E8.16409
G1 X163.149 Y146.206 E8.18124
G1 X158.313 Y146.206 E8.38798
G1 X158.489 Y146.477 E8.40178
G1 X158.481 Y146.607 E8.40736
G1 X163.149 Y146.607 E8.60693
G1 X163.149 Y147.008 E8.62409
G1 X158.456 Y147.008 E8.82472
G1 X158.447 Y147.115 E8.82928
G1 X158.277 Y147.404 E8.84364
G1 X163.149 Y147.410 E9.05193
G1 X163.149 Y147.811 E9.06909
G1 X157.804 Y147.811 E9.29760
G1 X157.622 Y147.940 E9.30714
G1 X157.096 Y148.148 E9.33130
G1 X156.626 Y148.200 E9.35151
G1 X153.330 Y148.212 E9.49244
G1 X163.149 Y148.212 E9.91222
G1 X163.149 Y148.614 E9.92938
G1 X152.664 Y148.614 E10.37762
G1 X152.628 Y148.673 E10.38061
G1 X152.617 Y149.015 E10.39522
G1 X163.149 Y149.015 E10.84547
G1 X163.149 Y149.416 E10.86263
G1 X152.605 Y149.416 E11.31340
G1 X152.593 Y149.817 E11.33057
G1 X163.149 Y149.817 E11.78187
G1 X163.149 Y150.219 E11.79902
G1 X152.581 Y150.219 E12.25084
G1 X152.568 Y150.620 E12.26801
G1 X163.149 Y150.620 E12.72036
G1 X163.149 Y151.021 E12.73751
G1 X152.556 Y151.021 E13.19038
G1 X152.555 Y151.046 E13.19145
G1 X152.692 Y151.422 E13.20856
G1 X163.149 Y151.422 E13.65564
G1 X163.149 Y151.824 E13.67280
G1 X156.839 Y151.824 E13.94256
G1 X157.086 Y151.851 E13.95320
G1 X157.452 Y151.966 E13.96960
G1 X157.833 Y152.225 E13.98930
G1 X163.149 Y152.225 E14.21655
G1 X163.149 Y152.626 E14.23370
G1 X158.287 Y152.626 E14.44157
G1 X158.457 Y152.934 E14.45660
G1 X158.459 Y153.027 E14.46059
G1 X163.149 Y153.027 E14.66110
G1 X163.149 Y153.429 E14.67825
G1 X158.469 Y153.429 E14.87832
G1 X158.467 Y153.536 E14.88293
G1 X158.351 Y153.830 E14.89643
G1 X163.149 Y153.830 E15.10154
G1 X163.149 Y154.231 E15.11870
G1 X158.155 Y154.231 E15.33220
G1 X157.810 Y154.632 E15.35484
G1 X163.149 Y154.632 E15.58311
G1 X163.149 Y155.034 E15.60026
G1 X157.149 Y155.034 E15.85677
G1 X156.922 Y155.121 E15.86716
G1 X156.476 Y155.193 E15.88647
G1 X155.346 Y155.206 E15.93482
G1 X154.967 Y155.266 E15.95121
G1 X154.618 Y155.401 E15.96720
G1 X154.574 Y155.435 E15.96957
G1 X163.149 Y155.435 E16.33616
G1 X163.149 Y155.836 E16.35332
G1 X154.086 Y155.836 E16.74077
G1 X153.743 Y156.237 E16.76333
G1 X163.149 Y156.237 E17.16544
G1 X163.149 Y156.639 E17.18259
G1 X153.401 Y156.639 E17.59935
G1 X153.058 Y157.040 E17.62192
G1 X155.575 Y157.040 E17.72953
G1 X155.833 Y156.940 E17.74138
G1 X156.237 Y156.878 E17.75884
G1 X156.622 Y156.895 E17.77533
G1 X157.074 Y157.040 E17.79558
G1 X163.149 Y157.040 E18.05532
G1 X163.149 Y157.441 E18.07247
G1 X157.777 Y157.441 E18.30212
G1 X157.931 Y157.552 E18.31024
G1 X158.151 Y157.842 E18.32581
G1 X163.149 Y157.842 E18.53948
G1 X163.149 Y158.244 E18.55663
G1 X158.367 Y158.244 E18.76109
G1 X158.455 Y158.448 E18.77063
G1 X158.485 Y158.645 E18.77912
G1 X163.149 Y158.645 E18.97851
G1 X163.149 Y159.046 E18.99566
G1 X158.547 Y159.046 E19.19243
G1 X158.548 Y159.447 E19.20958
G1 X163.149 Y159.447 E19.40627
G1 X163.149 Y159.849 E19.42343
G1 X158.548 Y159.849 E19.62012
G1 X158.548 Y160.250 E19.63727
G1 X163.149 Y160.250 E19.83396
G1 X163.149 Y160.651 E19.85112
G1 X158.548 Y160.651 E20.04781
G1 X158.548 Y161.052 E20.06497
G1 X163.149 Y161.052 E20.26166
G1 X163.149 Y161.454 E20.27881
G1 X158.548 Y161.454 E20.47550
G1 X158.548 Y161.855 E20.49266
G1 X163.149 Y161.855 E20.68935
G1 X163.149 Y162.256 E20.70650
G1 X158.548 Y162.256 E20.90320
G1 X158.548 Y162.657 E20.92035
G1 X163.149 Y162.657 E21.11704
G1 X163.149 Y163.059 E21.13420
G1 X158.548 Y163.059 E21.33089
G1 X158.548 Y163.460 E21.34804
G1 X163.149 Y163.460 E21.54473
G1 X163.149 Y163.861 E21.56189
G1 X158.548 Y163.861 E21.75858
G1 X158.548 Y164.262 E21.77573
G1 X163.149 Y164.262 E21.97243
G1 X163.149 Y164.664 E21.98958
G1 X158.548 Y164.664 E22.18627
G1 X158.548 Y165.065 E22.20343
G1 X163.149 Y165.065 E22.40012
G1 X163.149 Y165.466 E22.41727
G1 X158.548 Y165.466 E22.61396
G1 X158.548 Y165.867 E22.63112
G1 X163.149 Y165.867 E22.82781
G1 X163.149 Y166.269 E22.84497
G1 X158.548 Y166.269 E23.04166
G1 X158.548 Y166.670 E23.05881
G1 X163.149 Y166.670 E23.25550
G1 X163.149 Y167.071 E23.27266
G1 X158.548 Y167.071 E23.46935
G1 X158.548 Y167.472 E23.48650
G1 X163.149 Y167.472 E23.68320
G1 X163.149 Y167.874 E23.70035
G1 X158.548 Y167.874 E23.89704
G1 X158.548 Y168.275 E23.91420
G1 X163.149 Y168.275 E24.11089
G1 X163.149 Y168.676 E24.12804
G1 X158.548 Y168.676 E24.32473
G1 X158.548 Y169.077 E24.34189
G1 X163.149 Y169.077 E24.53858
G1 X163.149 Y169.479 E24.55574
G1 X158.548 Y169.479 E24.75243
G1 X158.548 Y169.880 E24.76958
G1 X163.149 Y169.880 E24.96627
G1 X163.149 Y170.281 E24.98343
G1 X158.548 Y170.281 E25.18012
G1 X158.548 Y170.682 E25.19727
G1 X163.149 Y170.682 E25.39397
G1 X163.149 Y171.084 E25.41112
G1 X158.548 Y171.084 E25.60781
G1 X158.548 Y171.485 E25.62497
G1 X163.149 Y171.485 E25.82166
G1 X163.149 Y171.886 E25.83881
G1 X158.548 Y171.886 E26.03550
G1 X158.548 Y172.287 E26.05266
G1 X163.149 Y172.287 E26.24935
G1 X163.149 Y172.689 E26.26651
G1 X158.548 Y172.689 E26.46320
G1 X158.548 Y173.090 E26.48035
G1 X163.149 Y173.090 E26.67704
G1 X163.149 Y173.491 E26.69420
G1 X158.548 Y173.491 E26.89089
G1 X158.548 Y173.892 E26.90804
G1 X163.149 Y173.892 E27.10474
G1 X163.149 Y174.294 E27.12189
G1 X158.548 Y174.294 E27.31858
G1 X158.548 Y174.695 E27.33574
G1 X163.149 Y174.695 E27.53243
G1 X163.149 Y175.096 E27.54958
G1 X158.548 Y175.096 E27.74627
G1 X158.548 Y175.497 E27.76343
G1 X163.149 Y175.497 E27.96012
G1 X163.143 Y175.899 E27.97728
G1 E25.97728 F2400.00000
G92 E0
G1 X155.575 Y157.040 F7800.000
G1 E2.00000 F2400.00000
G1 F2400.000
G1 X155.315 Y157.140 E2.01192
G1 X154.911 Y157.441 E2.03346
G1 X152.602 Y157.441 E2.13214
G1 X152.105 Y157.842 E2.15945
G1 X154.494 Y157.842 E2.26155
G1 X154.117 Y158.244 E2.28508
G1 X151.608 Y158.244 E2.39234
G1 X151.170 Y158.598 E2.41644
G1 X151.086 Y158.645 E2.42055
G1 X153.707 Y158.645 E2.53263
G1 X153.257 Y159.046 E2.55842
G1 X150.332 Y159.046 E2.68347
G1 X149.783 Y159.338 E2.71005
G1 X149.508 Y159.447 E2.72271
G1 X152.733 Y159.447 E2.86062
G1 X152.421 Y159.687 E2.87743
G1 X152.163 Y159.849 E2.89048
G1 X148.263 Y159.849 E3.05721
G1 E1.05721 F2400.00000
G92 E0
G1 X142.870 Y161.454 F7800.000
G1 E2.00000 F2400.00000
G1 F2400.000
G1 X148.402 Y161.454 E2.23650
G1 X149.193 Y161.267 E2.27127
G1 X149.759 Y161.052 E2.29712
G1 X141.599 Y161.052 E2.64598
G1 X140.636 Y160.651 E2.69057
G1 X150.736 Y160.651 E3.12238
G1 X151.522 Y160.250 E3.16009
G1 X139.871 Y160.250 E3.65818
G1 X139.510 Y160.060 E3.67563
G1 X138.710 Y160.245 E3.71075
G1 X138.049 Y160.139 E3.73934
G1 X137.571 Y159.886 E3.76249
G1 X137.540 Y159.849 E3.76457
G1 X143.159 Y159.849 E4.00483
G1 X142.659 Y159.737 E4.02672
G1 X141.923 Y159.447 E4.06057
G1 X137.206 Y159.447 E4.26221
G1 X137.038 Y159.246 E4.27343
G1 X136.966 Y159.046 E4.28251
G1 X141.007 Y159.046 E4.45530
G1 X140.455 Y158.762 E4.48186
G1 X140.442 Y158.645 E4.48691
G1 X136.895 Y158.645 E4.63853
G1 X136.878 Y158.244 E4.65570
G1 X140.396 Y158.244 E4.80609
G1 X140.358 Y157.905 E4.82066
G1 X140.330 Y157.842 E4.82360
G1 X137.000 Y157.842 E4.96593
G1 X137.133 Y157.494 E4.98184
G1 X137.176 Y157.441 E4.98478
G1 X140.109 Y157.441 E5.11016
G1 X139.787 Y157.068 E5.13123
G1 X139.738 Y157.040 E5.13362
G1 X137.584 Y157.040 E5.22574
G1 X137.880 Y156.830 E5.24126
G1 X138.360 Y156.678 E5.26279
G1 X138.974 Y156.685 E5.28903
G1 X139.265 Y156.767 E5.30196
G1 X139.738 Y157.040 E5.32531
G1 E3.32531 F2400.00000
G92 E0
G1 X157.090 Y142.996 F7800.000
G1 E2.00000 F2400.00000
G1 F2400.000
G1 X163.149 Y142.996 E2.25901
G1 X163.149 Y142.595 E2.27617
G1 X157.709 Y142.595 E2.50876
G1 X158.043 Y142.193 E2.53110
G1 X163.149 Y142.193 E2.74937
G1 X163.149 Y141.792 E2.76653
G1 X158.365 Y141.792 E2.97103
G1 X158.487 Y141.391 E2.98896
G1 X163.149 Y141.391 E3.18826
G1 X163.149 Y140.990 E3.20541
G1 X158.543 Y140.990 E3.40234
G1 X158.548 Y140.588 E3.41949
G1 X163.149 Y140.588 E3.61618
G1 X163.149 Y140.187 E3.63334
G1 X158.548 Y140.187 E3.83003
G1 X158.548 Y139.786 E3.84719
G1 X163.149 Y139.786 E4.04388
G1 X163.149 Y139.385 E4.06103
G1 X158.548 Y139.385 E4.25772
G1 X158.548 Y138.983 E4.27488
G1 X163.149 Y138.983 E4.47157
G1 X163.149 Y138.582 E4.48872
G1 X158.548 Y138.582 E4.68542
G1 X158.548 Y138.181 E4.70257
G1 X163.149 Y138.181 E4.89926
G1 X163.149 Y137.780 E4.91642
G1 X158.548 Y137.780 E5.11311
G1 X158.548 Y137.378 E5.13026
G1 X163.149 Y137.378 E5.32695
G1 X163.149 Y136.977 E5.34411
G1 X158.548 Y136.977 E5.54080
G1 X158.548 Y136.576 E5.55795
G1 X163.149 Y136.576 E5.75465
G1 X163.149 Y136.175 E5.77180
G1 X158.548 Y136.175 E5.96849
G1 X158.548 Y135.773 E5.98565
G1 X163.149 Y135.773 E6.18234
G1 X163.149 Y135.372 E6.19949
G1 X158.548 Y135.372 E6.39618
G1 X158.548 Y134.971 E6.41334
G1 X163.149 Y134.971 E6.61003
G1 X163.149 Y134.570 E6.62719
G1 X158.548 Y134.570 E6.82388
G1 X158.548 Y134.168 E6.84103
G1 X163.149 Y134.168 E7.03772
G1 X163.149 Y133.767 E7.05488
G1 X158.548 Y133.767 E7.25157
G1 X158.548 Y133.366 E7.26872
G1 X163.149 Y133.366 E7.46542
G1 X163.149 Y132.965 E7.48257
G1 X158.548 Y132.965 E7.67926
G1 X158.548 Y132.563 E7.69642
G1 X163.149 Y132.563 E7.89311
G1 X163.149 Y132.162 E7.91026
G1 X158.548 Y132.162 E8.10695
G1 X158.548 Y131.761 E8.12411
G1 X163.149 Y131.761 E8.32080
G1 X163.149 Y131.360 E8.33796
G1 X158.548 Y131.360 E8.53465
G1 X158.548 Y130.958 E8.55180
G1 X163.149 Y130.958 E8.74849
G1 X163.149 Y130.557 E8.76565
G1 X158.548 Y130.557 E8.96234
G1 X158.548 Y130.156 E8.97949
G1 X163.149 Y130.156 E9.17619
G1 X163.149 Y129.755 E9.19334
G1 X158.548 Y129.755 E9.39003
G1 X158.548 Y129.353 E9.40719
G1 X163.149 Y129.353 E9.60388
G1 X163.149 Y128.952 E9.62103
G1 X158.548 Y128.952 E9.81772
G1 X158.548 Y128.551 E9.83488
G1 X163.149 Y128.551 E10.03157
G1 X163.149 Y128.150 E10.04873
G1 X158.548 Y128.150 E10.24542
G1 X158.548 Y127.748 E10.26257
G1 X163.149 Y127.748 E10.45926
G1 X163.149 Y127.347 E10.47642
G1 X158.548 Y127.347 E10.67311
G1 X158.548 Y126.946 E10.69026
G1 X163.149 Y126.946 E10.88696
G1 X163.149 Y126.545 E10.90411
G1 X158.548 Y126.545 E11.10080
G1 X158.548 Y126.143 E11.11796
G1 X163.149 Y126.143 E11.31465
G1 X163.149 Y125.742 E11.33180
G1 X158.548 Y125.742 E11.52849
G1 X158.548 Y125.341 E11.54565
G1 X163.149 Y125.341 E11.74234
G1 X163.149 Y124.940 E11.75949
G1 X158.548 Y124.940 E11.95619
G1 X158.548 Y124.538 E11.97334
G1 X163.149 Y124.538 E12.17003
G1 X163.149 Y124.154 E12.18645
G1 X162.311 Y124.137 E12.22228
G1 X162.338 Y124.137 E12.22341
G1 Z0.250 F7800.000
G1 Z0.500 F7800.000
G1 X158.294 Y146.167 F7800.000
G1 F2400.000
G1 X158.294 Y141.897 E12.40596
G1 X157.890 Y142.382 E12.43295
G1 X157.890 Y145.589 E12.57005
G1 X157.650 Y145.248 E12.58785
G1 X157.650 Y145.214 E12.58930
G1 X157.485 Y145.128 E12.59726
G1 X157.485 Y142.796 E12.69695
G1 X157.080 Y142.995 E12.71621
G1 X157.080 Y144.937 E12.79924
G1 X156.676 Y144.849 E12.81694
G1 X156.676 Y143.038 E12.89436
G1 X156.271 Y143.075 E12.91173
G1 X156.271 Y144.797 E12.98536
G1 X155.867 Y144.777 E13.00268
G1 X155.867 Y143.063 E13.07595
G1 X155.604 Y142.993 E13.08756
G1 X155.462 Y142.922 E13.09434
G1 X155.462 Y144.757 E13.17276
G1 X155.058 Y144.736 E13.19007
G1 X155.058 Y142.690 E13.27754
G1 X154.767 Y142.450 E13.29367
G1 X154.653 Y142.324 E13.30092
G1 X154.653 Y144.612 E13.39872
G1 X154.249 Y144.317 E13.42011
G1 X154.249 Y141.887 E13.52403
G1 X153.844 Y141.538 E13.54687
G1 X153.844 Y143.865 E13.64636
G1 X153.439 Y143.388 E13.67310
G1 X153.439 Y141.189 E13.76711
G1 X153.035 Y140.840 E13.78995
G1 X153.035 Y142.930 E13.87934
G1 X152.905 Y142.799 E13.88721
G1 X152.630 Y142.582 E13.90219
G1 X152.630 Y140.491 E13.99161
G1 X152.460 Y140.344 E14.00120
G1 X152.226 Y140.199 E14.01301
G1 X152.226 Y142.256 E14.10094
G1 X151.821 Y141.929 E14.12317
G1 X151.821 Y139.948 E14.20787
G1 X151.417 Y139.697 E14.22822
G1 X151.417 Y141.603 E14.30968
G1 X151.161 Y141.396 E14.32375
G1 X151.012 Y141.312 E14.33104
G1 X151.012 Y139.478 E14.40945
G1 X150.608 Y139.282 E14.42866
G1 X150.608 Y141.083 E14.50566
G1 X150.203 Y140.860 E14.52540
G1 X150.203 Y139.108 E14.60034
G1 X149.799 Y138.942 E14.61903
G1 X149.799 Y140.683 E14.69346
G1 X149.394 Y140.505 E14.71235
G1 X149.394 Y138.806 E14.78501
G1 X148.989 Y138.676 E14.80317
G1 X148.989 Y140.364 E14.87535
G1 X148.585 Y140.234 E14.89352
G1 X148.585 Y138.570 E14.96466
G1 X148.180 Y138.468 E14.98249
G1 X148.180 Y140.117 E15.05297
G1 X147.776 Y140.024 E15.07072
G1 X147.776 Y138.396 E15.14032
G1 X147.371 Y138.327 E15.15786
G1 X147.371 Y139.946 E15.22710
G1 X146.967 Y139.889 E15.24457
G1 X146.967 Y138.288 E15.31303
G1 X146.562 Y138.255 E15.33039
G1 X146.562 Y139.858 E15.39894
G1 X146.158 Y139.856 E15.41623
G1 X146.158 Y138.221 E15.48610
G1 X145.937 Y138.203 E15.49555
G1 X145.753 Y138.212 E15.50344
G1 X145.753 Y139.853 E15.57360
G1 X145.348 Y139.851 E15.59089
G1 X145.348 Y138.233 E15.66008
G1 X144.944 Y138.253 E15.67740
G1 X144.944 Y139.848 E15.74561
G1 X144.752 Y139.847 E15.75380
