; generated by Slic3r 1.3.1-dev (Build 8c69278) on 2021-12-10 at 13:24:53

; external perimeters extrusion width = 0.45mm (3.99mm^3/s)
; perimeters extrusion width = 0.45mm (3.99mm^3/s)
; infill extrusion width = 0.45mm (3.99mm^3/s)
; solid infill extrusion width = 0.45mm (4.99mm^3/s)
; top infill extrusion width = 0.45mm (3.00mm^3/s)
; support material extrusion width = 0.45mm (4.99mm^3/s)

M107
G92 E0
M104 S205 ; set temperature
G28 ; home all axes
G1 Z5 F5000 ; lift nozzle

; Filament gcode

M109 S205 ; set temperature and wait for it to be reached
G21 ; set units to millimeters
G90 ; use absolute coordinates
M82 ; use absolute distances for extrusion
G92 E0
G1 Z0.250 F7800.000
G1 E-2.00000 F2400.00000
G92 E0
G1 X95.200 Y149.996 F7800.000
G1 E2.00000 F2400.00000
G1 F2400.000
G1 X95.224 Y150.849 E2.03649
G1 X95.297 Y151.696 E2.07283
G1 X95.419 Y152.537 E2.10916
G1 X95.600 Y153.413 E2.14738
G1 X95.600 Y146.587 E2.43920
G1 X95.806 Y145.807 E2.47366
G1 X96.000 Y145.214 E2.50035
G1 X96.000 Y154.785 E2.90955
G1 X96.400 Y155.834 E2.95756
G1 X96.400 Y144.165 E3.45647
G1 X96.800 Y143.313 E3.49668
G1 X96.800 Y156.686 E4.06839
G1 X97.200 Y157.423 E4.10426
G1 X97.200 Y142.576 E4.73903
G1 X97.600 Y141.922 E4.77180
G1 X97.600 Y158.077 E5.46248
G1 X98.000 Y158.658 E5.49263
G1 X98.000 Y141.341 E6.23298
G1 X98.400 Y140.817 E6.26117
G1 X98.400 Y159.182 E7.04634
G1 X98.800 Y159.666 E7.07316
G1 X98.800 Y140.334 E7.89966
G1 X99.200 Y139.883 E7.92540
G1 X99.200 Y160.116 E8.79039
G1 X99.600 Y160.524 E8.81482
G1 X99.600 Y139.475 E9.71470
G1 X100.000 Y139.097 E9.73824
G1 X100.000 Y160.902 E10.67048
G1 X100.400 Y161.262 E10.69349
G1 X100.400 Y138.737 E11.65650
G1 X100.800 Y138.413 E11.67850
G1 X100.800 Y161.586 E12.66920
G1 X101.200 Y161.894 E12.69077
G1 X101.200 Y138.106 E13.70777
G1 X101.600 Y137.818 E13.72883
G1 X101.600 Y162.181 E14.77041
G1 X102.000 Y162.444 E14.79088
G1 X102.000 Y137.555 E15.85498
G1 X102.400 Y137.301 E15.87524
G1 X102.400 Y148.800 E16.36685
G1 X102.431 Y148.586 E16.37609
G1 X102.568 Y147.989 E16.40227
G1 X102.800 Y147.281 E16.43413
G1 X102.800 Y137.076 E16.87044
G1 X103.200 Y136.855 E16.88997
G1 X103.200 Y146.399 E17.29799
G1 X103.600 Y145.720 E17.33167
G1 X103.600 Y136.661 E17.71894
G1 X104.000 Y136.472 E17.73786
G1 X104.000 Y145.176 E18.10997
G1 X104.400 Y144.716 E18.13604
G1 X104.400 Y136.306 E18.49557
G1 X104.800 Y136.143 E18.51404
G1 X104.800 Y144.324 E18.86381
G1 X105.200 Y143.985 E18.88621
G1 X105.200 Y135.990 E19.22803
G1 X105.600 Y135.837 E19.24634
G1 X105.600 Y143.689 E19.58200
G1 X106.000 Y143.427 E19.60244
G1 X106.000 Y135.685 E19.93344
G1 X106.400 Y135.532 E19.95174
G1 X106.400 Y143.194 E20.27932
G1 X106.800 Y143.002 E20.29830
G1 X106.800 Y135.379 E20.62418
G1 X107.200 Y135.227 E20.64249
G1 X107.200 Y142.834 E20.96771
G1 X107.600 Y142.686 E20.98594
G1 X107.600 Y135.074 E21.31138
G1 X108.000 Y134.921 E21.32968
G1 X108.000 Y142.569 E21.65663
G1 X108.400 Y142.474 E21.67420
G1 X108.400 Y134.769 E22.00364
G1 X108.800 Y134.616 E22.02195
G1 X108.800 Y142.396 E22.35456
G1 X109.200 Y142.347 E22.37179
G1 X109.200 Y134.463 E22.70883
G1 X109.600 Y134.310 E22.72713
G1 X109.600 Y142.316 E23.06939
G1 X110.000 Y142.300 E23.08651
G1 X110.000 Y134.158 E23.43461
G1 X110.400 Y134.005 E23.45292
G1 X110.400 Y142.316 E23.80823
G1 X110.800 Y142.347 E23.82538
G1 X110.800 Y133.852 E24.18853
G1 X111.200 Y133.700 E24.20683
G1 X111.200 Y142.396 E24.57861
G1 X111.600 Y142.474 E24.59604
G1 X111.600 Y133.547 E24.97770
G1 X112.000 Y133.394 E24.99600
G1 X112.000 Y142.569 E25.38822
G1 X112.400 Y142.686 E25.40605
G1 X112.400 Y133.242 E25.80982
G1 X112.800 Y133.089 E25.82812
G1 X112.800 Y142.834 E26.24473
G1 X113.200 Y143.001 E26.26327
G1 X113.200 Y132.936 E26.69359
G1 X113.600 Y132.784 E26.71189
G1 X113.600 Y143.194 E27.15697
G1 X114.000 Y143.426 E27.17674
G1 X114.000 Y132.631 E27.63828
G1 X114.400 Y132.478 E27.65658
G1 X114.400 Y143.688 E28.13585
G1 X114.800 Y143.985 E28.15714
G1 X114.800 Y132.326 E28.65561
G1 X115.200 Y132.173 E28.67392
G1 X115.200 Y144.324 E29.19339
G1 X115.600 Y144.715 E29.21733
G1 X115.600 Y132.020 E29.76009
G1 X116.000 Y131.868 E29.77839
G1 X116.000 Y145.176 E30.34735
G1 X116.400 Y145.719 E30.37621
G1 X116.400 Y131.715 E30.97495
G1 X116.800 Y131.562 E30.99325
G1 X116.800 Y146.398 E31.62753
G1 X117.007 Y146.808 E31.64717
G1 X117.200 Y147.281 E31.66899
G1 X117.200 Y131.410 E32.34752
G1 X117.600 Y131.257 E32.36582
G1 X117.600 Y148.798 E33.11577
G1 E31.11577 F2400.00000
G92 E0
G1 X102.400 Y151.211 F7800.000
G1 E2.00000 F2400.00000
G1 F2400.000
G1 X102.400 Y162.698 E2.49113
G1 X102.800 Y162.923 E2.51075
G1 X102.800 Y152.712 E2.94730
G1 X102.875 Y152.917 E2.95662
G1 X103.200 Y153.602 E2.98905
G1 X103.200 Y163.144 E3.39699
G1 X103.600 Y163.338 E3.41599
G1 X103.600 Y154.269 E3.80370
G1 X103.794 Y154.557 E3.81855
G1 X104.000 Y154.815 E3.83266
G1 X104.000 Y163.527 E4.20512
G1 X104.400 Y163.693 E4.22364
G1 X104.400 Y155.275 E4.58354
G1 X104.800 Y155.670 E4.60757
G1 X104.800 Y163.857 E4.95758
G1 X105.200 Y164.009 E4.97588
G1 X105.200 Y156.014 E5.31770
G1 X105.600 Y156.317 E5.33915
G1 X105.600 Y164.162 E5.67454
G1 X106.000 Y164.315 E5.69284
G1 X106.000 Y156.574 E6.02377
G1 X106.400 Y156.799 E6.04338
G1 X106.400 Y164.467 E6.37123
G1 X106.800 Y164.620 E6.38954
G1 X106.800 Y156.998 E6.71540
G1 X107.200 Y157.171 E6.73403
G1 X107.200 Y164.773 E7.05904
G1 X107.600 Y164.925 E7.07734
G1 X107.600 Y157.310 E7.40294
G1 X108.000 Y157.430 E7.42080
G1 X108.000 Y165.078 E7.74778
G1 X108.400 Y165.231 E7.76608
G1 X108.400 Y157.530 E8.09532
G1 X108.800 Y157.599 E8.11268
G1 X108.800 Y165.383 E8.44547
G1 X109.200 Y165.536 E8.46378
G1 X109.200 Y157.653 E8.80079
G1 X109.600 Y157.686 E8.81795
G1 X109.600 Y165.689 E9.16008
G1 X110.000 Y165.841 E9.17839
G1 X110.000 Y157.693 E9.52675
G1 X110.400 Y157.686 E9.54385
G1 X110.400 Y165.994 E9.89904
G1 X110.800 Y166.147 E9.91735
G1 X110.800 Y157.653 E10.28047
G1 X111.200 Y157.599 E10.29772
G1 X111.200 Y166.299 E10.66969
G1 X111.600 Y166.452 E10.68799
G1 X111.600 Y157.530 E11.06945
G1 X112.000 Y157.430 E11.08707
G1 X112.000 Y166.605 E11.47932
G1 X112.400 Y166.758 E11.49763
G1 X112.400 Y157.310 E11.90156
G1 X112.800 Y157.171 E11.91966
G1 X112.800 Y166.910 E12.33604
G1 X113.200 Y167.063 E12.35435
G1 X113.200 Y156.998 E12.78465
G1 X113.600 Y156.799 E12.80375
G1 X113.600 Y167.216 E13.24909
G1 X114.000 Y167.368 E13.26739
G1 X114.000 Y156.574 E13.72886
G1 X114.400 Y156.317 E13.74919
G1 X114.400 Y167.521 E14.22818
G1 X114.800 Y167.674 E14.24649
G1 X114.800 Y156.014 E14.74495
G1 X115.200 Y155.670 E14.76751
G1 X115.200 Y167.826 E15.28723
G1 X115.600 Y167.979 E15.30553
G1 X115.600 Y155.275 E15.84865
G1 X116.000 Y154.815 E15.87471
G1 X116.000 Y168.132 E16.44402
G1 X116.400 Y168.284 E16.46232
G1 X116.400 Y154.269 E17.06149
G1 X116.565 Y154.023 E17.07419
G1 X116.800 Y153.603 E17.09476
G1 X116.800 Y168.437 E17.72897
G1 X117.200 Y168.590 E17.74728
G1 X117.200 Y152.713 E18.42605
G1 X117.344 Y152.312 E18.44429
G1 X117.505 Y151.721 E18.47047
G1 X117.600 Y151.212 E18.49260
G1 X117.600 Y168.742 E19.24208
G1 X118.000 Y168.895 E19.26038
G1 X118.000 Y131.104 E20.87605
G1 X118.400 Y130.952 E20.89435
G1 X118.400 Y169.048 E22.52307
G1 X118.800 Y169.200 E22.54138
G1 X118.800 Y130.799 E24.18315
G1 X119.200 Y130.646 E24.20146
G1 X119.200 Y169.353 E25.85629
G1 X119.600 Y169.506 E25.87459
G1 X119.600 Y130.493 E27.54248
G1 X120.000 Y130.341 E27.56078
G1 X120.000 Y169.658 E29.24173
G1 X120.400 Y169.811 E29.26003
G1 X120.400 Y130.188 E30.95403
G1 X120.800 Y130.035 E30.97233
G1 X120.800 Y169.964 E32.67938
G1 X121.200 Y170.117 E32.69769
G1 X121.200 Y129.883 E34.41779
G1 X121.600 Y129.730 E34.43610
G1 X121.600 Y170.269 E36.16926
G1 X122.000 Y170.422 E36.18757
G1 X122.000 Y129.577 E37.93378
G1 X122.400 Y129.425 E37.95209
G1 X122.400 Y170.575 E39.71136
G1 X122.800 Y170.727 E39.72966
G1 X122.800 Y129.272 E41.50199
G1 X123.200 Y129.119 E41.52030
G1 X123.200 Y170.880 E43.30568
G1 X123.600 Y171.033 E43.32398
G1 X123.600 Y128.967 E45.12242
G1 X124.000 Y128.814 E45.14073
G1 X124.000 Y171.185 E46.95222
G1 X124.400 Y171.338 E46.97052
G1 X124.400 Y128.661 E48.79507
G1 X124.800 Y128.509 E48.81338
G1 X124.800 Y171.491 E50.65098
G1 X125.200 Y171.643 E50.66928
G1 X125.200 Y128.356 E52.51994
G1 X125.600 Y128.203 E52.53825
G1 X125.600 Y171.796 E54.40196
G1 X126.000 Y171.949 E54.42026
G1 X126.000 Y128.051 E56.29703
G1 X126.400 Y127.898 E56.31534
G1 X126.400 Y172.101 E58.20516
G1 X126.800 Y172.254 E58.22346
G1 X126.800 Y127.745 E60.12634
G1 X127.200 Y127.593 E60.14465
G1 X127.200 Y172.407 E62.06058
G1 X127.600 Y172.559 E62.07888
G1 X127.600 Y153.671 E62.88644
G1 X127.456 Y152.654 E62.93031
G1 X127.356 Y151.595 E62.97581
G1 X127.307 Y150.532 E63.02131
G1 X127.307 Y149.467 E63.06681
G1 X127.356 Y148.404 E63.11231
G1 X127.456 Y147.345 E63.15781
G1 X127.600 Y146.329 E63.20169
G1 X127.600 Y127.440 E64.00924
G1 X128.000 Y127.287 E64.02754
G1 X128.000 Y144.424 E64.76019
G1 X128.400 Y143.031 E64.82215
G1 X128.400 Y127.134 E65.50176
G1 X128.800 Y126.982 E65.52007
G1 X128.800 Y141.900 E66.15786
G1 X129.200 Y140.922 E66.20304
G1 X129.200 Y126.829 E66.80554
G1 X129.600 Y126.676 E66.82385
G1 X129.600 Y140.052 E67.39570
G1 X130.000 Y139.263 E67.43352
G1 X130.000 Y126.524 E67.97817
G1 X130.400 Y126.371 E67.99647
G1 X130.400 Y138.558 E68.51750
G1 X130.800 Y137.902 E68.55034
G1 X130.800 Y126.218 E69.04985
G1 X131.200 Y126.066 E69.06815
G1 X131.200 Y137.285 E69.54780
G1 X131.600 Y136.712 E69.57767
G1 X131.600 Y125.913 E70.03936
G1 X132.000 Y125.760 E70.05766
G1 X132.000 Y136.180 E70.50311
G1 X132.400 Y135.667 E70.53092
G1 X132.400 Y125.608 E70.96097
G1 X132.800 Y125.455 E70.97928
G1 X132.800 Y135.195 E71.39568
G1 X133.200 Y134.741 E71.42156
G1 X133.200 Y125.302 E71.82508
G1 X133.600 Y125.150 E71.84338
G1 X133.600 Y134.311 E72.23508
G1 X134.000 Y133.905 E72.25945
G1 X134.000 Y124.997 E72.64030
G1 X134.400 Y124.844 E72.65861
G1 X134.400 Y133.514 E73.02928
G1 X134.800 Y133.148 E73.05247
G1 X134.800 Y124.692 E73.41401
G1 X135.200 Y124.539 E73.43231
G1 X135.200 Y132.792 E73.78517
G1 X135.600 Y132.459 E73.80742
G1 X135.600 Y124.386 E74.15257
G1 X136.000 Y124.234 E74.17087
G1 X136.000 Y132.136 E74.50872
G1 X136.400 Y131.832 E74.53021
G1 X136.400 Y124.081 E74.86158
G1 X136.800 Y123.928 E74.87988
G1 X136.800 Y131.538 E75.20522
G1 X137.200 Y131.258 E75.22610
G1 X137.200 Y123.775 E75.54600
G1 X137.600 Y123.623 E75.56431
G1 X137.600 Y130.993 E75.87939
G1 X138.000 Y130.734 E75.89975
G1 X138.000 Y123.470 E76.21031
G1 X138.400 Y123.317 E76.22861
G1 X138.400 Y130.495 E76.53547
G1 X138.800 Y130.255 E76.55539
G1 X138.800 Y123.165 E76.85854
G1 X139.200 Y123.012 E76.87685
G1 X139.200 Y130.041 E77.17734
G1 X139.600 Y129.826 E77.19675
G1 X139.600 Y122.859 E77.49459
G1 X140.000 Y122.715 E77.51277
G1 X140.000 Y129.627 E77.80827
G1 X140.400 Y129.436 E77.82722
G1 X140.400 Y122.571 E78.12069
G1 X140.800 Y122.431 E78.13882
G1 X140.800 Y129.250 E78.43035
G1 X141.200 Y129.082 E78.44891
G1 X141.200 Y122.305 E78.73863
G1 X141.600 Y122.179 E78.75656
G1 X141.600 Y128.913 E79.04446
G1 X142.000 Y128.762 E79.06275
G1 X142.000 Y122.061 E79.34924
G1 X142.400 Y121.952 E79.36696
G1 X142.400 Y128.615 E79.65183
G1 X142.800 Y128.475 E79.66996
G1 X142.800 Y121.844 E79.95346
G1 X143.200 Y121.746 E79.97106
G1 X143.200 Y128.349 E80.25336
G1 X143.600 Y128.223 E80.27128
G1 X143.600 Y121.654 E80.55212
G1 X144.000 Y121.562 E80.56967
G1 X144.000 Y128.113 E80.84971
G1 X144.400 Y128.007 E80.86740
G1 X144.400 Y121.485 E81.14625
G1 X144.800 Y121.409 E81.16366
G1 X144.800 Y127.905 E81.44137
G1 X145.200 Y127.820 E81.45886
G1 X145.200 Y121.334 E81.73613
G1 X145.600 Y121.275 E81.75341
G1 X145.600 Y127.734 E82.02953
G1 X146.000 Y127.659 E82.04693
G1 X146.000 Y121.216 E82.32239
G1 X146.400 Y121.160 E82.33966
G1 X146.400 Y127.593 E82.61470
G1 X146.800 Y127.527 E82.63203
G1 X146.800 Y121.117 E82.90606
G1 X147.200 Y121.075 E82.92326
G1 X147.200 Y127.479 E83.19707
G1 X147.600 Y127.432 E83.21429
G1 X147.600 Y121.036 E83.48772
G1 X148.000 Y121.010 E83.50486
G1 X148.000 Y127.391 E83.77767
G1 X148.400 Y127.363 E83.79482
G1 X148.400 Y120.983 E84.06757
G1 X148.800 Y120.963 E84.08469
G1 X148.800 Y127.334 E84.35711
G1 X149.200 Y127.319 E84.37422
G1 X149.200 Y120.952 E84.64642
G1 X149.600 Y120.941 E84.66353
G1 X149.600 Y127.309 E84.93579
G1 X150.000 Y127.300 E84.95290
G1 X150.000 Y120.938 E85.22487
G1 X150.400 Y120.944 E85.24197
G1 X150.400 Y127.309 E85.51413
G1 X150.800 Y127.319 E85.53123
G1 X150.800 Y120.949 E85.80357
G1 X151.200 Y120.964 E85.82068
G1 X151.200 Y127.334 E86.09305
G1 X151.600 Y127.363 E86.11019
G1 X151.600 Y120.985 E86.38286
G1 X152.000 Y121.006 E86.39999
G1 X152.000 Y127.391 E86.67296
G1 X152.400 Y127.432 E86.69015
G1 X152.400 Y121.039 E86.96348
G1 X152.800 Y121.076 E86.98066
G1 X152.800 Y127.479 E87.25442
G1 X153.200 Y127.527 E87.27164
G1 X153.200 Y121.113 E87.54587
G1 X153.600 Y121.164 E87.56311
G1 X153.600 Y127.593 E87.83799
G1 X154.000 Y127.659 E87.85532
G1 X154.000 Y121.217 E88.13076
G1 X154.396 Y121.269 E88.14785
G1 X154.400 Y127.734 E88.42422
G1 X154.800 Y127.820 E88.44171
G1 X154.800 Y121.339 E88.71875
G1 X155.200 Y121.409 E88.73611
G1 X155.200 Y127.905 E89.01384
G1 X155.600 Y128.007 E89.03149
G1 X155.600 Y121.481 E89.31050
G1 X156.000 Y121.567 E89.32799
G1 X156.000 Y128.113 E89.60784
G1 X156.400 Y128.223 E89.62559
G1 X156.400 Y121.653 E89.90649
G1 X156.800 Y121.744 E89.92403
G1 X156.800 Y128.349 E90.20640
G1 X157.200 Y128.475 E90.22433
G1 X157.200 Y121.847 E90.50769
G1 X157.600 Y121.950 E90.52534
G1 X157.600 Y128.615 E90.81032
G1 X158.000 Y128.762 E90.82854
G1 X158.000 Y122.062 E91.11501
G1 X158.400 Y122.181 E91.13286
G1 X158.400 Y128.913 E91.42068
G1 X158.800 Y129.082 E91.43923
G1 X158.800 Y122.301 E91.72913
G1 X159.200 Y122.435 E91.74716
G1 X159.200 Y129.250 E92.03855
G1 X159.600 Y129.436 E92.05740
G1 X159.600 Y122.572 E92.35086
G1 X160.000 Y122.710 E92.36895
G1 X160.000 Y129.627 E92.66466
G1 X160.400 Y129.826 E92.68377
G1 X160.400 Y122.865 E92.98136
G1 X160.800 Y123.021 E92.99971
G1 X160.800 Y130.041 E93.29984
G1 X161.200 Y130.255 E93.31925
G1 X161.200 Y123.175 E93.62196
G1 X161.600 Y123.328 E93.64026
G1 X161.600 Y130.495 E93.94668
G1 X162.000 Y130.734 E93.96661
G1 X162.000 Y123.480 E94.27675
G1 X162.400 Y123.633 E94.29505
G1 X162.400 Y130.993 E94.60971
G1 X162.800 Y131.258 E94.63024
G1 X162.800 Y123.785 E94.94973
G1 X163.200 Y123.938 E94.96803
G1 X163.200 Y131.538 E95.29296
G1 X163.600 Y131.832 E95.31417
G1 X163.600 Y124.090 E95.64513
G1 X164.000 Y124.243 E95.66343
G1 X164.000 Y132.136 E96.00088
G1 X164.400 Y132.459 E96.02288
G1 X164.400 Y124.395 E96.36763
G1 X164.800 Y124.548 E96.38593
G1 X164.800 Y132.792 E96.73840
G1 X165.200 Y133.148 E96.76128
G1 X165.200 Y124.701 E97.12243
G1 X165.600 Y124.853 E97.14073
G1 X165.600 Y133.514 E97.51103
G1 X166.000 Y133.905 E97.53493
G1 X166.000 Y125.006 E97.91541
G1 X166.400 Y125.158 E97.93371
G1 X166.400 Y134.311 E98.32504
G1 X166.800 Y134.741 E98.35012
G1 X166.800 Y125.311 E98.75327
G1 X167.200 Y125.463 E98.77157
G1 X167.200 Y135.195 E99.18762
G1 X167.600 Y135.667 E99.21406
G1 X167.600 Y125.616 E99.64376
G1 X168.000 Y125.769 E99.66206
G1 X168.000 Y136.180 E100.10716
G1 X168.400 Y136.712 E100.13563
G1 X168.400 Y125.921 E100.59697
G1 X168.800 Y126.074 E100.61527
G1 X168.800 Y137.285 E101.09458
G1 X169.200 Y137.902 E101.12603
G1 X169.200 Y126.226 E101.62520
G1 X169.600 Y126.379 E101.64351
G1 X169.600 Y138.558 E102.16420
G1 X170.000 Y139.263 E102.19887
G1 X170.000 Y126.531 E102.74320
G1 X170.400 Y126.684 E102.76150
G1 X170.400 Y140.052 E103.33304
G1 X170.800 Y140.922 E103.37396
G1 X170.800 Y126.836 E103.97614
G1 X171.200 Y126.989 E103.99444
G1 X171.200 Y141.900 E104.63193
G1 X171.600 Y143.031 E104.68321
G1 X171.600 Y127.142 E105.36252
G1 X172.000 Y127.294 E105.38082
G1 X172.000 Y144.424 E106.11316
G1 X172.196 Y145.245 E106.14927
G1 X172.400 Y146.329 E106.19640
G1 X172.400 Y127.447 E107.00366
G1 X172.800 Y127.599 E107.02196
G1 X172.800 Y172.407 E108.93761
G1 X173.200 Y172.254 E108.95591
G1 X173.200 Y127.752 E110.85851
G1 X173.600 Y127.904 E110.87681
