; Generated by RP3 on 2021-12-11
; Job 0 - 3D Cloner

G21 ; set units to millimeters
M107 ;fan off
G28 ;home all axes
G90 ;absolute coordinates
G28 E0 ;home all axes
G1 E20.0 F100.0 ;extrude 20mm material with 100 mm/min speed
G28 E0 ;home all axes
G90 ;use absolute coordinates
M82 ; use absolute distances for extrusion
G92 E0 ;home of axes
M104 S90
G1 E-2.00000 F24000 ;retracts 2mm of material
M106 S102

(Layer 1)
G1  Z0.250 F2400

(Raster 1)
G92 E0
G1  X0000.650 Y0000.912 F2400
G1  E2.00000 F2400
G1  X0032.688 Y0000.912 E3.465 F2400
G1  X0032.688 Y0001.312 E3.483
G1  X0000.650 Y0001.312 E4.948
G1  X0000.650 Y0001.712 E4.966
G1  X0032.688 Y0001.712 E6.431
G1  X0032.688 Y0002.112 E6.449
G1  X0000.650 Y0002.112 E7.914
G1  X0000.650 Y0002.512 E7.932
G1  X0032.688 Y0002.512 E9.397
G1  X0032.688 Y0002.912 E9.415
G1  X0030.089 Y0002.912 E9.534
G1  X0030.089 Y0003.312 E9.552
G1  X0032.688 Y0003.312 E9.671
G1  X0032.688 Y0003.712 E9.689
G1  X0030.089 Y0003.712 E9.808
G1  X0030.089 Y0004.112 E9.827
G1  X0032.688 Y0004.112 E9.945
G1  X0032.688 Y0004.512 E9.964
G1  X0030.089 Y0004.512 E10.082
G1  X0030.089 Y0004.912 E10.101
G1  X0032.688 Y0004.912 E10.220
G1  X0032.688 Y0005.312 E10.238
G1  X0030.089 Y0005.312 E10.357
G1  X0030.089 Y0005.712 E10.375
G1  X0032.688 Y0005.712 E10.494
G1  X0032.688 Y0006.112 E10.512
G1  X0030.089 Y0006.112 E10.631
G1  X0030.089 Y0006.512 E10.649
G1  X0032.688 Y0006.512 E10.768
G1  X0032.688 Y0006.912 E10.786
G1  X0030.089 Y0006.912 E10.905
G1  X0030.089 Y0007.312 E10.923
G1  X0032.688 Y0007.312 E11.042
G1  X0032.688 Y0007.712 E11.060
G1  X0030.089 Y0007.712 E11.179
G1  X0030.089 Y0008.112 E11.197
G1  X0032.688 Y0008.112 E11.316
G1  X0032.688 Y0008.512 E11.335
G1  X0030.089 Y0008.512 E11.453
G1  X0030.089 Y0008.912 E11.472
G1  X0032.688 Y0008.912 E11.590
G1  X0032.688 Y0009.312 E11.609
G1  X0030.089 Y0009.312 E11.728
G1  X0030.089 Y0009.712 E11.746
G1  X0032.688 Y0009.712 E11.865
G1  X0032.688 Y0010.112 E11.883
G1  X0030.089 Y0010.112 E12.002
G1  X0030.089 Y0010.512 E12.020
G1  X0032.688 Y0010.512 E12.139
G1  X0032.688 Y0010.912 E12.157
G1  X0030.089 Y0010.912 E12.276
G1  X0030.089 Y0011.312 E12.294
G1  X0032.688 Y0011.312 E12.413
G1  X0032.688 Y0011.712 E12.431
G1  X0030.089 Y0011.712 E12.550
G1  X0030.089 Y0012.112 E12.568
G1  X0032.688 Y0012.112 E12.687
G1  X0032.688 Y0012.512 E12.705
G1  X0030.082 Y0012.512 E12.825
G1  E10.825 F2400

(Raster 2)
G92 E0
G1  X0026.699 Y0002.912 F2400
G1  E2.00000 F2400
G1  X0024.069 Y0002.912 E2.120 F2400
G1  X0024.069 Y0003.312 E2.138
G1  X0026.699 Y0003.312 E2.259
G1  X0026.699 Y0003.712 E2.277
G1  X0024.069 Y0003.712 E2.397
G1  X0024.069 Y0004.112 E2.415
G1  X0026.699 Y0004.112 E2.536
G1  X0026.699 Y0004.512 E2.554
G1  X0024.069 Y0004.512 E2.674
G1  X0024.069 Y0004.912 E2.692
G1  X0026.699 Y0004.912 E2.813
G1  X0026.699 Y0005.312 E2.831
G1  X0024.069 Y0005.312 E2.951
G1  X0024.069 Y0005.712 E2.969
G1  X0026.699 Y0005.712 E3.090
G1  X0026.699 Y0006.112 E3.108
G1  X0024.069 Y0006.112 E3.228
G1  X0024.069 Y0006.512 E3.246
G1  X0026.699 Y0006.512 E3.367
G1  X0026.699 Y0006.912 E3.385
G1  X0024.069 Y0006.912 E3.505
G1  X0024.069 Y0007.312 E3.523
G1  X0026.699 Y0007.312 E3.644
G1  X0026.699 Y0007.712 E3.662
G1  X0024.069 Y0007.712 E3.782
G1  X0024.069 Y0008.112 E3.800
G1  X0026.699 Y0008.112 E3.921
G1  X0026.699 Y0008.512 E3.939
G1  X0024.069 Y0008.512 E4.059
G1  X0024.069 Y0008.912 E4.077
G1  X0026.699 Y0008.912 E4.198
G1  X0026.699 Y0009.312 E4.216
G1  X0024.069 Y0009.312 E4.336
G1  X0024.069 Y0009.712 E4.354
G1  X0026.699 Y0009.712 E4.475
G1  X0026.699 Y0010.112 E4.493
G1  X0024.069 Y0010.112 E4.613
G1  X0024.069 Y0010.512 E4.631
G1  X0026.699 Y0010.512 E4.752
G1  X0026.699 Y0010.912 E4.770
G1  X0024.069 Y0010.912 E4.890
G1  X0024.069 Y0011.312 E4.908
G1  X0026.699 Y0011.312 E5.029
G1  X0026.699 Y0011.712 E5.047
G1  X0024.069 Y0011.712 E5.167
G1  X0024.069 Y0012.112 E5.185
G1  X0026.699 Y0012.112 E5.306
G1  X0026.699 Y0012.486 E5.323
G1  X0026.706 Y0012.512 E5.324
G1  X0024.062 Y0012.512 E5.445
G1  E3.445 F2400

(Raster 3)
G92 E0
G1  X0021.028 Y0002.912 F2400
G1  E2.00000 F2400
G1  X0018.399 Y0002.912 E2.120 F2400
G1  X0018.399 Y0003.312 E2.138
G1  X0021.028 Y0003.312 E2.259
G1  X0021.028 Y0003.712 E2.277
G1  X0018.399 Y0003.712 E2.397
G1  X0018.399 Y0004.112 E2.415
G1  X0021.028 Y0004.112 E2.536
G1  X0021.028 Y0004.512 E2.554
G1  X0018.399 Y0004.512 E2.674
G1  X0018.399 Y0004.912 E2.692
G1  X0021.028 Y0004.912 E2.813
G1  X0021.028 Y0005.312 E2.831
G1  X0018.399 Y0005.312 E2.951
G1  X0018.399 Y0005.712 E2.969
G1  X0021.028 Y0005.712 E3.090
G1  X0021.028 Y0006.112 E3.108
G1  X0018.399 Y0006.112 E3.228
G1  X0018.399 Y0006.512 E3.246
G1  X0021.028 Y0006.512 E3.367
G1  X0021.028 Y0006.912 E3.385
G1  X0018.399 Y0006.912 E3.505
G1  X0018.399 Y0007.312 E3.523
G1  X0021.028 Y0007.312 E3.644
G1  X0021.028 Y0007.712 E3.662
G1  X0018.399 Y0007.712 E3.782
G1  X0018.399 Y0008.112 E3.800
G1  X0021.028 Y0008.112 E3.921
G1  X0021.028 Y0008.512 E3.939
G1  X0018.399 Y0008.512 E4.059
G1  X0018.399 Y0008.912 E4.077
G1  X0021.028 Y0008.912 E4.198
G1  X0021.028 Y0009.312 E4.216
G1  X0018.399 Y0009.312 E4.336
G1  X0018.399 Y0009.712 E4.355
G1  X0021.028 Y0009.712 E4.475
G1  X0021.028 Y0010.112 E4.493
G1  X0018.399 Y0010.112 E4.613
G1  X0018.399 Y0010.512 E4.632
G1  X0021.028 Y0010.512 E4.752
G1  X0021.028 Y0010.912 E4.770
G1  X0018.399 Y0010.912 E4.890
G1  X0018.399 Y0011.312 E4.909
G1  X0021.028 Y0011.312 E5.029
G1  X0021.028 Y0011.712 E5.047
G1  X0018.399 Y0011.712 E5.167
G1  X0018.399 Y0012.112 E5.186
G1  X0021.028 Y0012.112 E5.306
G1  X0021.028 Y0012.486 E5.323
G1  X0021.035 Y0012.512 E5.324
G1  X0018.392 Y0012.512 E5.445
G1  E3.445 F2400

(Raster 4)
G92 E0
G1  X0015.009 Y0002.912 F2400
G1  E2.00000 F2400
G1  X0012.379 Y0002.912 E2.120 F2400
G1  X0012.379 Y0003.312 E2.138
G1  X0015.009 Y0003.312 E2.259
G1  X0015.009 Y0003.712 E2.277
G1  X0012.379 Y0003.712 E2.397
G1  X0012.379 Y0004.112 E2.415
G1  X0015.009 Y0004.112 E2.536
G1  X0015.009 Y0004.512 E2.554
G1  X0012.379 Y0004.512 E2.674
G1  X0012.379 Y0004.912 E2.692
G1  X0015.009 Y0004.912 E2.813
G1  X0015.009 Y0005.312 E2.831
G1  X0012.379 Y0005.312 E2.951
G1  X0012.379 Y0005.712 E2.969
G1  X0015.009 Y0005.712 E3.090
G1  X0015.009 Y0006.112 E3.108
G1  X0012.379 Y0006.112 E3.228
G1  X0012.379 Y0006.512 E3.246
G1  X0015.009 Y0006.512 E3.367
G1  X0015.009 Y0006.912 E3.385
G1  X0012.379 Y0006.912 E3.505
G1  X0012.379 Y0007.312 E3.523
G1  X0015.009 Y0007.312 E3.644
G1  X0015.009 Y0007.712 E3.662
G1  X0012.379 Y0007.712 E3.782
G1  X0012.379 Y0008.112 E3.800
G1  X0015.009 Y0008.112 E3.921
G1  X0015.009 Y0008.512 E3.939
G1  X0012.379 Y0008.512 E4.059
G1  X0012.379 Y0008.912 E4.077
G1  X0015.009 Y0008.912 E4.198
G1  X0015.009 Y0009.312 E4.216
G1  X0012.379 Y0009.312 E4.336
G1  X0012.379 Y0009.712 E4.354
G1  X0015.009 Y0009.712 E4.475
G1  X0015.009 Y0010.112 E4.493
G1  X0012.379 Y0010.112 E4.613
G1  X0012.379 Y0010.512 E4.631
G1  X0015.009 Y0010.512 E4.752
G1  X0015.009 Y0010.912 E4.770
G1  X0012.379 Y0010.912 E4.890
G1  X0012.379 Y0011.312 E4.908
G1  X0015.009 Y0011.312 E5.029
G1  X0015.009 Y0011.712 E5.047
G1  X0012.379 Y0011.712 E5.167
G1  X0012.379 Y0012.112 E5.185
G1  X0015.009 Y0012.112 E5.306
G1  X0015.009 Y0012.486 E5.323
G1  X0015.016 Y0012.512 E5.324
G1  X0012.372 Y0012.512 E5.445
G1  E3.445 F2400

(Raster 5)
G92 E0
G1  X0009.311 Y0002.912 F2400
G1  E2.00000 F2400
G1  X0006.682 Y0002.912 E2.120 F2400
G1  X0006.682 Y0003.312 E2.138
G1  X0009.311 Y0003.312 E2.259
G1  X0009.311 Y0003.712 E2.277
G1  X0006.682 Y0003.712 E2.397
G1  X0006.682 Y0004.112 E2.415
G1  X0009.311 Y0004.112 E2.536
G1  X0009.311 Y0004.512 E2.554
G1  X0006.682 Y0004.512 E2.674
G1  X0006.682 Y0004.912 E2.692
G1  X0009.311 Y0004.912 E2.813
G1  X0009.311 Y0005.312 E2.831
G1  X0006.682 Y0005.312 E2.951
G1  X0006.682 Y0005.712 E2.969
G1  X0009.311 Y0005.712 E3.090
G1  X0009.311 Y0006.112 E3.108
G1  X0006.682 Y0006.112 E3.228
G1  X0006.682 Y0006.512 E3.246
G1  X0009.311 Y0006.512 E3.367
G1  X0009.311 Y0006.912 E3.385
G1  X0006.682 Y0006.912 E3.505
G1  X0006.682 Y0007.312 E3.523
G1  X0009.311 Y0007.312 E3.644
G1  X0009.311 Y0007.712 E3.662
G1  X0006.682 Y0007.712 E3.782
G1  X0006.682 Y0008.112 E3.800
G1  X0009.311 Y0008.112 E3.921
G1  X0009.311 Y0008.512 E3.939
G1  X0006.682 Y0008.512 E4.059
G1  X0006.682 Y0008.912 E4.077
G1  X0009.311 Y0008.912 E4.198
G1  X0009.311 Y0009.312 E4.216
G1  X0006.682 Y0009.312 E4.336
G1  X0006.682 Y0009.712 E4.354
G1  X0009.311 Y0009.712 E4.475
G1  X0009.311 Y0010.112 E4.493
G1  X0006.682 Y0010.112 E4.613
G1  X0006.682 Y0010.512 E4.631
G1  X0009.311 Y0010.512 E4.752
G1  X0009.311 Y0010.912 E4.770
G1  X0006.682 Y0010.912 E4.890
G1  X0006.682 Y0011.312 E4.908
G1  X0009.311 Y0011.312 E5.029
G1  X0009.311 Y0011.712 E5.047
G1  X0006.682 Y0011.712 E5.167
G1  X0006.682 Y0012.112 E5.185
G1  X0009.311 Y0012.112 E5.306
G1  X0009.311 Y0012.486 E5.323
G1  X0009.318 Y0012.512 E5.324
G1  X0006.675 Y0012.512 E5.445
G1  E3.445 F2400

(Raster 6)
G92 E0
G1  X0003.291 Y0002.912 F2400
G1  E2.00000 F2400
G1  X0000.650 Y0002.912 E2.121 F2400
G1  X0000.650 Y0003.312 E2.139
G1  X0003.291 Y0003.312 E2.260
G1  X0003.291 Y0003.712 E2.278
G1  X0000.650 Y0003.712 E2.399
G1  X0000.650 Y0004.112 E2.417
G1  X0003.291 Y0004.112 E2.538
G1  X0003.291 Y0004.512 E2.556
G1  X0000.650 Y0004.512 E2.677
G1  X0000.650 Y0004.912 E2.695
G1  X0003.291 Y0004.912 E2.816
G1  X0003.291 Y0005.312 E2.834
G1  X0000.650 Y0005.312 E2.955
G1  X0000.650 Y0005.712 E2.973
G1  X0003.291 Y0005.712 E3.094
G1  X0003.291 Y0006.112 E3.112
G1  X0000.650 Y0006.112 E3.233
G1  X0000.650 Y0006.512 E3.252
G1  X0003.291 Y0006.512 E3.372
G1  X0003.291 Y0006.912 E3.391
G1  X0000.650 Y0006.912 E3.511
G1  X0000.650 Y0007.312 E3.530
G1  X0003.291 Y0007.312 E3.650
G1  X0003.291 Y0007.712 E3.669
G1  X0000.650 Y0007.712 E3.789
G1  X0000.650 Y0008.112 E3.808
G1  X0003.291 Y0008.112 E3.929
G1  X0003.291 Y0008.512 E3.947
G1  X0000.650 Y0008.512 E4.068
G1  X0000.650 Y0008.912 E4.086
G1  X0003.291 Y0008.912 E4.207
G1  X0003.291 Y0009.312 E4.225
G1  X0000.650 Y0009.312 E4.346
G1  X0000.650 Y0009.712 E4.364
G1  X0003.291 Y0009.712 E4.485
G1  X0003.291 Y0010.112 E4.503
G1  X0000.650 Y0010.112 E4.624
G1  X0000.650 Y0010.512 E4.642
G1  X0003.291 Y0010.512 E4.763
G1  X0003.291 Y0010.912 E4.781
G1  X0000.650 Y0010.912 E4.902
G1  X0000.650 Y0011.312 E4.920
G1  X0003.291 Y0011.312 E5.041
G1  X0003.291 Y0011.712 E5.059
G1  X0000.650 Y0011.712 E5.180
G1  X0000.650 Y0012.112 E5.198
G1  X0003.291 Y0012.112 E5.319
G1  X0003.291 Y0012.486 E5.336
G1  X0003.299 Y0012.512 E5.337
G1  X0000.650 Y0012.512 E5.459
G1  X0000.650 Y0012.912 E5.477
G1  X0032.688 Y0012.912 E6.942
G1  X0032.688 Y0013.312 E6.960
G1  X0000.650 Y0013.312 E8.425
G1  X0000.650 Y0013.712 E8.443
G1  X0032.688 Y0013.712 E9.908
G1  X0032.688 Y0014.112 E9.926
G1  X0000.650 Y0014.112 E11.391
G1  X0000.650 Y0014.512 E11.409
G1  X0032.688 Y0014.512 E12.874
G1  E10.874 F2400

(Layer 2)
G1  Z0.500 F2400

(Raster 1)
G92 E0
G1  X0032.288 Y0014.539 F2400
G1  E2.00000 F2400
G1  X0032.288 Y0000.650 E2.635 F2400
G1  X0031.888 Y0000.650 E2.653
G1  X0031.888 Y0014.539 E3.288
G1  X0031.488 Y0014.539 E3.307
G1  X0031.488 Y0000.650 E3.942
G1  X0031.088 Y0000.650 E3.960
G1  X0031.088 Y0014.539 E4.595
G1  X0030.688 Y0014.539 E4.613
G1  X0030.688 Y0000.650 E5.248
G1  X0030.288 Y0000.650 E5.267
G1  X0030.288 Y0014.539 E5.902
G1  X0029.888 Y0014.539 E5.920
G1  X0029.888 Y0012.636 E6.007
G1  X0029.488 Y0012.636 E6.025
G1  X0029.488 Y0014.539 E6.112
G1  X0029.088 Y0014.539 E6.131
G1  X0029.088 Y0012.636 E6.218
G1  X0028.688 Y0012.636 E6.236
G1  X0028.688 Y0014.539 E6.323
G1  X0028.288 Y0014.539 E6.341
G1  X0028.288 Y0012.636 E6.428
G1  X0027.888 Y0012.636 E6.446
G1  X0027.888 Y0014.539 E6.534
G1  X0027.488 Y0014.539 E6.552
G1  X0027.488 Y0012.636 E6.639
G1  X0027.088 Y0012.636 E6.657
G1  X0027.088 Y0014.539 E6.744
G1  X0026.688 Y0014.539 E6.762
G1  X0026.688 Y0000.650 E7.397
G1  X0026.288 Y0000.650 E7.416
G1  X0026.288 Y0014.539 E8.051
G1  X0025.888 Y0014.539 E8.069
G1  X0025.888 Y0000.650 E8.704
G1  X0025.488 Y0000.650 E8.722
G1  X0025.488 Y0014.539 E9.357
G1  X0025.088 Y0014.539 E9.376
G1  X0025.088 Y0000.650 E10.011
G1  X0024.688 Y0000.650 E10.029
G1  X0024.688 Y0014.539 E10.664
G1  X0024.288 Y0014.539 E10.682
G1  X0024.288 Y0000.650 E11.317
G1  X0023.888 Y0000.650 E11.336
G1  X0023.888 Y0002.527 E11.421
G1  X0023.488 Y0002.527 E11.440
G1  X0023.488 Y0000.650 E11.526
G1  X0023.088 Y0000.650 E11.544
G1  X0023.088 Y0002.527 E11.630
G1  X0022.688 Y0002.527 E11.648
G1  X0022.688 Y0000.650 E11.734
G1  X0022.288 Y0000.650 E11.752
G1  X0022.288 Y0002.527 E11.838
G1  X0021.888 Y0002.527 E11.856
G1  X0021.888 Y0000.650 E11.942
G1  X0021.488 Y0000.650 E11.960
G1  X0021.488 Y0002.527 E12.046
G1  X0021.178 Y0002.527 E12.060
G1  X0021.103 Y0002.547 E12.064
G1  X0021.088 Y0002.562 E12.065
G1  X0021.088 Y0000.650 E12.152
G1  X0020.688 Y0000.650 E12.170
G1  X0020.688 Y0014.539 E12.805
G1  X0020.288 Y0014.539 E12.824
G1  X0020.288 Y0000.650 E13.459
G1  X0019.888 Y0000.650 E13.477
G1  X0019.888 Y0014.539 E14.112
G1  X0019.488 Y0014.539 E14.130
G1  X0019.488 Y0000.650 E14.765
G1  X0019.088 Y0000.650 E14.784
G1  X0019.088 Y0014.539 E15.419
G1  X0018.688 Y0014.539 E15.437
G1  X0018.688 Y0000.650 E16.072
G1  X0018.288 Y0000.650 E16.090
G1  X0018.288 Y0002.537 E16.177
G1  X0018.249 Y0002.527 E16.178
G1  X0017.888 Y0002.527 E16.195
G1  X0017.888 Y0000.650 E16.281
G1  X0017.488 Y0000.650 E16.299
G1  X0017.488 Y0002.527 E16.385
G1  X0017.088 Y0002.527 E16.403
G1  X0017.088 Y0000.650 E16.489
G1  X0016.688 Y0000.650 E16.507
G1  X0016.688 Y0002.527 E16.593
G1  X0016.288 Y0002.527 E16.611
G1  X0016.288 Y0000.650 E16.697
G1  X0015.888 Y0000.650 E16.715
G1  X0015.888 Y0002.527 E16.801
G1  X0015.488 Y0002.527 E16.819
G1  X0015.488 Y0000.650 E16.905
G1  X0015.088 Y0000.650 E16.924
G1  X0015.088 Y0002.546 E17.010
G1  E15.010 F2400

(Raster 2)
G92 E0
G1  X0029.888 Y0002.527 F2400
G1  E2.00000 F2400
G1  X0029.888 Y0000.650 E2.086 F2400
G1  X0029.488 Y0000.650 E2.104
G1  X0029.488 Y0002.527 E2.190
G1  X0029.088 Y0002.527 E2.208
G1  X0029.088 Y0000.650 E2.294
G1  X0028.688 Y0000.650 E2.312
G1  X0028.688 Y0002.527 E2.398
G1  X0028.288 Y0002.527 E2.416
G1  X0028.288 Y0000.650 E2.502
G1  X0027.888 Y0000.650 E2.520
G1  X0027.888 Y0002.527 E2.606
G1  X0027.488 Y0002.527 E2.625
G1  X0027.488 Y0000.650 E2.710
G1  X0027.088 Y0000.650 E2.729
G1  X0027.088 Y0002.527 E2.814
G1  E0.814 F2400

(Raster 3)
G92 E0
G1  X0023.888 Y0012.636 F2400
G1  E2.00000 F2400
G1  X0023.888 Y0014.539 E2.087 F2400
G1  X0023.488 Y0014.539 E2.105
G1  X0023.488 Y0012.636 E2.192
G1  X0023.088 Y0012.636 E2.211
G1  X0023.088 Y0014.539 E2.298
G1  X0022.688 Y0014.539 E2.316
G1  X0022.688 Y0012.636 E2.403
G1  X0022.288 Y0012.636 E2.421
G1  X0022.288 Y0014.539 E2.508
G1  X0021.888 Y0014.539 E2.527
G1  X0021.888 Y0012.636 E2.614
G1  X0021.488 Y0012.636 E2.632
G1  X0021.488 Y0014.539 E2.719
G1  X0021.088 Y0014.539 E2.737
G1  X0021.088 Y0012.600 E2.826
G1  E0.826 F2400

(Raster 4)
G92 E0
G1  X0018.288 Y0012.625 F2400
G1  E2.00000 F2400
G1  X0018.288 Y0014.539 E2.088 F2400
G1  X0017.888 Y0014.539 E2.106
G1  X0017.888 Y0012.636 E2.193
G1  X0017.488 Y0012.636 E2.211
G1  X0017.488 Y0014.539 E2.298
G1  X0017.088 Y0014.539 E2.316
G1  X0017.088 Y0012.636 E2.403
G1  X0016.688 Y0012.636 E2.422
G1  X0016.688 Y0014.539 E2.509
G1  X0016.288 Y0014.539 E2.527
G1  X0016.288 Y0012.636 E2.614
G1  X0015.888 Y0012.636 E2.632
G1  X0015.888 Y0014.539 E2.719
G1  X0015.488 Y0014.539 E2.738
G1  X0015.488 Y0012.636 E2.825
G1  X0015.158 Y0012.636 E2.840
G1  X0015.088 Y0012.617 E2.843
G1  X0015.088 Y0014.539 E2.931
G1  X0014.688 Y0014.539 E2.949
G1  X0014.688 Y0000.650 E3.584
G1  X0014.288 Y0000.650 E3.603
G1  X0014.288 Y0014.539 E4.238
G1  X0013.888 Y0014.539 E4.256
G1  X0013.888 Y0000.650 E4.891
G1  X0013.488 Y0000.650 E4.909
G1  X0013.488 Y0014.539 E5.544
G1  X0013.088 Y0014.539 E5.563
G1  X0013.088 Y0000.650 E6.198
G1  X0012.688 Y0000.650 E6.216
G1  X0012.688 Y0014.539 E6.851
