; generated by Slic3r 1.3.1-dev (Build 8c69278) on 2021-12-10 at 13:24:54

; external perimeters extrusion width = 0.45mm (3.99mm^3/s)
; perimeters extrusion width = 0.45mm (3.99mm^3/s)
; infill extrusion width = 0.45mm (3.99mm^3/s)
; solid infill extrusion width = 0.45mm (4.99mm^3/s)
; top infill extrusion width = 0.45mm (3.00mm^3/s)
; support material extrusion width = 0.45mm (4.99mm^3/s)

M107
G92 E0
M104 S205 ; set temperature
G28 ; home all axes
G1 Z5 F5000 ; lift nozzle

; Filament gcode

M109 S205 ; set temperature and wait for it to be reached
G21 ; set units to millimeters
G90 ; use absolute coordinates
M82 ; use absolute distances for extrusion
G92 E0
G1 Z0.250 F7800.000
G1 E-2.00000 F2400.00000
G92 E0
G1 X145.028 Y128.426 F7800.000
G1 E2.00000 F2400.00000
G1 F2400.000
G1 X145.660 Y128.298 E2.02755
G1 X147.170 Y128.138 E2.09247
G1 X148.688 Y128.119 E2.15739
G1 X150.201 Y128.243 E2.22230
G1 X150.655 Y128.322 E2.24201
G1 X151.043 Y128.426 E2.25916
G1 X166.018 Y128.426 E2.89940
G1 X165.663 Y128.826 E2.92226
G1 X152.076 Y128.826 E3.50313
G1 X153.037 Y129.225 E3.54759
G1 X165.252 Y129.225 E4.06983
G1 X164.790 Y129.625 E4.09594
G1 X153.997 Y129.625 E4.55738
G1 X154.957 Y130.024 E4.60185
G1 X164.230 Y130.024 E4.99827
G1 X163.703 Y130.371 E5.02526
G1 X163.595 Y130.424 E5.03038
G1 X155.918 Y130.424 E5.35861
G1 X156.878 Y130.823 E5.40307
G1 X162.772 Y130.823 E5.65504
G1 X161.755 Y131.174 E5.70101
G1 X161.503 Y131.223 E5.71200
G1 X158.170 Y131.223 E5.85448
G1 E3.85448 F2400.00000
G92 E0
G1 X162.750 Y136.816 F7800.000
G1 E2.00000 F2400.00000
G1 F2400.000
G1 X160.929 Y136.816 E2.07783
G1 X160.565 Y136.997 E2.09522
G1 X160.296 Y137.216 E2.11004
G1 X163.393 Y137.216 E2.24246
G1 X163.491 Y137.292 E2.24777
G1 X163.756 Y137.615 E2.26563
G1 X159.933 Y137.615 E2.42907
G1 X159.830 Y137.747 E2.43620
G1 X159.704 Y138.015 E2.44886
G1 X163.982 Y138.015 E2.63174
G1 X164.065 Y138.181 E2.63968
G1 X164.143 Y138.414 E2.65019
G1 X159.534 Y138.414 E2.84721
G1 X159.386 Y138.814 E2.86543
G1 X164.276 Y138.814 E3.07449
G1 X164.410 Y139.213 E3.09250
G1 X159.238 Y139.213 E3.31360
G1 X159.090 Y139.613 E3.33182
G1 X164.543 Y139.613 E3.56497
G1 X164.677 Y140.012 E3.58298
G1 X158.942 Y140.012 E3.82817
G1 X158.794 Y140.412 E3.84639
G1 X164.810 Y140.412 E4.10362
G1 X164.937 Y140.811 E4.12153
G1 X158.638 Y140.811 E4.39083
G1 X158.463 Y141.211 E4.40947
G1 X165.047 Y141.211 E4.69093
G1 X165.157 Y141.610 E4.70865
G1 X158.289 Y141.610 E5.00227
G1 X158.114 Y142.010 E5.02091
G1 X165.266 Y142.010 E5.32669
G1 X165.376 Y142.409 E5.34441
G1 X157.939 Y142.409 E5.66235
G1 X157.765 Y142.809 E5.68099
G1 X165.486 Y142.809 E6.01110
G1 X165.596 Y143.209 E6.02881
G1 X157.584 Y143.209 E6.37135
G1 X157.381 Y143.608 E6.39050
G1 X165.685 Y143.608 E6.74553
G1 X165.772 Y144.008 E6.76301
G1 X157.179 Y144.008 E7.13040
G1 X156.976 Y144.407 E7.14955
G1 X165.859 Y144.407 E7.52932
G1 X165.946 Y144.807 E7.54680
G1 X156.774 Y144.807 E7.93893
G1 X156.571 Y145.206 E7.95808
G1 X166.033 Y145.206 E8.36258
G1 X166.119 Y145.606 E8.38006
G1 X156.359 Y145.606 E8.79735
G1 X156.127 Y146.005 E8.81710
G1 X166.198 Y146.005 E9.24767
G1 X166.262 Y146.405 E9.26497
G1 X155.895 Y146.405 E9.70820
G1 X155.663 Y146.804 E9.72795
G1 X166.326 Y146.804 E10.18386
G1 X166.391 Y147.204 E10.20116
G1 X155.431 Y147.204 E10.66973
G1 X155.199 Y147.603 E10.68948
G1 X166.455 Y147.603 E11.17071
G1 X166.519 Y148.003 E11.18802
G1 X154.947 Y148.003 E11.68276
G1 X154.684 Y148.402 E11.70322
G1 X166.584 Y148.402 E12.21198
G1 X166.630 Y148.802 E12.22918
G1 X154.420 Y148.802 E12.75120
G1 X154.157 Y149.201 E12.77166
G1 X166.673 Y149.201 E13.30676
G1 X166.715 Y149.601 E13.32393
G1 X153.893 Y149.601 E13.87210
G1 X153.626 Y150.000 E13.89265
G1 X166.757 Y150.000 E14.45404
G1 X166.799 Y150.400 E14.47122
G1 X153.328 Y150.400 E15.04713
G1 X153.031 Y150.800 E15.06843
G1 X166.841 Y150.800 E15.65887
G1 X166.880 Y151.199 E15.67603
G1 X152.733 Y151.199 E16.28083
G1 X152.436 Y151.599 E16.30213
G1 X166.900 Y151.599 E16.92052
G1 X166.921 Y151.998 E16.93762
G1 X152.138 Y151.998 E17.56960
G1 X151.811 Y152.398 E17.59169
G1 X166.941 Y152.398 E18.23854
G1 X166.961 Y152.797 E18.25564
G1 X151.476 Y152.797 E18.91767
G1 X151.142 Y153.197 E18.93994
G1 X166.982 Y153.197 E19.61714
G1 X167.002 Y153.596 E19.63424
G1 X150.807 Y153.596 E20.32661
G1 X150.473 Y153.996 E20.34889
G1 X167.011 Y153.996 E21.05594
G1 X167.010 Y154.395 E21.07302
G1 X150.108 Y154.395 E21.79561
G1 X149.733 Y154.795 E21.81905
G1 X167.008 Y154.795 E22.55762
G1 X167.007 Y155.194 E22.57470
G1 X149.357 Y155.194 E23.32927
G1 X148.982 Y155.594 E23.35270
G1 X167.005 Y155.594 E24.12324
G1 X167.004 Y155.993 E24.14032
G1 X148.607 Y155.993 E24.92685
G1 X148.161 Y156.393 E24.95244
G1 X167.003 Y156.393 E25.75796
G1 X166.982 Y156.792 E25.77506
G1 X147.684 Y156.792 E26.60011
G1 X147.097 Y157.192 E26.63049
G1 X166.959 Y157.192 E27.47968
G1 X166.936 Y157.591 E27.49679
G1 X146.367 Y157.591 E28.37620
G1 X145.994 Y157.781 E28.39408
G1 X145.404 Y157.991 E28.42085
G1 X166.913 Y157.991 E29.34043
G1 X166.890 Y158.391 E29.35754
G1 X143.593 Y158.391 E30.35356
G1 E28.35356 F2400.00000
G92 E0
G1 X140.016 Y188.355 F7800.000
G1 E2.00000 F2400.00000
G1 F2400.000
G1 X140.190 Y188.755 E2.01863
G1 X150.753 Y188.755 E2.47023
G1 X149.983 Y189.154 E2.50733
G1 X140.364 Y189.154 E2.91856
G1 X140.538 Y189.554 E2.93719
G1 X149.443 Y189.554 E3.31790
G1 X149.308 Y189.657 E3.32517
G1 X149.025 Y189.953 E3.34268
G1 X140.712 Y189.953 E3.69806
G1 X140.886 Y190.353 E3.71670
G1 X148.662 Y190.353 E4.04914
G1 X148.392 Y190.752 E4.06976
G1 X141.060 Y190.752 E4.38322
G1 X141.234 Y191.152 E4.40185
G1 X148.154 Y191.152 E4.69767
G1 X147.973 Y191.551 E4.71642
G1 X141.408 Y191.551 E4.99708
G1 X141.582 Y191.951 E5.01571
G1 X147.818 Y191.951 E5.28232
G1 X147.714 Y192.350 E5.29998
G1 X141.756 Y192.350 E5.55471
G1 X141.930 Y192.750 E5.57334
G1 X147.625 Y192.750 E5.81679
G1 X147.591 Y193.149 E5.83393
G1 X142.104 Y193.149 E6.06849
G1 X142.278 Y193.549 E6.08712
G1 X147.558 Y193.549 E6.31286
G1 X147.591 Y193.948 E6.33000
G1 X142.452 Y193.948 E6.54969
G1 X142.626 Y194.348 E6.56832
G1 X147.625 Y194.348 E6.78203
G1 X147.715 Y194.747 E6.79954
G1 X142.800 Y194.747 E7.00966
G1 X142.974 Y195.147 E7.02829
G1 X147.819 Y195.147 E7.23543
G1 X147.862 Y195.298 E7.24212
G1 X147.974 Y195.547 E7.25380
G1 X143.148 Y195.547 E7.46012
G1 X143.322 Y195.946 E7.47875
G1 X148.155 Y195.946 E7.68536
G1 X148.258 Y196.176 E7.69616
G1 X148.279 Y196.176 E7.69706
G1 X148.394 Y196.346 E7.70579
G1 X143.496 Y196.346 E7.91519
G1 X143.670 Y196.745 E7.93382
G1 X148.664 Y196.745 E8.14732
G1 X149.027 Y197.145 E8.17040
G1 X143.844 Y197.145 E8.39199
G1 X144.030 Y197.544 E8.41084
G1 X149.446 Y197.544 E8.64239
G1 X149.987 Y197.944 E8.67111
G1 X144.234 Y197.944 E8.91704
G1 X144.438 Y198.343 E8.93621
G1 X150.758 Y198.343 E9.20643
G1 X151.644 Y198.626 E9.24615
G1 X152.551 Y198.743 E9.28527
G1 X144.694 Y198.743 E9.62119
G1 E7.62119 F2400.00000
G92 E0
G1 X152.170 Y203.138 F7800.000
G1 E2.00000 F2400.00000
G1 F2400.000
G1 X153.345 Y203.138 E2.05020
G1 X154.508 Y202.995 E2.10029
G1 X155.538 Y202.738 E2.14569
G1 X149.977 Y202.738 E2.38344
G1 X148.898 Y202.339 E2.43263
G1 X156.617 Y202.339 E2.76264
G1 X156.740 Y202.291 E2.76827
G1 X157.403 Y201.939 E2.80037
G1 X148.112 Y201.939 E3.19759
G1 X147.740 Y201.741 E3.21562
G1 X147.451 Y201.539 E3.23066
G1 X158.064 Y201.539 E3.68435
G1 X158.635 Y201.140 E3.71415
G1 X146.881 Y201.140 E4.21666
G1 X146.414 Y200.740 E4.24293
G1 X159.101 Y200.740 E4.78534
G1 X159.545 Y200.341 E4.81088
G1 X145.970 Y200.341 E5.39126
G1 X145.609 Y199.941 E5.41429
G1 X159.906 Y199.941 E6.02556
G1 X160.254 Y199.542 E6.04820
G1 X145.261 Y199.542 E6.68919
G1 X145.138 Y199.400 E6.69722
G1 X144.964 Y199.142 E6.71052
G1 X160.551 Y199.142 E7.37694
G1 X160.821 Y198.743 E7.39755
G1 X152.561 Y198.743 E7.75070
G1 X153.437 Y198.702 E7.78820
G1 X154.262 Y198.525 E7.82427
G1 X154.722 Y198.343 E7.84541
G1 X161.077 Y198.343 E8.11711
G1 X161.281 Y197.944 E8.13629
G1 X155.502 Y197.944 E8.38337
G1 X155.834 Y197.739 E8.40005
G1 X156.060 Y197.544 E8.41282
G1 X161.485 Y197.544 E8.64473
G1 X161.557 Y197.403 E8.65151
G1 X161.593 Y197.145 E8.66266
G1 X156.512 Y197.145 E8.87989
G1 X156.836 Y196.745 E8.90190
G1 X161.649 Y196.745 E9.10765
G1 X161.705 Y196.346 E9.12490
G1 X157.130 Y196.346 E9.32047
G1 X157.354 Y195.946 E9.34003
G1 X161.761 Y195.946 E9.52845
G1 X161.817 Y195.547 E9.54570
G1 X157.547 Y195.547 E9.72823
G1 X157.688 Y195.147 E9.74635
G1 X161.873 Y195.147 E9.92523
G1 X161.929 Y194.747 E9.94248
G1 X157.810 Y194.747 E10.11858
G1 X157.878 Y194.348 E10.13591
G1 X161.985 Y194.348 E10.31148
G1 X162.041 Y193.948 E10.32873
G1 X157.940 Y193.948 E10.50406
G1 X157.940 Y193.549 E10.52114
G1 X162.097 Y193.549 E10.69886
G1 X162.152 Y193.149 E10.71610
G1 X157.940 Y193.149 E10.89622
G1 X157.878 Y192.750 E10.91350
G1 X162.208 Y192.750 E11.09862
G1 X162.264 Y192.350 E11.11586
G1 X157.810 Y192.350 E11.30630
G1 X157.784 Y192.219 E11.31202
G1 X157.689 Y191.951 E11.32419
G1 X162.320 Y191.951 E11.52218
G1 X162.376 Y191.551 E11.53942
G1 X157.548 Y191.551 E11.74584
G1 X157.487 Y191.389 E11.75326
G1 X157.355 Y191.152 E11.76486
G1 X162.432 Y191.152 E11.98194
G1 X162.488 Y190.752 E11.99918
G1 X157.132 Y190.752 E12.22819
G1 X157.054 Y190.620 E12.23472
G1 X156.838 Y190.353 E12.24943
G1 X162.544 Y190.353 E12.49338
G1 X162.600 Y189.953 E12.51063
G1 X156.514 Y189.953 E12.77082
G1 X156.063 Y189.554 E12.79658
G1 X162.656 Y189.554 E13.07845
G1 X162.712 Y189.154 E13.09570
G1 X155.506 Y189.154 E13.40380
G1 X155.115 Y188.914 E13.42340
G1 X154.728 Y188.755 E13.44130
G1 X162.768 Y188.755 E13.78504
G1 X162.824 Y188.355 E13.80229
G1 X140.016 Y188.355 E14.77738
G1 X139.842 Y187.956 E14.79601
G1 X162.880 Y187.956 E15.78094
G1 X162.936 Y187.556 E15.79819
G1 X139.668 Y187.556 E16.79295
G1 X139.494 Y187.156 E16.81158
G1 X162.992 Y187.156 E17.81618
G1 X163.048 Y186.757 E17.83342
G1 X139.320 Y186.757 E18.84785
G1 X139.146 Y186.357 E18.86648
G1 X163.104 Y186.357 E19.89073
G1 X163.160 Y185.958 E19.90798
G1 X138.972 Y185.958 E20.94207
G1 X138.798 Y185.558 E20.96070
G1 X163.216 Y185.558 E22.00462
G1 X163.272 Y185.159 E22.02186
G1 X138.624 Y185.159 E23.07561
G1 X138.450 Y184.759 E23.09424
G1 X163.328 Y184.759 E24.15782
G1 X163.384 Y184.360 E24.17507
G1 X138.276 Y184.360 E25.24848
G1 X138.102 Y183.960 E25.26711
G1 X163.440 Y183.960 E26.35036
G1 X163.496 Y183.561 E26.36761
G1 X137.928 Y183.561 E27.46068
G1 X137.754 Y183.161 E27.47931
G1 X163.552 Y183.161 E28.58222
G1 X163.608 Y182.762 E28.59946
G1 X137.580 Y182.762 E29.71220
G1 X137.406 Y182.362 E29.73083
G1 X163.664 Y182.362 E30.85340
G1 X163.720 Y181.963 E30.87065
G1 X137.232 Y181.963 E32.00305
G1 X137.058 Y181.563 E32.02168
G1 X163.775 Y181.563 E33.16391
G1 X163.831 Y181.164 E33.18116
G1 X136.884 Y181.164 E34.33322
G1 X136.710 Y180.764 E34.35185
G1 X163.887 Y180.764 E35.51375
G1 X163.943 Y180.365 E35.53100
G1 X136.536 Y180.365 E36.70272
G1 X136.362 Y179.965 E36.72135
G1 X163.999 Y179.965 E37.90291
G1 X164.055 Y179.565 E37.92016
G1 X136.188 Y179.565 E39.11155
G1 X136.014 Y179.166 E39.13018
G1 X164.111 Y179.166 E40.33140
G1 X164.167 Y178.766 E40.34864
G1 X135.840 Y178.766 E41.55969
G1 X135.666 Y178.367 E41.57833
G1 X164.223 Y178.367 E42.79921
G1 X164.279 Y177.967 E42.81646
G1 X135.492 Y177.967 E44.04717
G1 X135.318 Y177.568 E44.06580
G1 X164.335 Y177.568 E45.30635
G1 X164.391 Y177.168 E45.32359
G1 X135.144 Y177.168 E46.57397
G1 X134.970 Y176.769 E46.59260
G1 X164.447 Y176.769 E47.85281
G1 X164.503 Y176.369 E47.87006
G1 X134.796 Y176.369 E49.14010
G1 X134.622 Y175.970 E49.15873
G1 X164.559 Y175.970 E50.43860
G1 X164.615 Y175.570 E50.45585
G1 X134.448 Y175.570 E51.74555
G1 X134.274 Y175.171 E51.76418
G1 X164.671 Y175.171 E53.06371
G1 X164.727 Y174.771 E53.08096
G1 X134.100 Y174.771 E54.39033
G1 X133.926 Y174.372 E54.40896
G1 X164.783 Y174.372 E55.72815
G1 X164.839 Y173.972 E55.74540
G1 X133.752 Y173.972 E57.07443
G1 X133.578 Y173.573 E57.09306
G1 X164.895 Y173.573 E58.43192
G1 X164.951 Y173.173 E58.44917
G1 X133.404 Y173.173 E59.79786
G1 X133.230 Y172.774 E59.81649
G1 X165.007 Y172.774 E61.17501
G1 X165.063 Y172.374 E61.19226
G1 X133.057 Y172.374 E62.56061
G1 X132.883 Y171.974 E62.57924
G1 X165.119 Y171.974 E63.95743
G1 X165.175 Y171.575 E63.97467
G1 X132.709 Y171.575 E65.36269
G1 X132.535 Y171.175 E65.38132
G1 X165.231 Y171.175 E66.77917
G1 X165.287 Y170.776 E66.79642
G1 X132.361 Y170.776 E68.20410
G1 X132.187 Y170.376 E68.22273
G1 X165.343 Y170.376 E69.64024
G1 X165.398 Y169.977 E69.65748
G1 X132.013 Y169.977 E71.08483
G1 X131.839 Y169.577 E71.10346
G1 X165.454 Y169.577 E72.54063
G1 X165.510 Y169.178 E72.55788
G1 X131.665 Y169.178 E74.00488
G1 X131.491 Y168.778 E74.02351
G1 X165.566 Y168.778 E75.48035
G1 X165.622 Y168.379 E75.49760
G1 X131.317 Y168.379 E76.96426
G1 X131.143 Y167.979 E76.98289
G1 X165.678 Y167.979 E78.45939
G1 X165.734 Y167.580 E78.47664
G1 X130.969 Y167.580 E79.96297
G1 X130.795 Y167.180 E79.98160
G1 X165.790 Y167.180 E81.47776
G1 X165.846 Y166.781 E81.49501
G1 X130.621 Y166.781 E83.00100
G1 X130.447 Y166.381 E83.01963
G1 X165.902 Y166.381 E84.53546
G1 X165.958 Y165.982 E84.55271
G1 X130.273 Y165.982 E86.07836
G1 X130.099 Y165.582 E86.09699
G1 X166.014 Y165.582 E87.63248
G1 X166.070 Y165.182 E87.64973
G1 X129.925 Y165.182 E89.19505
G1 X129.751 Y164.783 E89.21368
G1 X166.126 Y164.783 E90.76883
G1 X166.182 Y164.383 E90.78607
G1 X129.577 Y164.383 E92.35106
G1 X129.403 Y163.984 E92.36969
G1 X166.238 Y163.984 E93.94450
G1 X166.294 Y163.584 E93.96175
G1 X129.229 Y163.584 E95.54639
G1 X129.055 Y163.185 E95.56502
G1 X166.350 Y163.185 E97.15950
G1 X166.406 Y162.785 E97.17674
G1 X128.881 Y162.785 E98.78105
G1 X128.707 Y162.386 E98.79968
G1 X166.462 Y162.386 E100.41382
G1 X166.518 Y161.986 E100.43107
G1 X128.533 Y161.986 E102.05504
G1 X128.359 Y161.587 E102.07367
G1 X166.569 Y161.587 E103.70728
G1 X166.614 Y161.187 E103.72447
G1 X128.185 Y161.187 E105.36745
G1 X128.011 Y160.788 E105.38608
G1 X166.659 Y160.788 E107.03841
G1 X166.704 Y160.388 E107.05560
G1 X127.837 Y160.388 E108.71729
G1 X127.663 Y159.989 E108.73592
G1 X166.749 Y159.989 E110.40698
G1 X166.794 Y159.589 E110.42417
G1 X127.480 Y159.589 E112.10495
G1 X127.273 Y159.190 E112.12418
G1 X166.839 Y159.190 E113.81573
G1 X166.867 Y158.790 E113.83285
G1 X127.066 Y158.790 E115.53444
G1 X126.860 Y158.391 E115.55367
G1 X141.796 Y158.391 E116.19225
G1 X140.855 Y158.232 E116.23303
G1 X140.062 Y157.991 E116.26846
G1 X126.653 Y157.991 E116.84176
G1 X126.468 Y157.591 E116.86057
G1 X139.105 Y157.591 E117.40080
G1 X138.895 Y157.498 E117.41060
G1 X138.396 Y157.192 E117.43562
G1 X126.295 Y157.192 E117.95299
G1 X126.122 Y156.792 E117.97161
G1 X137.805 Y156.792 E118.47113
G1 X137.308 Y156.393 E118.49839
G1 X125.948 Y156.393 E118.98407
G1 X125.775 Y155.993 E119.00269
G1 X136.886 Y155.993 E119.47772
G1 X136.488 Y155.594 E119.50183
G1 X125.632 Y155.594 E119.96596
G1 X125.490 Y155.194 E119.98409
G1 X136.094 Y155.194 E120.43745
G1 X135.764 Y154.795 E120.45959
G1 X125.348 Y154.795 E120.90493
G1 X125.206 Y154.395 E120.92306
G1 X135.435 Y154.395 E121.36038
G1 X135.113 Y153.996 E121.38232
G1 X125.068 Y153.996 E121.81177
G1 X124.956 Y153.596 E121.82951
G1 X134.842 Y153.596 E122.25216
G1 X134.571 Y153.197 E122.27280
G1 X124.844 Y153.197 E122.68866
G1 X124.732 Y152.797 E122.70640
G1 X134.300 Y152.797 E123.11546
G1 X134.079 Y152.398 E123.13497
G1 X124.620 Y152.398 E123.53939
G1 X124.513 Y151.998 E123.55706
G1 X133.860 Y151.998 E123.95665
G1 X133.640 Y151.599 E123.97614
G1 X124.430 Y151.599 E124.36990
G1 X124.347 Y151.199 E124.38735
G1 X133.451 Y151.199 E124.77657
G1 X133.278 Y150.800 E124.79518
G1 X124.264 Y150.800 E125.18056
G1 X124.181 Y150.400 E125.19801
G1 X133.105 Y150.400 E125.57955
G1 X132.939 Y150.000 E125.59805
G1 X124.102 Y150.000 E125.97584
G1 X124.047 Y149.601 E125.99308
G1 X132.809 Y149.601 E126.36766
G1 X132.678 Y149.201 E126.38562
G1 X123.992 Y149.201 E126.75699
G1 X123.937 Y148.802 E126.77423
G1 X132.548 Y148.802 E127.14240
G1 X132.440 Y148.402 E127.16009
G1 X123.882 Y148.402 E127.52598
G1 X123.829 Y148.003 E127.54321
