; Generated by RP3 on 2021-07-8
; Job 0 - 3D Cloner

G21 ; set units to millimeters
M107 ;fan off
G28 ;home all axes
G90 ;absolute coordinates
G28 E0 ;home all axes
G1 E20.0 F100.0 ;extrude 20mm material with 100 mm/min speed
G28 E0 ;home all axes
G90 ;use absolute coordinates
M82 ; use absolute distances for extrusion
G92 E0 ;home of axes
M104 S90
G1 E-2.00000 F24000 ;retracts 2mm of material
M106 S102

(Layer 1)
G1  Z0.250 F2400

(Raster 1)
G92 E0
G1  X0052.972 Y0006.043 F2400
G1  E2.00000 F2400
G1  X0052.972 Y0002.653 E2.155 F2400
G1  X0052.603 Y0002.072 E2.186
G1  X0052.572 Y0002.040 E2.189
G1  X0052.572 Y0006.665 E2.400
G1  X0052.564 Y0006.677 E2.401
G1  X0052.172 Y0007.078 E2.426
G1  X0052.172 Y0001.617 E2.676
G1  X0052.116 Y0001.558 E2.680
G1  X0051.772 Y0001.312 E2.699
G1  X0051.772 Y0007.434 E2.979
G1  X0051.372 Y0007.771 E3.003
G1  X0051.372 Y0001.069 E3.309
G1  X0050.972 Y0000.885 E3.329
G1  X0050.972 Y0008.108 E3.660
G1  X0050.572 Y0008.445 E3.683
G1  X0050.572 Y0000.772 E4.034
G1  X0050.206 Y0000.683 E4.051
G1  X0050.172 Y0000.682 E4.053
G1  X0050.172 Y0008.782 E4.423
G1  X0049.772 Y0009.119 E4.447
G1  X0049.772 Y0000.663 E4.834
G1  X0049.498 Y0000.651 E4.846
G1  X0049.372 Y0000.669 E4.852
G1  X0049.372 Y0009.456 E5.254
G1  X0048.972 Y0009.793 E5.278
G1  X0048.972 Y0000.727 E5.692
G1  X0048.834 Y0000.748 E5.699
G1  X0048.572 Y0000.921 E5.713
G1  X0048.572 Y0010.130 E6.134
G1  X0048.172 Y0010.467 E6.158
G1  X0048.172 Y0001.185 E6.582
G1  X0047.772 Y0001.449 E6.604
G1  X0047.772 Y0010.804 E7.032
G1  X0047.372 Y0011.141 E7.056
G1  X0047.372 Y0001.713 E7.487
G1  X0046.972 Y0001.977 E7.509
G1  X0046.972 Y0011.478 E7.943
G1  X0046.572 Y0011.814 E7.967
G1  X0046.572 Y0002.241 E8.405
G1  X0046.172 Y0002.505 E8.427
G1  X0046.172 Y0012.151 E8.868
G1  X0045.772 Y0012.488 E8.892
G1  X0045.772 Y0002.769 E9.336
G1  X0045.372 Y0003.033 E9.358
G1  X0045.372 Y0012.825 E9.806
G1  X0044.972 Y0013.162 E9.830
G1  X0044.972 Y0003.297 E10.281
G1  X0044.572 Y0003.561 E10.303
G1  X0044.572 Y0013.499 E10.757
G1  X0044.172 Y0013.836 E10.781
G1  X0044.172 Y0003.825 E11.239
G1  X0043.772 Y0004.089 E11.261
G1  X0043.772 Y0014.173 E11.722
G1  X0043.678 Y0014.252 E11.727
G1  X0043.372 Y0014.447 E11.744
G1  X0043.372 Y0004.353 E12.205
G1  X0042.972 Y0004.617 E12.227
G1  X0042.972 Y0014.724 E12.690
G1  X0042.572 Y0015.099 E12.715
G1  X0042.572 Y0004.881 E13.182
G1  X0042.172 Y0005.145 E13.204
G1  X0042.172 Y0015.616 E13.682
G1  X0042.053 Y0015.779 E13.692
G1  X0041.772 Y0016.374 E13.722
G1  X0041.772 Y0005.409 E14.223
G1  X0041.372 Y0005.673 E14.245
G1  X0041.372 Y0033.835 E15.533
G1  X0040.972 Y0034.098 E15.555
G1  X0040.972 Y0005.937 E16.842
G1  X0040.572 Y0006.201 E16.864
G1  X0040.572 Y0034.333 E18.150
G1  X0040.172 Y0034.527 E18.171
G1  X0040.172 Y0006.465 E19.454
G1  X0039.772 Y0006.729 E19.475
G1  X0039.772 Y0034.721 E20.755
G1  X0039.721 Y0034.746 E20.758
G1  X0039.372 Y0034.862 E20.775
G1  X0039.372 Y0006.993 E22.049
G1  X0038.972 Y0007.257 E22.071
G1  X0038.972 Y0034.995 E23.339
G1  X0038.779 Y0035.059 E23.348
G1  X0038.572 Y0035.099 E23.358
G1  X0038.572 Y0007.521 E24.619
G1  X0038.172 Y0007.785 E24.641
G1  X0038.172 Y0035.177 E25.893
G1  X0037.804 Y0035.248 E25.910
G1  X0037.772 Y0035.250 E25.912
G1  X0037.772 Y0008.049 E27.155
G1  X0037.372 Y0008.313 E27.177
G1  X0037.372 Y0035.274 E28.410
G1  X0036.972 Y0035.299 E28.428
G1  X0036.972 Y0008.577 E29.650
G1  X0036.572 Y0008.841 E29.672
G1  X0036.572 Y0035.292 E30.881
G1  X0036.172 Y0035.264 E30.900
G1  X0036.172 Y0009.105 E32.096
G1  X0035.772 Y0009.369 E32.118
G1  X0035.772 Y0035.230 E33.300
G1  X0035.372 Y0035.149 E33.319
G1  X0035.372 Y0009.633 E34.485
G1  X0034.972 Y0009.897 E34.507
G1  X0034.972 Y0035.068 E35.658
G1  X0034.850 Y0035.044 E35.664
G1  X0034.572 Y0034.949 E35.677
G1  X0034.572 Y0010.161 E36.810
G1  X0034.172 Y0010.425 E36.832
G1  X0034.172 Y0034.812 E37.947
G1  X0033.906 Y0034.721 E37.960
G1  X0033.772 Y0034.666 E37.967
G1  X0033.772 Y0010.689 E39.063
G1  X0033.372 Y0010.953 E39.085
G1  X0033.372 Y0034.499 E40.161
G1  X0032.972 Y0034.333 E40.181
G1  X0032.972 Y0011.217 E41.238
G1  X0032.572 Y0011.481 E41.260
G1  X0032.572 Y0034.166 E42.297
G1  X0032.172 Y0034.000 E42.317
G1  X0032.172 Y0011.745 E43.335
G1  X0031.772 Y0012.009 E43.357
G1  X0031.772 Y0033.834 E44.354
G1  X0031.372 Y0033.667 E44.374
G1  X0031.372 Y0012.273 E45.352
G1  X0030.972 Y0012.537 E45.374
G1  X0030.972 Y0033.501 E46.333
G1  X0030.572 Y0033.334 E46.353
G1  X0030.572 Y0012.801 E47.291
G1  X0030.172 Y0013.065 E47.313
G1  X0030.172 Y0033.168 E48.232
G1  X0029.772 Y0033.002 E48.252
G1  X0029.772 Y0013.329 E49.152
G1  X0029.372 Y0013.593 E49.174
G1  X0029.372 Y0032.835 E50.053
G1  X0028.972 Y0032.669 E50.073
G1  X0028.972 Y0013.857 E50.933
G1  X0028.572 Y0014.121 E50.955
G1  X0028.572 Y0032.502 E51.796
G1  X0028.518 Y0032.480 E51.798
G1  X0028.172 Y0032.355 E51.815
G1  X0028.172 Y0014.385 E52.637
G1  X0027.772 Y0014.649 E52.659
G1  X0027.772 Y0032.240 E53.463
G1  X0027.649 Y0032.207 E53.469
G1  X0027.372 Y0032.159 E53.481
G1  X0027.372 Y0014.913 E54.270
G1  X0026.972 Y0015.177 E54.292
G1  X0026.972 Y0032.111 E55.066
G1  X0026.572 Y0032.078 E55.084
G1  X0026.572 Y0015.441 E55.845
G1  X0026.172 Y0015.705 E55.867
G1  X0026.172 Y0032.046 E56.614
G1  X0025.772 Y0032.013 E56.633
G1  X0025.772 Y0015.969 E57.366
G1  X0025.372 Y0016.233 E57.388
G1  X0025.372 Y0032.011 E58.109
G1  X0024.972 Y0032.016 E58.128
G1  X0024.972 Y0016.497 E58.837
G1  X0024.572 Y0016.761 E58.859
G1  X0024.572 Y0032.021 E59.557
G1  X0024.176 Y0032.026 E59.575
G1  X0024.172 Y0032.026 E59.575
G1  X0024.172 Y0017.025 E60.261
G1  X0023.772 Y0017.289 E60.283
G1  X0023.772 Y0032.069 E60.959
G1  X0023.372 Y0032.111 E60.977
G1  X0023.372 Y0017.553 E61.643
G1  X0022.972 Y0017.817 E61.665
G1  X0022.972 Y0032.154 E62.320
G1  X0022.671 Y0032.186 E62.334
G1  X0022.572 Y0032.206 E62.339
G1  X0022.572 Y0018.081 E62.984
G1  X0022.172 Y0018.345 E63.006
G1  X0022.172 Y0032.287 E63.644
G1  X0021.772 Y0032.368 E63.662
G1  X0021.772 Y0018.609 E64.291
G1  X0021.372 Y0018.873 E64.313
G1  X0021.372 Y0032.449 E64.934
G1  X0021.188 Y0032.487 E64.943
G1  X0020.972 Y0032.552 E64.953
G1  X0020.972 Y0019.137 E65.566
G1  X0020.572 Y0019.401 E65.588
G1  X0020.572 Y0032.673 E66.195
G1  X0020.172 Y0032.794 E66.214
G1  X0020.172 Y0019.665 E66.814
G1  X0019.772 Y0019.929 E66.836
G1  X0019.772 Y0032.915 E67.430
G1  X0019.739 Y0032.925 E67.432
G1  X0019.372 Y0033.074 E67.450
G1  X0019.372 Y0020.193 E68.039
G1  X0018.972 Y0020.457 E68.061
G1  X0018.972 Y0033.238 E68.645
G1  X0018.572 Y0033.401 E68.665
G1  X0018.572 Y0020.721 E69.245
G1  X0018.172 Y0020.985 E69.266
G1  X0018.172 Y0033.583 E69.842
G1  X0017.772 Y0033.791 E69.863
G1  X0017.772 Y0021.249 E70.437
G1  X0017.372 Y0021.513 E70.458
G1  X0017.372 Y0034.000 E71.029
G1  X0016.995 Y0034.197 E71.049
G1  X0016.972 Y0034.212 E71.050
G1  X0016.972 Y0021.777 E71.619
G1  X0016.572 Y0022.041 E71.640
G1  X0016.572 Y0034.471 E72.209
G1  X0016.172 Y0034.730 E72.231
G1  X0016.172 Y0022.305 E72.799
G1  X0015.772 Y0022.569 E72.821
G1  X0015.772 Y0034.989 E73.388
G1  X0015.724 Y0035.020 E73.391
G1  X0015.372 Y0035.298 E73.412
G1  X0015.372 Y0022.833 E73.981
G1  X0014.972 Y0023.097 E74.003
G1  X0014.972 Y0035.614 E74.576
G1  X0014.572 Y0035.930 E74.599
G1  X0014.572 Y0023.361 E75.174
G1  X0014.172 Y0023.625 E75.196
G1  X0014.172 Y0036.307 E75.775
G1  X0013.772 Y0036.690 E75.801
G1  X0013.772 Y0023.909 E76.385
G1  X0013.372 Y0024.193 E76.408
G1  X0013.372 Y0037.083 E76.997
G1  X0012.972 Y0037.545 E77.025
G1  X0012.972 Y0024.477 E77.622
G1  X0012.572 Y0024.761 E77.645
G1  X0012.572 Y0038.008 E78.250
G1  X0012.426 Y0038.176 E78.261
G1  X0012.172 Y0038.532 E78.281
G1  X0012.172 Y0025.080 E78.896
G1  X0011.772 Y0025.407 E78.919
G1  X0011.772 Y0039.090 E79.545
G1  X0011.567 Y0039.377 E79.561
G1  X0011.372 Y0039.711 E79.579
G1  X0011.372 Y0025.734 E80.218
G1  X0010.972 Y0026.062 E80.241
G1  X0010.972 Y0040.397 E80.897
G1  X0010.804 Y0040.685 E80.912
G1  X0010.572 Y0041.186 E80.937
G1  X0010.572 Y0026.429 E81.612
G1  X0010.172 Y0026.805 E81.637
G1  X0010.172 Y0042.049 E82.334
G1  X0010.168 Y0042.058 E82.334
G1  X0009.772 Y0043.176 E82.389
G1  X0009.772 Y0027.180 E83.120
G1  X0009.407 Y0027.523 E83.143
G1  X0009.372 Y0027.560 E83.145
G1  X0009.372 Y0044.639 E83.926
G1  E81.926 F2400

(Raster 2)
G92 E0
G1  X0044.972 Y0028.227 F2400
G1  E2.00000 F2400
G1  X0044.972 Y0025.244 E2.136 F2400
G1  X0044.848 Y0024.581 E2.167
G1  X0044.572 Y0023.733 E2.208
G1  X0044.572 Y0029.701 E2.481
G1  X0044.434 Y0030.098 E2.500
G1  X0044.172 Y0030.619 E2.527
G1  X0044.172 Y0022.823 E2.883
G1  X0044.010 Y0022.485 E2.900
G1  X0043.772 Y0022.118 E2.920
G1  X0043.772 Y0031.335 E3.342
G1  X0043.372 Y0031.924 E3.374
G1  X0043.372 Y0021.511 E3.850
G1  X0042.972 Y0021.043 E3.879
G1  X0042.972 Y0032.403 E4.398
G1  X0042.572 Y0032.852 E4.425
G1  X0042.572 Y0020.570 E4.987
G1  X0042.185 Y0020.094 E5.015
G1  X0042.172 Y0020.071 E5.016
G1  X0042.172 Y0033.207 E5.617
G1  X0041.772 Y0033.553 E5.641
G1  X0041.772 Y0019.288 E6.293
G1  E4.293 F2400

(Raster 3)
G92 E0
G1  X0043.772 Y0053.402 F2400
G1  E2.00000 F2400
G1  X0043.772 Y0064.166 E2.492 F2400
G1  X0043.612 Y0065.588 E2.558
G1  X0043.372 Y0067.301 E2.637
G1  X0043.372 Y0050.543 E3.403
G1  X0043.234 Y0049.686 E3.443
G1  X0042.972 Y0048.479 E3.499
G1  X0042.972 Y0070.157 E4.490
G1  X0042.572 Y0073.013 E4.622
G1  X0042.572 Y0046.731 E5.824
G1  X0042.172 Y0045.276 E5.893
G1  X0042.172 Y0075.868 E7.291
G1  X0041.772 Y0078.724 E7.423
G1  X0041.772 Y0043.946 E9.013
G1  X0041.372 Y0042.752 E9.071
G1  X0041.372 Y0081.579 E10.846
G1  X0040.972 Y0084.435 E10.978
G1  X0040.972 Y0041.698 E12.932
G1  X0040.879 Y0041.511 E12.941
G1  X0040.572 Y0041.136 E12.963
G1  X0040.572 Y0087.290 E15.074
G1  X0040.172 Y0090.146 E15.205
G1  X0040.172 Y0040.809 E17.461
G1  X0040.111 Y0040.762 E17.465
G1  X0039.772 Y0040.604 E17.482
G1  X0039.772 Y0093.001 E19.877
G1  X0039.372 Y0095.857 E20.009
G1  X0039.372 Y0040.480 E22.541
G1  X0039.096 Y0040.420 E22.554
G1  X0038.972 Y0040.422 E22.560
G1  X0038.972 Y0098.712 E25.225
G1  X0038.616 Y0101.255 E25.342
G1  X0038.572 Y0101.341 E25.346
G1  X0038.572 Y0040.426 E28.131
G1  X0038.556 Y0040.427 E28.132
G1  X0038.172 Y0040.519 E28.150
G1  X0038.172 Y0102.125 E30.967
G1  X0038.087 Y0102.291 E30.975
G1  X0037.772 Y0102.758 E31.001
G1  X0037.772 Y0040.681 E33.839
G1  X0037.549 Y0040.792 E33.851
G1  X0037.372 Y0040.936 E33.861
G1  X0037.372 Y0103.332 E36.714
G1  X0036.972 Y0103.792 E36.742
G1  X0036.972 Y0041.336 E39.597
G1  X0036.799 Y0041.558 E39.610
G1  X0036.572 Y0042.041 E39.634
G1  X0036.572 Y0104.231 E42.478
G1  X0036.172 Y0104.591 E42.502
G1  X0036.172 Y0043.118 E45.313
G1  X0035.772 Y0044.195 E45.365
G1  X0035.772 Y0104.949 E48.143
G1  X0035.372 Y0105.229 E48.165
G1  X0035.372 Y0045.151 E50.912
G1  X0034.972 Y0046.070 E50.958
G1  X0034.972 Y0105.509 E53.676
G1  X0034.812 Y0105.621 E53.685
G1  X0034.572 Y0105.749 E53.697
G1  X0034.572 Y0099.192 E53.997
G1  X0034.470 Y0099.484 E54.011
G1  X0034.172 Y0100.024 E54.039
G1  X0034.172 Y0105.961 E54.311
G1  X0033.772 Y0106.174 E54.331
G1  X0033.772 Y0100.594 E54.586
G1  X0033.502 Y0100.931 E54.606
G1  X0033.372 Y0101.046 E54.614
G1  X0033.372 Y0106.327 E54.855
G1  X0032.972 Y0106.481 E54.875
G1  X0032.972 Y0101.402 E55.107
G1  X0032.849 Y0101.511 E55.115
G1  X0032.572 Y0101.683 E55.130
G1  X0032.572 Y0106.621 E55.355
G1  X0032.172 Y0106.721 E55.374
G1  X0032.172 Y0101.932 E55.593
G1  X0032.108 Y0101.972 E55.597
G1  X0031.772 Y0102.109 E55.613
G1  X0031.772 Y0106.820 E55.829
G1  X0031.528 Y0106.881 E55.840
G1  X0031.372 Y0106.900 E55.847
G1  X0031.372 Y0102.272 E56.059
G1  X0031.299 Y0102.301 E56.063
G1  X0030.972 Y0102.373 E56.078
G1  X0030.972 Y0106.949 E56.287
G1  X0030.572 Y0106.998 E56.306
G1  X0030.572 Y0102.461 E56.513
G1  X0030.446 Y0102.489 E56.519
G1  X0030.172 Y0102.502 E56.531
G1  X0030.172 Y0107.025 E56.738
G1  X0029.772 Y0107.025 E56.756
G1  X0029.772 Y0102.521 E56.962
G1  X0029.574 Y0102.530 E56.971
G1  X0029.372 Y0102.505 E56.981
G1  X0029.372 Y0107.025 E57.187
G1  X0029.179 Y0107.025 E57.196
G1  X0028.972 Y0106.999 E57.206
G1  X0028.972 Y0102.456 E57.413
G1  X0028.707 Y0102.423 E57.426
G1  X0028.572 Y0102.383 E57.432
G1  X0028.572 Y0106.950 E57.641
G1  X0028.172 Y0106.901 E57.659
G1  X0028.172 Y0102.262 E57.871
G1  X0027.871 Y0102.171 E57.886
G1  X0027.772 Y0102.122 E57.891
G1  X0027.772 Y0106.822 E58.106
G1  X0027.372 Y0106.722 E58.125
G1  X0027.372 Y0101.923 E58.344
G1  X0027.089 Y0101.782 E58.358
G1  X0026.972 Y0101.696 E58.365
G1  X0026.972 Y0106.622 E58.590
G1  X0026.866 Y0106.596 E58.595
G1  X0026.572 Y0106.483 E58.610
G1  X0026.572 Y0101.403 E58.842
G1  X0026.384 Y0101.266 E58.853
G1  X0026.172 Y0101.046 E58.867
G1  X0026.172 Y0106.330 E59.108
G1  X0025.772 Y0106.176 E59.128
G1  X0025.772 Y0100.630 E59.381
G1  X0025.372 Y0100.044 E59.414
G1  X0025.372 Y0105.965 E59.684
G1  X0024.972 Y0105.752 E59.705
G1  X0024.972 Y0099.232 E60.003
G1  E58.003 F2400

(Raster 4)
G92 E0
G1  X0034.572 Y0095.580 F2400
G1  E2.00000 F2400
G1  X0034.572 Y0046.973 E4.222 F2400
G1  X0034.172 Y0047.765 E4.263
G1  X0034.172 Y0094.749 E6.411
G1  X0034.021 Y0094.482 E6.425
G1  X0033.772 Y0094.176 E6.443
G1  X0033.772 Y0048.557 E8.529
G1  X0033.436 Y0049.222 E8.563
G1  X0033.372 Y0049.333 E8.569
G1  X0033.372 Y0093.720 E10.598
G1  X0032.972 Y0093.371 E10.622
G1  X0032.972 Y0050.024 E12.604
G1  X0032.572 Y0050.715 E12.641
G1  X0032.572 Y0093.085 E14.578
G1  X0032.172 Y0092.841 E14.599
G1  X0032.172 Y0051.407 E16.494
G1  X0032.115 Y0051.504 E16.499
G1  X0031.772 Y0052.027 E16.527
G1  X0031.772 Y0092.660 E18.385
G1  X0031.372 Y0092.502 E18.405
G1  X0031.372 Y0052.635 E20.228
G1  X0030.972 Y0053.244 E20.261
G1  X0030.972 Y0092.395 E22.051
G1  X0030.572 Y0092.311 E22.070
G1  X0030.572 Y0053.836 E23.829
G1  X0030.172 Y0054.374 E23.859
G1  X0030.172 Y0092.266 E25.592
G1  X0029.772 Y0092.251 E25.610
G1  X0029.772 Y0054.913 E27.317
G1  X0029.372 Y0055.452 E27.348
G1  X0029.372 Y0092.262 E29.031
G1  X0028.972 Y0092.315 E29.049
G1  X0028.972 Y0055.978 E30.711
G1  X0028.572 Y0056.456 E30.739
G1  X0028.572 Y0092.384 E32.382
G1  X0028.172 Y0092.509 E32.401
G1  X0028.172 Y0056.934 E34.027
G1  X0027.772 Y0057.411 E34.056
G1  X0027.772 Y0092.644 E35.667
G1  X0027.372 Y0092.848 E35.687
G1  X0027.372 Y0057.889 E37.285
G1  X0027.364 Y0057.899 E37.286
G1  X0026.972 Y0058.316 E37.312
G1  X0026.972 Y0093.070 E38.901
G1  X0026.572 Y0093.369 E38.924
G1  X0026.572 Y0058.742 E40.507
G1  X0026.172 Y0059.168 E40.534
G1  X0026.172 Y0093.722 E42.114
G1  X0025.772 Y0094.143 E42.140
G1  X0025.772 Y0059.594 E43.720
G1  X0025.559 Y0059.821 E43.734
G1  X0025.372 Y0059.987 E43.745
G1  X0025.372 Y0094.730 E45.334
G1  X0025.262 Y0094.894 E45.343
G1  X0024.972 Y0095.540 E45.375
G1  X0024.972 Y0060.341 E46.985
G1  X0024.802 Y0060.491 E46.995
G1  X0024.572 Y0060.650 E47.008
G1  X0024.572 Y0105.514 E49.059
G1  X0024.172 Y0105.234 E49.081
G1  X0024.172 Y0060.924 E51.107
G1  X0023.923 Y0061.095 E51.121
G1  X0023.772 Y0061.172 E51.129
G1  X0023.772 Y0104.954 E53.130
G1  X0023.759 Y0104.945 E53.131
G1  X0023.372 Y0104.597 E53.155
G1  X0023.372 Y0061.375 E55.131
G1  X0022.994 Y0061.568 E55.150
G1  X0022.972 Y0061.576 E55.152
G1  X0022.972 Y0104.237 E57.102
G1  X0022.883 Y0104.157 E57.107
G1  X0022.572 Y0103.799 E57.129
G1  X0022.572 Y0061.719 E59.053
G1  X0022.172 Y0061.862 E59.072
G1  X0022.172 Y0103.340 E60.969
G1  X0022.109 Y0103.268 E60.973
G1  X0021.772 Y0102.768 E61.001
G1  X0021.772 Y0061.972 E62.866
G1  X0021.372 Y0062.060 E62.885
G1  X0021.372 Y0102.138 E64.717
G1  X0020.972 Y0101.354 E64.757
G1  X0020.972 Y0062.144 E66.550
G1  X0020.572 Y0062.180 E66.568
G1  X0020.572 Y0100.456 E68.318
G1  X0020.172 Y0099.537 E68.364
G1  X0020.172 Y0062.216 E70.070
G1  X0019.956 Y0062.235 E70.080
G1  X0019.772 Y0062.228 E70.089
G1  X0019.772 Y0098.619 E71.753
G1  X0019.372 Y0097.700 E71.798
G1  X0019.372 Y0062.212 E73.421
G1  X0018.972 Y0062.197 E73.439
G1  X0018.972 Y0096.782 E75.020
