; generated by Slic3r 1.3.1-dev (Build 8c69278) on 2021-12-10 at 13:24:57

; external perimeters extrusion width = 0.45mm (3.99mm^3/s)
; perimeters extrusion width = 0.45mm (3.99mm^3/s)
; infill extrusion width = 0.45mm (3.99mm^3/s)
; solid infill extrusion width = 0.45mm (4.99mm^3/s)
; top infill extrusion width = 0.45mm (3.00mm^3/s)
; support material extrusion width = 0.45mm (4.99mm^3/s)

M107
G92 E0
M104 S205 ; set temperature
G28 ; home all axes
G1 Z5 F5000 ; lift nozzle

; Filament gcode

M109 S205 ; set temperature and wait for it to be reached
G21 ; set units to millimeters
G90 ; use absolute coordinates
M82 ; use absolute distances for extrusion
G92 E0
G1 Z0.250 F7800.000
G1 E-2.00000 F2400.00000
G92 E0
G1 X144.672 Y116.048 F7800.000
G1 E2.00000 F2400.00000
G1 F2400.000
G1 X144.986 Y115.911 E2.01466
G1 X145.350 Y116.048 E2.03127
G1 X154.650 Y116.048 E2.42890
G1 X155.014 Y115.911 E2.44552
G1 X155.328 Y116.048 E2.46017
G1 X158.072 Y116.048 E2.57751
G1 X158.478 Y116.448 E2.60186
G1 X156.105 Y116.448 E2.70332
G1 X156.690 Y116.847 E2.73361
G1 X158.849 Y116.847 E2.82588
G1 X159.188 Y117.246 E2.84828
G1 X157.154 Y117.246 E2.93522
G1 X157.544 Y117.646 E2.95908
G1 X159.494 Y117.646 E3.04246
G1 X159.774 Y118.045 E3.06332
G1 X157.868 Y118.045 E3.14481
G1 X158.141 Y118.445 E3.16550
G1 X159.800 Y118.445 E3.23643
G1 X159.800 Y118.844 E3.25350
G1 X158.373 Y118.844 E3.31453
G1 X158.567 Y119.243 E3.33353
G1 X159.800 Y119.243 E3.38624
G1 X159.800 Y119.643 E3.40331
G1 X158.737 Y119.643 E3.44877
G1 X158.586 Y120.042 E3.46703
G1 X159.800 Y120.042 E3.51896
G1 X159.800 Y120.442 E3.53603
G1 X158.435 Y120.442 E3.59442
G1 X158.300 Y120.841 E3.61244
G1 X159.800 Y120.841 E3.67657
G1 X159.800 Y121.240 E3.69365
G1 X158.178 Y121.240 E3.76299
G1 X158.074 Y121.640 E3.78064
G1 X159.800 Y121.640 E3.85446
G1 X159.800 Y122.039 E3.87154
G1 X157.980 Y122.039 E3.94936
G1 X157.903 Y122.439 E3.96675
G1 X159.800 Y122.439 E4.04787
G1 X159.800 Y122.838 E4.06495
G1 X157.837 Y122.838 E4.14891
G1 X157.785 Y123.237 E4.16612
G1 X159.800 Y123.237 E4.25227
G1 X159.800 Y123.637 E4.26934
G1 X157.746 Y123.637 E4.35717
G1 X157.720 Y124.036 E4.37428
G1 X159.800 Y124.036 E4.46322
G1 X159.800 Y124.436 E4.48029
G1 X157.707 Y124.436 E4.56979
G1 X157.700 Y124.650 E4.57896
G1 X157.706 Y124.835 E4.58688
G1 X159.800 Y124.835 E4.67641
G1 X159.800 Y125.235 E4.69349
G1 X157.719 Y125.235 E4.78246
G1 X157.743 Y125.634 E4.79957
G1 X159.800 Y125.634 E4.88753
G1 X159.800 Y126.033 E4.90460
G1 X157.783 Y126.033 E4.99087
G1 X157.832 Y126.433 E5.00807
G1 X159.800 Y126.433 E5.09224
G1 X159.800 Y126.832 E5.10931
G1 X157.898 Y126.832 E5.19064
G1 X157.973 Y127.232 E5.20802
G1 X159.800 Y127.232 E5.28614
G1 X159.800 Y127.631 E5.30321
G1 X158.067 Y127.631 E5.37733
G1 X158.170 Y128.030 E5.39496
G1 X159.800 Y128.030 E5.46468
G1 X159.800 Y128.430 E5.48175
G1 X158.291 Y128.430 E5.54627
G1 X158.424 Y128.829 E5.56425
G1 X159.800 Y128.829 E5.62311
G1 X159.800 Y129.229 E5.64019
G1 X158.575 Y129.229 E5.69259
G1 X158.726 Y129.628 E5.71085
G1 X159.800 Y129.628 E5.75678
G1 X159.800 Y130.027 E5.77386
G1 X158.580 Y130.027 E5.82602
G1 X158.388 Y130.427 E5.84497
G1 X159.800 Y130.427 E5.90535
G1 X159.800 Y130.826 E5.92242
G1 X158.159 Y130.826 E5.99259
G1 X157.889 Y131.226 E6.01321
G1 X159.800 Y131.226 E6.09493
G1 X159.800 Y131.625 E6.11201
G1 X157.571 Y131.625 E6.20732
G1 X157.185 Y132.024 E6.23105
G1 X159.800 Y132.024 E6.34285
G1 X159.800 Y132.424 E6.35992
G1 X156.726 Y132.424 E6.49135
G1 X156.153 Y132.823 E6.52122
G1 X159.800 Y132.823 E6.67715
G1 X159.800 Y133.223 E6.69423
G1 X155.394 Y133.223 E6.88259
G1 E4.88259 F2400.00000
G92 E0
G1 X151.295 Y132.424 F7800.000
G1 E2.00000 F2400.00000
G1 F2400.000
G1 X148.705 Y132.424 E2.11076
G1 X148.360 Y132.458 E2.12558
G1 X147.549 Y132.593 E2.16074
G1 X146.607 Y132.823 E2.20217
G1 X153.393 Y132.823 E2.49226
G1 X154.039 Y133.020 E2.52113
G1 X154.573 Y133.223 E2.54557
G1 X145.427 Y133.223 E2.93660
G1 E0.93660 F2400.00000
G92 E0
G1 X149.652 Y134.820 F7800.000
G1 E2.00000 F2400.00000
G1 F2400.000
G1 X140.200 Y134.820 E2.40412
G1 X140.200 Y135.220 E2.42119
G1 X148.960 Y135.220 E2.79573
G1 X148.268 Y135.619 E2.82988
G1 X140.200 Y135.619 E3.17485
G1 X140.200 Y136.019 E3.19192
G1 X147.577 Y136.019 E3.50731
G1 X146.885 Y136.418 E3.54146
G1 X140.200 Y136.418 E3.82728
G1 X140.200 Y136.817 E3.84435
G1 X146.193 Y136.817 E4.10059
G1 X145.501 Y137.217 E4.13474
G1 X140.200 Y137.217 E4.36140
G1 X140.200 Y137.409 E4.36962
G1 X140.232 Y137.616 E4.37858
G1 X144.809 Y137.616 E4.57429
G1 X144.118 Y138.016 E4.60844
G1 X140.294 Y138.016 E4.77190
G1 X140.356 Y138.415 E4.78919
G1 X143.738 Y138.415 E4.93377
G1 X143.738 Y138.814 E4.95084
G1 X140.419 Y138.814 E5.09276
G1 X140.481 Y139.214 E5.11004
G1 X143.738 Y139.214 E5.24930
G1 X143.738 Y139.613 E5.26638
G1 X140.543 Y139.613 E5.40298
G1 X140.605 Y140.013 E5.42026
G1 X143.738 Y140.013 E5.55420
G1 X143.738 Y140.412 E5.57127
G1 X140.668 Y140.412 E5.70255
G1 X140.730 Y140.811 E5.71983
G1 X143.738 Y140.811 E5.84845
G1 X143.738 Y141.211 E5.86553
G1 X140.792 Y141.211 E5.99148
G1 X140.854 Y141.610 E6.00876
G1 X143.738 Y141.610 E6.13206
G1 X143.738 Y142.010 E6.14913
G1 X140.916 Y142.010 E6.26977
G1 X140.979 Y142.409 E6.28705
G1 X143.738 Y142.409 E6.40502
G1 X143.738 Y142.809 E6.42210
G1 X141.041 Y142.809 E6.53741
G1 X141.103 Y143.208 E6.55470
G1 X143.738 Y143.208 E6.66735
G1 X143.738 Y143.607 E6.68442
G1 X141.165 Y143.607 E6.79442
G1 X141.228 Y144.007 E6.81170
G1 X143.738 Y144.007 E6.91903
G1 X143.738 Y144.406 E6.93611
G1 X141.290 Y144.406 E7.04078
G1 X141.352 Y144.806 E7.05806
G1 X143.738 Y144.806 E7.16007
G1 X143.738 Y145.205 E7.17714
G1 X141.414 Y145.205 E7.27649
G1 X141.477 Y145.604 E7.29377
G1 X143.979 Y145.604 E7.40076
G1 X144.171 Y145.715 E7.41025
G1 X144.171 Y146.004 E7.42258
G1 X141.539 Y146.004 E7.53512
G1 X141.601 Y146.403 E7.55240
G1 X144.171 Y146.403 E7.66228
G1 X144.171 Y146.803 E7.67936
G1 X141.663 Y146.803 E7.78658
G1 X141.726 Y147.202 E7.80386
G1 X144.171 Y147.202 E7.90842
G1 X144.171 Y147.601 E7.92549
G1 X141.788 Y147.601 E8.02739
G1 X141.850 Y148.001 E8.04467
G1 X144.171 Y148.001 E8.14391
G1 X144.171 Y148.400 E8.16099
G1 X141.912 Y148.400 E8.25756
G1 X141.974 Y148.800 E8.27484
G1 X144.171 Y148.800 E8.36876
G1 X144.171 Y149.199 E8.38584
G1 X142.037 Y149.199 E8.47709
G1 X142.099 Y149.598 E8.49437
G1 X144.604 Y149.598 E8.60148
G1 X144.604 Y149.998 E8.61856
G1 X142.161 Y149.998 E8.72300
G1 X142.223 Y150.397 E8.74028
G1 X144.604 Y150.397 E8.84207
G1 X144.604 Y150.797 E8.85914
G1 X142.286 Y150.797 E8.95827
G1 X142.348 Y151.196 E8.97555
G1 X144.604 Y151.196 E9.07202
G1 X144.604 Y151.595 E9.08909
G1 X142.410 Y151.595 E9.18290
G1 X142.472 Y151.995 E9.20018
G1 X144.604 Y151.995 E9.29132
G1 X144.604 Y152.394 E9.30840
G1 X142.535 Y152.394 E9.39688
G1 X142.597 Y152.794 E9.41416
G1 X144.604 Y152.794 E9.49998
G1 X144.604 Y152.965 E9.50732
G1 X144.999 Y153.193 E9.52680
G1 X142.659 Y153.193 E9.62683
G1 X142.721 Y153.593 E9.64412
G1 X145.037 Y153.593 E9.74313
G1 X145.037 Y153.992 E9.76020
G1 X142.783 Y153.992 E9.85656
G1 X142.846 Y154.391 E9.87384
G1 X145.037 Y154.391 E9.96753
G1 X145.037 Y154.791 E9.98461
G1 X142.908 Y154.791 E10.07564
G1 X142.970 Y155.190 E10.09292
G1 X145.037 Y155.190 E10.18129
G1 X145.037 Y155.590 E10.19836
G1 X143.032 Y155.590 E10.28407
G1 X143.095 Y155.989 E10.30136
G1 X145.037 Y155.989 E10.38441
G1 X145.037 Y156.388 E10.40148
G1 X143.157 Y156.388 E10.48187
G1 X143.219 Y156.788 E10.49915
G1 X145.163 Y156.788 E10.58225
G1 X145.470 Y156.965 E10.59742
G1 X145.470 Y157.187 E10.60691
G1 X143.281 Y157.187 E10.70049
G1 X143.344 Y157.587 E10.71778
G1 X145.470 Y157.587 E10.80869
G1 X145.470 Y157.986 E10.82577
G1 X143.406 Y157.986 E10.91403
G1 X143.468 Y158.385 E10.93131
G1 X145.470 Y158.385 E11.01691
G1 X145.470 Y158.785 E11.03398
G1 X143.530 Y158.785 E11.11692
G1 X143.593 Y159.184 E11.13420
G1 X145.470 Y159.184 E11.21448
G1 X145.470 Y159.584 E11.23155
G1 X143.655 Y159.584 E11.30917
G1 X143.717 Y159.983 E11.32645
G1 X145.470 Y159.983 E11.40141
G1 X145.470 Y160.382 E11.41848
G1 X143.779 Y160.382 E11.49078
G1 X143.841 Y160.782 E11.50806
G1 X145.903 Y160.782 E11.59621
G1 X145.903 Y161.181 E11.61328
G1 X143.904 Y161.181 E11.69877
G1 X143.966 Y161.581 E11.71605
G1 X145.903 Y161.581 E11.79887
G1 X145.903 Y161.980 E11.81595
G1 X144.028 Y161.980 E11.89611
G1 X144.090 Y162.380 E11.91340
G1 X145.903 Y162.380 E11.99090
G1 X145.903 Y162.779 E12.00798
G1 X144.153 Y162.779 E12.08282
G1 X144.215 Y163.178 E12.10010
G1 X145.903 Y163.178 E12.17228
G1 X145.903 Y163.578 E12.18936
G1 X144.277 Y163.578 E12.25888
G1 X144.339 Y163.977 E12.27616
G1 X145.903 Y163.977 E12.34302
G1 X145.903 Y164.215 E12.35320
G1 X146.183 Y164.377 E12.36700
G1 X144.402 Y164.377 E12.44314
G1 X144.464 Y164.776 E12.46042
G1 X146.336 Y164.776 E12.54047
G1 X146.336 Y165.175 E12.55755
G1 X144.526 Y165.175 E12.63494
G1 X144.588 Y165.575 E12.65222
G1 X146.336 Y165.575 E12.72696
G1 X146.336 Y165.974 E12.74403
G1 X144.650 Y165.974 E12.81610
G1 X144.713 Y166.374 E12.83338
G1 X146.336 Y166.374 E12.90279
G1 X146.336 Y166.773 E12.91987
G1 X144.775 Y166.773 E12.98662
G1 X144.837 Y167.172 E13.00390
G1 X146.336 Y167.172 E13.06799
G1 X146.336 Y167.572 E13.08506
G1 X144.899 Y167.572 E13.14649
G1 X144.962 Y167.971 E13.16377
G1 X146.347 Y167.971 E13.22298
G1 X146.769 Y168.215 E13.24385
G1 X146.769 Y168.371 E13.25049
G1 X145.024 Y168.371 E13.32511
G1 X145.086 Y168.770 E13.34239
G1 X146.769 Y168.770 E13.41435
G1 X146.769 Y169.169 E13.43143
G1 X145.148 Y169.169 E13.50072
G1 X145.211 Y169.569 E13.51801
G1 X146.769 Y169.569 E13.58464
G1 X146.769 Y169.968 E13.60172
G1 X145.273 Y169.968 E13.66570
G1 X145.335 Y170.368 E13.68298
G1 X146.769 Y170.368 E13.74429
G1 X146.769 Y170.767 E13.76137
G1 X145.397 Y170.767 E13.82002
G1 X145.460 Y171.167 E13.83731
G1 X146.769 Y171.167 E13.89330
G1 X146.769 Y171.566 E13.91038
G1 X145.522 Y171.566 E13.96371
G1 X145.584 Y171.965 E13.98099
G1 X147.202 Y171.965 E14.05018
G1 X147.202 Y172.365 E14.06725
G1 X145.646 Y172.365 E14.13378
G1 X145.708 Y172.764 E14.15106
G1 X147.202 Y172.764 E14.21492
G1 X147.202 Y173.164 E14.23200
G1 X145.771 Y173.164 E14.29320
G1 X145.833 Y173.563 E14.31048
G1 X147.202 Y173.563 E14.36903
G1 X147.202 Y173.962 E14.38610
G1 X145.895 Y173.962 E14.44198
G1 X145.957 Y174.362 E14.45927
G1 X147.202 Y174.362 E14.51249
G1 X147.202 Y174.465 E14.51691
G1 X147.635 Y174.715 E14.53829
G1 X147.635 Y174.761 E14.54025
G1 X146.020 Y174.761 E14.60932
G1 X146.082 Y175.161 E14.62661
G1 X147.635 Y175.161 E14.69302
G1 X147.635 Y175.560 E14.71009
G1 X146.144 Y175.560 E14.77385
G1 X146.206 Y175.959 E14.79113
G1 X147.635 Y175.959 E14.85222
G1 X147.635 Y176.359 E14.86930
G1 X146.269 Y176.359 E14.92773
G1 X146.331 Y176.758 E14.94501
G1 X147.710 Y176.758 E15.00396
G1 X148.068 Y176.965 E15.02166
G1 X148.068 Y177.158 E15.02989
G1 X146.393 Y177.158 E15.10151
G1 X146.455 Y177.557 E15.11879
G1 X148.068 Y177.557 E15.18775
G1 X148.068 Y177.956 E15.20483
G1 X146.518 Y177.956 E15.27113
G1 X146.580 Y178.356 E15.28841
G1 X148.068 Y178.356 E15.35205
G1 X148.068 Y178.465 E15.35673
G1 X148.571 Y178.755 E15.38153
G1 X146.642 Y178.755 E15.46398
G1 X146.704 Y179.155 E15.48126
G1 X149.262 Y179.155 E15.59064
G1 X149.954 Y179.554 E15.62479
G1 X146.766 Y179.554 E15.76107
G1 X146.829 Y179.954 E15.77836
G1 X153.171 Y179.954 E16.04952
G1 X153.109 Y180.353 E16.06680
G1 X146.891 Y180.353 E16.33265
G1 X146.953 Y180.752 E16.34993
G1 X149.421 Y180.752 E16.45546
G1 X149.734 Y180.671 E16.46927
G1 X150.000 Y180.650 E16.48067
G1 X150.269 Y180.671 E16.49220
G1 X150.579 Y180.752 E16.50589
G1 X153.047 Y180.752 E16.61142
G1 X152.985 Y181.152 E16.62870
G1 X151.205 Y181.152 E16.70477
G1 X151.375 Y181.351 E16.71596
G1 X151.500 Y181.551 E16.72604
G1 X152.922 Y181.551 E16.78686
G1 X152.860 Y181.951 E16.80414
G1 X151.652 Y181.951 E16.85582
G1 X151.700 Y182.350 E16.87302
G1 X152.800 Y182.350 E16.92006
G1 X152.768 Y182.749 E16.93719
G1 X151.652 Y182.749 E16.98491
G1 X151.587 Y182.959 E16.99430
G1 X151.500 Y183.149 E17.00322
G1 X152.674 Y183.149 E17.05344
G1 X152.613 Y183.356 E17.06267
G1 X152.527 Y183.548 E17.07167
G1 X151.205 Y183.548 E17.12819
G1 X150.926 Y183.776 E17.14360
G1 X150.579 Y183.948 E17.16016
G1 X152.292 Y183.948 E17.23342
G1 X152.079 Y184.225 E17.24839
G1 X151.957 Y184.347 E17.25574
G1 X148.047 Y184.347 E17.42291
G1 X148.127 Y184.431 E17.42783
G1 X148.475 Y184.698 E17.44662
G1 X148.564 Y184.746 E17.45095
G1 X151.431 Y184.746 E17.57352
G1 X151.269 Y184.846 E17.58166
G1 X151.003 Y184.964 E17.59408
G1 X150.725 Y185.055 E17.60661
G1 X150.438 Y185.116 E17.61914
G1 X150.145 Y185.146 E17.63172
G1 E15.63172 F2400.00000
G92 E0
G1 X147.711 Y183.948 F7800.000
G1 E2.00000 F2400.00000
G1 F2400.000
G1 X149.421 Y183.948 E2.07311
G1 X149.074 Y183.776 E2.08967
G1 X148.795 Y183.548 E2.10508
G1 X147.479 Y183.548 E2.16132
G1 X147.386 Y183.353 E2.17055
G1 X147.326 Y183.149 E2.17967
G1 X148.500 Y183.149 E2.22989
G1 X148.413 Y182.959 E2.23881
G1 X148.348 Y182.749 E2.24819
G1 X147.232 Y182.749 E2.29592
G1 X147.200 Y182.350 E2.31305
G1 X148.300 Y182.350 E2.36009
G1 X148.310 Y182.167 E2.36792
G1 X148.348 Y181.951 E2.37732
G1 X147.140 Y181.951 E2.42900
G1 X147.078 Y181.551 E2.44628
G1 X148.500 Y181.551 E2.50710
G1 X148.625 Y181.351 E2.51718
G1 X148.795 Y181.152 E2.52837
G1 X147.015 Y181.152 E2.60444
G1 X146.953 Y180.752 E2.62172
G1 E0.62172 F2400.00000
G92 E0
G1 X150.046 Y179.554 F7800.000
G1 E2.00000 F2400.00000
G1 F2400.000
G1 X153.234 Y179.554 E2.13629
G1 X153.296 Y179.155 E2.15357
G1 X150.738 Y179.155 E2.26294
G1 X151.429 Y178.755 E2.29709
G1 X153.358 Y178.755 E2.37955
G1 X153.420 Y178.356 E2.39683
G1 X151.932 Y178.356 E2.46047
G1 X151.932 Y177.956 E2.47755
G1 X153.482 Y177.956 E2.54385
G1 X153.545 Y177.557 E2.56113
G1 X151.932 Y177.557 E2.63009
G1 X151.932 Y177.158 E2.64716
G1 X153.607 Y177.158 E2.71878
G1 X153.669 Y176.758 E2.73607
G1 X152.290 Y176.758 E2.79502
G1 X152.365 Y176.715 E2.79870
G1 X152.365 Y176.359 E2.81393
G1 X153.731 Y176.359 E2.87236
G1 X153.794 Y175.959 E2.88965
G1 X152.365 Y175.959 E2.95074
G1 X152.365 Y175.560 E2.96781
G1 X153.856 Y175.560 E3.03156
G1 X153.918 Y175.161 E3.04885
G1 X152.365 Y175.161 E3.11526
G1 X152.365 Y174.761 E3.13233
G1 X153.980 Y174.761 E3.20141
G1 X154.043 Y174.362 E3.21869
G1 X152.798 Y174.362 E3.27191
G1 X152.798 Y173.962 E3.28898
G1 X154.105 Y173.962 E3.34487
G1 X154.167 Y173.563 E3.36215
G1 X152.798 Y173.563 E3.42069
G1 X152.798 Y173.164 E3.43777
G1 X154.229 Y173.164 E3.49897
G1 X154.292 Y172.764 E3.51625
G1 X152.798 Y172.764 E3.58011
G1 X152.798 Y172.365 E3.59719
G1 X154.354 Y172.365 E3.66372
G1 X154.416 Y171.965 E3.68100
G1 X152.798 Y171.965 E3.75018
G1 X153.231 Y171.715 E3.77156
G1 X153.231 Y171.566 E3.77794
G1 X154.478 Y171.566 E3.83128
G1 X154.540 Y171.167 E3.84856
G1 X153.231 Y171.167 E3.90455
G1 X153.231 Y170.767 E3.92163
G1 X154.603 Y170.767 E3.98028
G1 X154.665 Y170.368 E3.99756
G1 X153.231 Y170.368 E4.05888
G1 X153.231 Y169.968 E4.07595
G1 X154.727 Y169.968 E4.13993
G1 X154.789 Y169.569 E4.15721
G1 X153.231 Y169.569 E4.22385
G1 X153.231 Y169.169 E4.24092
G1 X154.852 Y169.169 E4.31022
G1 X154.914 Y168.770 E4.32750
G1 X153.231 Y168.770 E4.39946
G1 X153.231 Y168.371 E4.41654
G1 X154.976 Y168.371 E4.49116
G1 X155.038 Y167.971 E4.50844
G1 X153.653 Y167.971 E4.56765
G1 X153.664 Y167.572 E4.58473
G1 X155.101 Y167.572 E4.64616
G1 X155.163 Y167.172 E4.66344
G1 X153.664 Y167.172 E4.72753
G1 X153.664 Y166.773 E4.74460
G1 X155.225 Y166.773 E4.81135
G1 X155.287 Y166.374 E4.82863
G1 X153.664 Y166.374 E4.89804
G1 X153.664 Y165.974 E4.91512
G1 X155.350 Y165.974 E4.98719
G1 X155.412 Y165.575 E5.00447
G1 X153.664 Y165.575 E5.07920
G1 X153.664 Y165.175 E5.09627
G1 X155.474 Y165.175 E5.17367
G1 X155.536 Y164.776 E5.19095
G1 X153.664 Y164.776 E5.27100
G1 X153.664 Y164.465 E5.28428
G1 X153.817 Y164.377 E5.29187
G1 X155.598 Y164.377 E5.36801
G1 X155.661 Y163.977 E5.38529
G1 X154.097 Y163.977 E5.45215
G1 X154.097 Y163.578 E5.46923
G1 X155.723 Y163.578 E5.53875
G1 X155.785 Y163.178 E5.55603
G1 X154.097 Y163.178 E5.62821
G1 X154.097 Y162.779 E5.64529
