; Generated by RP3 on 2021-07-8
; Job 0 - 3D Cloner

G21 ; set units to millimeters
M107 ;fan off
G28 ;home all axes
G90 ;absolute coordinates
G28 E0 ;home all axes
G1 E20.0 F100.0 ;extrude 20mm material with 100 mm/min speed
G28 E0 ;home all axes
G90 ;use absolute coordinates
M82 ; use absolute distances for extrusion
G92 E0 ;home of axes
M104 S90
G1 E-2.00000 F24000 ;retracts 2mm of material
M106 S102

(Layer 1)
G1  Z0.250 F2400

(Raster 1)
G92 E0
G1  X0040.497 Y0000.650 F2400
G1  E2.00000 F2400
G1  X0005.503 Y0000.650 E3.600 F2400
G1  X0005.025 Y0000.673 E3.622
G1  X0004.554 Y0000.743 E3.644
G1  X0004.093 Y0000.859 E3.665
G1  X0003.644 Y0001.020 E3.687
G1  X0003.580 Y0001.050 E3.690
G1  X0042.420 Y0001.050 E5.466
G1  X0042.786 Y0001.222 E5.485
G1  X0043.165 Y0001.450 E5.505
G1  X0002.835 Y0001.450 E7.349
G1  X0002.805 Y0001.468 E7.350
G1  X0002.423 Y0001.751 E7.372
G1  X0002.314 Y0001.850 E7.379
G1  X0043.686 Y0001.850 E9.270
G1  X0043.930 Y0002.070 E9.285
G1  X0044.092 Y0002.250 E9.296
G1  X0001.908 Y0002.250 E11.225
G1  X0001.751 Y0002.423 E11.236
G1  X0001.583 Y0002.650 E11.249
G1  X0044.417 Y0002.650 E13.207
G1  X0044.532 Y0002.805 E13.216
G1  X0044.679 Y0003.050 E13.229
G1  X0001.321 Y0003.050 E15.211
G1  X0001.222 Y0003.214 E15.220
G1  X0001.111 Y0003.450 E15.232
G1  X0044.889 Y0003.450 E17.233
G1  X0044.980 Y0003.644 E17.243
G1  X0045.054 Y0003.850 E17.253
G1  X0000.946 Y0003.850 E19.270
G1  X0000.859 Y0004.093 E19.282
G1  X0000.819 Y0004.250 E19.289
G1  X0045.181 Y0004.250 E21.317
G1  X0045.257 Y0004.554 E21.332
G1  X0045.271 Y0004.650 E21.336
G1  X0041.078 Y0004.650 E21.528
G1  X0041.182 Y0004.705 E21.533
G1  X0041.509 Y0004.970 E21.552
G1  X0041.576 Y0005.050 E21.557
G1  X0045.328 Y0005.050 E21.729
G1  X0045.347 Y0005.450 E21.747
G1  X0041.864 Y0005.450 E21.906
G1  X0041.980 Y0005.664 E21.917
G1  X0042.038 Y0005.850 E21.926
G1  X0045.350 Y0005.850 E22.078
G1  X0045.350 Y0006.250 E22.096
G1  X0042.125 Y0006.250 E22.244
G1  X0042.149 Y0006.485 E22.254
G1  X0042.134 Y0006.650 E22.262
G1  X0045.350 Y0006.650 E22.409
G1  X0045.350 Y0007.050 E22.427
G1  X0042.068 Y0007.050 E22.577
G1  X0041.991 Y0007.309 E22.590
G1  X0041.917 Y0007.450 E22.597
G1  X0045.350 Y0007.450 E22.754
G1  X0045.350 Y0007.850 E22.772
G1  X0041.659 Y0007.850 E22.941
G1  X0041.530 Y0008.009 E22.950
G1  X0041.241 Y0008.250 E22.967
G1  X0045.350 Y0008.250 E23.155
G1  X0045.350 Y0008.650 E23.174
G1  X0000.650 Y0008.650 E25.217
G1  X0000.650 Y0009.050 E25.236
G1  X0045.350 Y0009.050 E27.279
G1  X0045.350 Y0009.450 E27.298
G1  X0000.650 Y0009.450 E29.341
G1  X0000.650 Y0009.850 E29.360
G1  X0045.350 Y0009.850 E31.403
G1  X0045.350 Y0010.250 E31.422
G1  X0000.650 Y0010.250 E33.465
G1  X0000.650 Y0010.650 E33.483
G1  X0045.350 Y0010.650 E35.527
G1  X0045.350 Y0011.050 E35.545
G1  X0000.650 Y0011.050 E37.589
G1  X0000.650 Y0011.450 E37.607
G1  X0045.350 Y0011.450 E39.651
G1  X0045.350 Y0011.850 E39.669
G1  X0000.650 Y0011.850 E41.713
G1  X0000.650 Y0012.250 E41.731
G1  X0045.350 Y0012.250 E43.775
G1  X0045.350 Y0012.650 E43.793
G1  X0000.650 Y0012.650 E45.837
G1  X0000.650 Y0013.050 E45.855
G1  X0045.350 Y0013.050 E47.899
G1  X0045.350 Y0013.450 E47.917
G1  X0000.650 Y0013.450 E49.961
G1  X0000.650 Y0013.850 E49.979
G1  X0045.350 Y0013.850 E52.023
G1  X0045.350 Y0014.250 E52.041
G1  X0024.742 Y0014.250 E52.983
G1  X0025.293 Y0014.542 E53.012
G1  X0025.426 Y0014.650 E53.020
G1  X0045.350 Y0014.650 E53.931
G1  X0045.350 Y0015.050 E53.949
G1  X0025.917 Y0015.050 E54.837
G1  X0025.924 Y0015.056 E54.838
G1  X0026.250 Y0015.450 E54.861
G1  X0045.350 Y0015.450 E55.734
G1  X0045.350 Y0015.850 E55.753
G1  X0026.532 Y0015.850 E56.613
G1  X0026.748 Y0016.250 E56.634
G1  X0045.350 Y0016.250 E57.484
G1  X0045.350 Y0016.650 E57.503
G1  X0026.905 Y0016.650 E58.346
G1  X0027.028 Y0017.050 E58.365
G1  X0045.350 Y0017.050 E59.203
G1  X0045.350 Y0017.450 E59.221
G1  X0027.095 Y0017.450 E60.056
G1  X0027.135 Y0017.850 E60.074
G1  X0045.350 Y0017.850 E60.907
G1  X0045.350 Y0018.250 E60.925
G1  X0027.124 Y0018.250 E61.758
G1  X0027.086 Y0018.650 E61.777
G1  X0045.350 Y0018.650 E62.612
G1  X0045.350 Y0019.050 E62.630
G1  X0026.996 Y0019.050 E63.469
G1  X0026.876 Y0019.450 E63.488
G1  X0045.350 Y0019.450 E64.333
G1  X0045.350 Y0019.850 E64.351
G1  X0026.693 Y0019.850 E65.204
G1  X0026.481 Y0020.250 E65.225
G1  X0045.350 Y0020.250 E66.087
G1  X0045.350 Y0020.650 E66.106
G1  X0026.167 Y0020.650 E66.983
G1  X0025.944 Y0020.924 E66.999
G1  X0025.791 Y0021.050 E67.008
G1  X0045.350 Y0021.050 E67.902
G1  X0045.349 Y0021.450 E67.920
G1  X0025.302 Y0021.450 E68.837
G1  X0024.601 Y0021.828 E68.873
G1  X0024.529 Y0021.850 E68.877
G1  X0045.349 Y0021.850 E69.829
G1  X0045.349 Y0022.250 E69.847
G1  X0000.650 Y0022.250 E71.891
G1  X0000.650 Y0022.650 E71.909
G1  X0045.349 Y0022.650 E73.953
G1  X0045.349 Y0023.050 E73.971
G1  X0000.650 Y0023.050 E76.015
G1  X0000.650 Y0023.450 E76.033
G1  X0045.349 Y0023.450 E78.077
G1  X0045.349 Y0023.850 E78.095
G1  X0000.650 Y0023.850 E80.139
G1  X0000.650 Y0024.250 E80.157
G1  X0045.349 Y0024.250 E82.200
G1  X0045.349 Y0024.650 E82.219
G1  X0000.650 Y0024.650 E84.262
G1  X0000.650 Y0025.050 E84.281
G1  X0045.349 Y0025.050 E86.324
G1  X0045.349 Y0025.450 E86.343
G1  X0000.650 Y0025.450 E88.386
G1  X0000.650 Y0025.850 E88.405
G1  X0045.349 Y0025.850 E90.448
G1  X0045.349 Y0026.250 E90.467
G1  X0000.650 Y0026.250 E92.510
G1  X0000.650 Y0026.650 E92.528
G1  X0045.349 Y0026.650 E94.572
G1  X0045.349 Y0027.050 E94.590
G1  X0000.650 Y0027.050 E96.634
G1  X0000.650 Y0027.450 E96.652
G1  X0005.389 Y0027.450 E96.869
G1  X0005.164 Y0027.520 E96.880
G1  X0004.794 Y0027.721 E96.899
G1  X0004.639 Y0027.850 E96.908
G1  X0000.650 Y0027.850 E97.091
G1  X0000.650 Y0028.250 E97.109
G1  X0004.260 Y0028.250 E97.274
G1  X0004.205 Y0028.318 E97.278
G1  X0004.030 Y0028.650 E97.295
G1  X0000.650 Y0028.650 E97.450
G1  X0000.650 Y0029.050 E97.468
G1  X0003.902 Y0029.050 E97.617
G1  X0003.889 Y0029.095 E97.619
G1  X0003.857 Y0029.450 E97.635
G1  X0000.650 Y0029.450 E97.782
G1  X0000.650 Y0029.850 E97.800
G1  X0003.886 Y0029.850 E97.948
G1  X0003.895 Y0029.934 E97.952
G1  X0003.993 Y0030.250 E97.967
G1  X0000.650 Y0030.250 E98.120
G1  X0000.650 Y0030.496 E98.131
G1  X0000.658 Y0030.650 E98.138
G1  X0004.190 Y0030.650 E98.300
G1  X0004.221 Y0030.706 E98.303
G1  X0004.491 Y0031.030 E98.322
G1  X0004.515 Y0031.050 E98.323
G1  X0000.686 Y0031.050 E98.498
G1  X0000.741 Y0031.431 E98.516
G1  X0000.746 Y0031.450 E98.517
G1  X0005.112 Y0031.450 E98.716
G1  E96.716 F2400

(Raster 2)
G92 E0
G1  X0038.924 Y0004.650 F2400
G1  E2.00000 F2400
G1  X0007.078 Y0004.650 E3.456 F2400
G1  X0007.182 Y0004.705 E3.461
G1  X0007.509 Y0004.970 E3.481
G1  X0007.576 Y0005.050 E3.485
G1  X0038.422 Y0005.050 E4.896
G1  X0038.205 Y0005.318 E4.911
G1  X0038.135 Y0005.450 E4.918
G1  X0007.864 Y0005.450 E6.302
G1  X0007.980 Y0005.664 E6.313
G1  X0008.038 Y0005.850 E6.322
G1  X0037.962 Y0005.850 E7.690
G1  X0037.889 Y0006.095 E7.702
G1  X0037.875 Y0006.250 E7.709
G1  X0008.124 Y0006.250 E9.069
G1  X0008.149 Y0006.485 E9.080
G1  X0008.134 Y0006.650 E9.088
G1  X0037.865 Y0006.650 E10.447
G1  X0037.895 Y0006.934 E10.460
G1  X0037.931 Y0007.050 E10.466
G1  X0008.068 Y0007.050 E11.831
G1  X0007.991 Y0007.309 E11.843
G1  X0007.917 Y0007.450 E11.851
G1  X0038.082 Y0007.450 E13.230
G1  X0038.221 Y0007.706 E13.243
G1  X0038.341 Y0007.850 E13.252
G1  X0007.659 Y0007.850 E14.655
G1  X0007.530 Y0008.009 E14.664
G1  X0007.241 Y0008.250 E14.681
G1  X0038.762 Y0008.250 E16.122
G1  E14.122 F2400

(Raster 3)
G92 E0
G1  X0004.924 Y0004.650 F2400
G1  E2.00000 F2400
G1  X0000.729 Y0004.650 E2.192 F2400
G1  X0000.673 Y0005.025 E2.209
G1  X0000.672 Y0005.050 E2.210
G1  X0004.422 Y0005.050 E2.382
G1  X0004.205 Y0005.318 E2.397
G1  X0004.135 Y0005.450 E2.404
G1  X0000.653 Y0005.450 E2.564
G1  X0000.650 Y0005.504 E2.566
G1  X0000.650 Y0005.850 E2.582
G1  X0003.962 Y0005.850 E2.733
G1  X0003.889 Y0006.095 E2.745
G1  X0003.875 Y0006.250 E2.752
G1  X0000.650 Y0006.250 E2.899
G1  X0000.650 Y0006.650 E2.918
G1  X0003.865 Y0006.650 E3.065
G1  X0003.895 Y0006.934 E3.078
G1  X0003.931 Y0007.050 E3.083
G1  X0000.650 Y0007.050 E3.233
G1  X0000.650 Y0007.450 E3.252
G1  X0004.082 Y0007.450 E3.409
G1  X0004.221 Y0007.706 E3.422
G1  X0004.341 Y0007.850 E3.430
G1  X0000.650 Y0007.850 E3.599
G1  X0000.650 Y0008.250 E3.617
G1  X0004.762 Y0008.250 E3.805
G1  E1.805 F2400

(Raster 4)
G92 E0
G1  X0021.254 Y0014.250 F2400
G1  E2.00000 F2400
G1  X0000.650 Y0014.250 E2.942 F2400
G1  X0000.650 Y0014.650 E2.960
G1  X0020.571 Y0014.650 E3.871
G1  X0020.087 Y0015.050 E3.900
G1  X0000.650 Y0015.050 E4.788
G1  X0000.650 Y0015.450 E4.807
G1  X0019.751 Y0015.450 E5.680
G1  X0019.542 Y0015.707 E5.695
G1  X0019.466 Y0015.850 E5.703
G1  X0000.650 Y0015.850 E6.563
G1  X0000.650 Y0016.250 E6.581
G1  X0019.254 Y0016.250 E7.432
G1  X0019.161 Y0016.426 E7.441
G1  X0019.094 Y0016.650 E7.452
G1  X0000.650 Y0016.650 E8.295
G1  X0000.650 Y0017.050 E8.313
G1  X0018.974 Y0017.050 E9.151
G1  X0018.928 Y0017.205 E9.158
G1  X0018.904 Y0017.450 E9.170
G1  X0000.650 Y0017.450 E10.004
G1  X0000.650 Y0017.850 E10.022
G1  X0018.866 Y0017.850 E10.855
G1  X0018.851 Y0018.015 E10.863
G1  X0018.875 Y0018.250 E10.874
G1  X0000.650 Y0018.250 E11.707
G1  X0000.650 Y0018.650 E11.725
G1  X0018.916 Y0018.650 E12.560
G1  X0018.933 Y0018.824 E12.568
G1  X0019.003 Y0019.050 E12.579
G1  X0000.650 Y0019.050 E13.418
G1  X0000.650 Y0019.450 E13.436
G1  X0019.126 Y0019.450 E14.281
G1  X0019.172 Y0019.601 E14.288
G1  X0019.306 Y0019.850 E14.301
G1  X0000.650 Y0019.850 E15.154
G1  X0000.650 Y0020.250 E15.173
G1  X0019.522 Y0020.250 E16.035
G1  X0019.558 Y0020.317 E16.039
G1  X0019.833 Y0020.650 E16.059
G1  X0000.650 Y0020.650 E16.936
G1  X0000.650 Y0021.050 E16.954
G1  X0020.206 Y0021.050 E17.848
G1  X0020.697 Y0021.450 E17.877
G1  X0000.650 Y0021.450 E18.794
G1  X0000.650 Y0021.850 E18.812
G1  X0021.462 Y0021.850 E19.763
G1  E17.763 F2400

(Raster 5)
G92 E0
G1  X0006.611 Y0027.450 F2400
G1  E2.00000 F2400
G1  X0039.389 Y0027.450 E3.499 F2400
G1  X0039.164 Y0027.520 E3.509
G1  X0038.794 Y0027.721 E3.529
G1  X0038.639 Y0027.850 E3.538
G1  X0007.361 Y0027.850 E4.968
G1  X0007.509 Y0027.970 E4.977
G1  X0007.742 Y0028.250 E4.993
G1  X0038.260 Y0028.250 E6.389
G1  X0038.205 Y0028.318 E6.393
G1  X0038.030 Y0028.650 E6.410
G1  X0007.973 Y0028.650 E7.784
G1  X0007.980 Y0028.664 E7.785
G1  X0008.100 Y0029.050 E7.803
G1  X0037.902 Y0029.050 E9.166
G1  X0037.889 Y0029.095 E9.168
G1  X0037.857 Y0029.450 E9.184
G1  X0008.146 Y0029.450 E10.543
G1  X0008.149 Y0029.485 E10.544
G1  X0008.116 Y0029.850 E10.561
G1  X0037.886 Y0029.850 E11.922
G1  X0037.895 Y0029.934 E11.926
G1  X0037.993 Y0030.250 E11.941
G1  X0008.009 Y0030.250 E13.312
G1  X0007.991 Y0030.309 E13.315
G1  X0007.812 Y0030.650 E13.332
G1  X0038.191 Y0030.650 E14.721
G1  X0038.221 Y0030.706 E14.724
G1  X0038.491 Y0031.030 E14.743
G1  X0038.515 Y0031.050 E14.745
G1  X0007.481 Y0031.050 E16.164
G1  X0007.206 Y0031.279 E16.180
G1  X0006.891 Y0031.450 E16.196
G1  X0039.112 Y0031.450 E17.670
G1  E15.670 F2400

(Raster 6)
G92 E0
G1  X0040.611 Y0027.450 F2400
G1  E2.00000 F2400
G1  X0045.349 Y0027.450 E2.217 F2400
G1  X0045.349 Y0027.850 E2.235
G1  X0041.361 Y0027.850 E2.417
G1  X0041.509 Y0027.970 E2.426
G1  X0041.742 Y0028.250 E2.443
G1  X0045.349 Y0028.250 E2.608
G1  X0045.349 Y0028.650 E2.626
G1  X0041.973 Y0028.650 E2.780
G1  X0041.980 Y0028.664 E2.781
G1  X0042.100 Y0029.050 E2.799
G1  X0045.349 Y0029.050 E2.948
G1  X0045.349 Y0029.450 E2.966
G1  X0042.137 Y0029.450 E3.113
G1  X0042.145 Y0029.537 E3.117
G1  X0042.116 Y0029.850 E3.131
G1  X0045.349 Y0029.850 E3.279
G1  X0045.349 Y0030.250 E3.298
G1  X0042.009 Y0030.250 E3.450
G1  X0041.991 Y0030.309 E3.453
G1  X0041.812 Y0030.650 E3.471
G1  X0045.342 Y0030.650 E3.632
G1  X0045.324 Y0030.990 E3.648
G1  X0045.315 Y0031.050 E3.650
G1  X0041.481 Y0031.050 E3.826
G1  X0041.206 Y0031.279 E3.842
G1  X0040.891 Y0031.450 E3.859
G1  X0045.255 Y0031.450 E4.058
G1  X0045.253 Y0031.460 E4.058
G1  X0045.154 Y0031.850 E4.077
G1  X0000.844 Y0031.850 E6.103
G1  X0000.855 Y0031.893 E6.105
G1  X0000.982 Y0032.250 E6.122
G1  X0045.017 Y0032.250 E8.135
G1  X0044.974 Y0032.369 E8.141
G1  X0044.840 Y0032.650 E8.155
G1  X0001.159 Y0032.650 E10.152
G1  X0001.216 Y0032.773 E10.159
G1  X0001.382 Y0033.050 E10.173
G1  X0044.618 Y0033.050 E12.150
G1  X0044.523 Y0033.206 E12.159
G1  X0044.342 Y0033.450 E12.172
G1  X0001.658 Y0033.450 E14.124
G1  X0001.742 Y0033.565 E14.130
G1  X0001.999 Y0033.850 E14.148
G1  X0044.000 Y0033.850 E16.068
G1  X0043.919 Y0033.940 E16.074
G1  X0043.573 Y0034.250 E16.095
G1  X0002.427 Y0034.250 E17.976
G1  X0002.793 Y0034.523 E17.997
G1  X0003.003 Y0034.650 E18.008
G1  X0042.997 Y0034.650 E19.837
G1  X0042.773 Y0034.784 E19.849
G1  X0042.342 Y0034.985 E19.871
G1  X0042.159 Y0035.050 E19.879
G1  X0003.841 Y0035.050 E21.631
G1  E19.631 F2400

(Layer 2)
G1  Z0.500 F2400

(Raster 1)
G92 E0
G1  X0044.950 Y0032.419 F2400
G1  E2.00000 F2400
G1  X0044.950 Y0003.580 E3.319 F2400
G1  X0044.778 Y0003.214 E3.337
G1  X0044.550 Y0002.835 E3.357
G1  X0044.550 Y0033.158 E4.744
G1  X0044.506 Y0033.230 E4.747
G1  X0044.219 Y0033.610 E4.769
G1  X0044.150 Y0033.685 E4.774
G1  X0044.150 Y0002.314 E6.208
G1  X0043.930 Y0002.070 E6.223
G1  X0043.750 Y0001.908 E6.234
G1  X0043.750 Y0034.090 E7.706
G1  X0043.541 Y0034.275 E7.718
G1  X0043.350 Y0034.414 E7.729
G1  X0043.350 Y0001.583 E9.230
G1  X0043.195 Y0001.468 E9.239
G1  X0042.950 Y0001.321 E9.252
G1  X0042.950 Y0034.676 E10.777
G1  X0042.746 Y0034.796 E10.788
G1  X0042.550 Y0034.886 E10.798
G1  X0042.550 Y0001.111 E12.342
G1  X0042.356 Y0001.020 E12.352
G1  X0042.150 Y0000.946 E12.362
G1  X0042.150 Y0035.052 E13.921
G1  X0041.864 Y0035.152 E13.935
G1  X0041.750 Y0035.179 E13.940
G1  X0041.750 Y0030.738 E14.143
G1  X0041.530 Y0031.009 E14.159
G1  X0041.350 Y0031.159 E14.170
G1  X0041.350 Y0035.270 E14.358
G1  X0040.950 Y0035.326 E14.377
G1  X0040.950 Y0031.418 E14.555
G1  X0040.836 Y0031.480 E14.561
G1  X0040.550 Y0031.569 E14.575
G1  X0040.550 Y0035.347 E14.748
G1  X0040.496 Y0035.350 E14.750
G1  X0040.150 Y0035.350 E14.766
G1  X0040.150 Y0031.635 E14.936
G1  X0040.015 Y0031.649 E14.942
G1  X0039.750 Y0031.625 E14.954
G1  X0039.750 Y0035.350 E15.124
G1  X0039.350 Y0035.350 E15.143
G1  X0039.350 Y0031.538 E15.317
G1  X0039.191 Y0031.491 E15.325
G1  X0038.950 Y0031.365 E15.337
G1  X0038.950 Y0035.350 E15.519
G1  X0038.550 Y0035.350 E15.537
G1  X0038.550 Y0031.078 E15.733
G1  X0038.491 Y0031.030 E15.736
G1  X0038.221 Y0030.706 E15.756
G1  X0038.150 Y0030.575 E15.762
G1  X0038.150 Y0035.350 E15.981
G1  X0037.750 Y0035.350 E15.999
G1  X0037.750 Y0000.650 E17.585
G1  X0037.350 Y0000.650 E17.604
G1  X0037.350 Y0035.350 E19.190
G1  X0036.950 Y0035.350 E19.208
G1  X0036.950 Y0000.650 E20.795
G1  X0036.550 Y0000.650 E20.813
G1  X0036.550 Y0035.350 E22.400
G1  X0036.150 Y0035.350 E22.418
G1  X0036.150 Y0000.650 E24.004
G1  X0035.750 Y0000.650 E24.023
G1  X0035.750 Y0035.350 E25.609
G1  X0035.350 Y0035.350 E25.628
G1  X0035.350 Y0000.650 E27.214
G1  X0034.950 Y0000.650 E27.232
G1  X0034.950 Y0035.350 E28.819
G1  X0034.550 Y0035.350 E28.837
G1  X0034.550 Y0000.650 E30.423
G1  X0034.150 Y0000.650 E30.442
G1  X0034.150 Y0035.350 E32.028
G1  X0033.750 Y0035.350 E32.047
G1  X0033.750 Y0000.650 E33.633
G1  X0033.350 Y0000.650 E33.651
G1  X0033.350 Y0035.350 E35.238
G1  X0032.950 Y0035.350 E35.256
G1  X0032.950 Y0000.650 E36.843
G1  X0032.550 Y0000.650 E36.861
G1  X0032.550 Y0035.349 E38.447
G1  X0032.150 Y0035.349 E38.466
G1  X0032.150 Y0000.650 E40.052
G1  X0031.750 Y0000.650 E40.070
G1  X0031.750 Y0035.349 E41.657
G1  X0031.350 Y0035.349 E41.675
G1  X0031.350 Y0000.650 E43.261
G1  X0030.950 Y0000.650 E43.280
G1  X0030.950 Y0035.349 E44.866
G1  X0030.550 Y0035.349 E44.885
G1  X0030.550 Y0000.650 E46.471
G1  X0030.150 Y0000.650 E46.489
G1  X0030.150 Y0035.349 E48.076
G1  X0029.750 Y0035.349 E48.094
G1  X0029.750 Y0000.650 E49.680
G1  X0029.350 Y0000.650 E49.699
