; Generated by RP3 on 2021-07-8
; Job 0 - 3D Cloner

G21 ; set units to millimeters
M107 ;fan off
G28 ;home all axes
G90 ;absolute coordinates
G28 E0 ;home all axes
G1 E20.0 F100.0 ;extrude 20mm material with 100 mm/min speed
G28 E0 ;home all axes
G90 ;use absolute coordinates
M82 ; use absolute distances for extrusion
G92 E0 ;home of axes
M104 S90
G1 E-2.00000 F24000 ;retracts 2mm of material
M106 S102

(Layer 1)
G1  Z0.250 F2400

(Raster 1)
G92 E0
G1  X0044.950 Y0032.419 F2400
G1  E2.00000 F2400
G1  X0044.950 Y0003.580 E3.319 F2400
G1  X0044.778 Y0003.214 E3.337
G1  X0044.550 Y0002.835 E3.357
G1  X0044.550 Y0033.162 E4.744
G1  X0044.523 Y0033.206 E4.746
G1  X0044.239 Y0033.588 E4.768
G1  X0044.150 Y0033.685 E4.774
G1  X0044.150 Y0002.314 E6.208
G1  X0043.930 Y0002.070 E6.223
G1  X0043.750 Y0001.908 E6.234
G1  X0043.750 Y0034.091 E7.706
G1  X0043.565 Y0034.258 E7.717
G1  X0043.350 Y0034.416 E7.729
G1  X0043.350 Y0001.583 E9.230
G1  X0043.195 Y0001.468 E9.239
G1  X0042.950 Y0001.321 E9.252
G1  X0042.950 Y0034.678 E10.777
G1  X0042.773 Y0034.784 E10.787
G1  X0042.550 Y0034.888 E10.798
G1  X0042.550 Y0001.111 E12.342
G1  X0042.356 Y0001.020 E12.352
G1  X0042.150 Y0000.946 E12.362
G1  X0042.150 Y0035.053 E13.922
G1  X0041.893 Y0035.145 E13.934
G1  X0041.750 Y0035.180 E13.941
G1  X0041.750 Y0030.738 E14.144
G1  X0041.530 Y0031.009 E14.160
G1  X0041.350 Y0031.159 E14.171
G1  X0041.350 Y0035.271 E14.359
G1  X0040.960 Y0035.327 E14.377
G1  X0040.950 Y0035.328 E14.377
G1  X0040.950 Y0031.418 E14.556
G1  X0040.836 Y0031.480 E14.562
G1  X0040.550 Y0031.569 E14.575
G1  X0040.550 Y0035.347 E14.748
G1  X0040.496 Y0035.350 E14.751
G1  X0040.150 Y0035.350 E14.766
G1  X0040.150 Y0031.635 E14.936
G1  X0040.015 Y0031.649 E14.943
G1  X0039.750 Y0031.625 E14.955
G1  X0039.750 Y0035.350 E15.125
G1  X0039.350 Y0035.350 E15.143
G1  X0039.350 Y0031.538 E15.318
G1  X0039.191 Y0031.491 E15.325
G1  X0038.950 Y0031.365 E15.338
G1  X0038.950 Y0035.350 E15.520
G1  X0038.550 Y0035.350 E15.538
G1  X0038.550 Y0031.078 E15.733
G1  X0038.491 Y0031.030 E15.737
G1  X0038.221 Y0030.706 E15.756
G1  X0038.150 Y0030.575 E15.763
G1  X0038.150 Y0035.350 E15.981
G1  X0037.750 Y0035.350 E16.000
G1  X0037.750 Y0000.650 E17.586
G1  X0037.350 Y0000.650 E17.604
G1  X0037.350 Y0035.350 E19.191
G1  X0036.950 Y0035.350 E19.209
G1  X0036.950 Y0000.650 E20.796
G1  X0036.550 Y0000.650 E20.814
G1  X0036.550 Y0035.350 E22.400
G1  X0036.150 Y0035.350 E22.419
G1  X0036.150 Y0000.650 E24.005
G1  X0035.750 Y0000.650 E24.023
G1  X0035.750 Y0035.350 E25.610
G1  X0035.350 Y0035.350 E25.628
G1  X0035.350 Y0000.650 E27.215
G1  X0034.950 Y0000.650 E27.233
G1  X0034.950 Y0035.350 E28.819
G1  X0034.550 Y0035.350 E28.838
G1  X0034.550 Y0000.650 E30.424
G1  X0034.150 Y0000.650 E30.442
G1  X0034.150 Y0035.350 E32.029
G1  X0033.750 Y0035.350 E32.047
G1  X0033.750 Y0000.650 E33.634
G1  X0033.350 Y0000.650 E33.652
G1  X0033.350 Y0035.350 E35.238
G1  X0032.950 Y0035.350 E35.257
G1  X0032.950 Y0000.650 E36.843
G1  X0032.550 Y0000.650 E36.862
G1  X0032.550 Y0035.350 E38.448
G1  X0032.150 Y0035.350 E38.466
G1  X0032.150 Y0000.650 E40.053
G1  X0031.750 Y0000.650 E40.071
G1  X0031.750 Y0035.350 E41.658
G1  X0031.350 Y0035.350 E41.676
G1  X0031.350 Y0000.650 E43.262
G1  X0030.950 Y0000.650 E43.281
G1  X0030.950 Y0035.350 E44.867
G1  X0030.550 Y0035.350 E44.885
G1  X0030.550 Y0000.650 E46.472
G1  X0030.150 Y0000.650 E46.490
G1  X0030.150 Y0035.350 E48.077
G1  X0029.750 Y0035.350 E48.095
G1  X0029.750 Y0000.650 E49.681
G1  X0029.350 Y0000.650 E49.700
G1  X0029.350 Y0035.350 E51.286
G1  X0028.950 Y0035.350 E51.304
G1  X0028.950 Y0000.650 E52.891
G1  X0028.550 Y0000.650 E52.909
G1  X0028.550 Y0035.350 E54.496
G1  X0028.150 Y0035.350 E54.514
G1  X0028.150 Y0000.650 E56.100
G1  X0027.750 Y0000.650 E56.119
G1  X0027.750 Y0035.350 E57.705
G1  X0027.350 Y0035.350 E57.723
G1  X0027.350 Y0000.650 E59.310
G1  X0026.950 Y0000.650 E59.328
G1  X0026.950 Y0016.796 E60.066
G1  X0026.828 Y0016.398 E60.085
G1  X0026.550 Y0015.883 E60.112
G1  X0026.550 Y0000.650 E60.809
G1  X0026.150 Y0000.650 E60.827
G1  X0026.150 Y0015.329 E61.498
G1  X0025.924 Y0015.056 E61.514
G1  X0025.750 Y0014.914 E61.525
G1  X0025.750 Y0000.650 E62.177
G1  X0025.350 Y0000.650 E62.195
G1  X0025.350 Y0014.588 E62.832
G1  X0025.293 Y0014.542 E62.836
G1  X0024.950 Y0014.360 E62.853
G1  X0024.950 Y0000.650 E63.480
G1  X0024.550 Y0000.650 E63.499
G1  X0024.550 Y0014.154 E64.116
G1  X0024.150 Y0014.034 E64.135
G1  X0024.150 Y0000.650 E64.747
G1  X0023.750 Y0000.650 E64.765
G1  X0023.750 Y0013.923 E65.372
G1  X0023.350 Y0013.885 E65.390
G1  X0023.350 Y0000.650 E65.996
G1  X0022.950 Y0000.650 E66.014
G1  X0022.950 Y0013.854 E66.618
G1  X0022.550 Y0013.895 E66.636
G1  X0022.550 Y0000.650 E67.241
G1  X0022.150 Y0000.650 E67.260
G1  X0022.150 Y0013.941 E67.867
G1  X0021.750 Y0014.064 E67.887
G1  X0021.750 Y0000.650 E68.500
G1  X0021.350 Y0000.650 E68.518
G1  X0021.350 Y0014.198 E69.138
G1  X0020.950 Y0014.414 E69.158
G1  X0020.950 Y0000.650 E69.788
G1  X0020.550 Y0000.650 E69.806
G1  X0020.550 Y0014.668 E70.447
G1  X0020.150 Y0014.998 E70.471
G1  X0020.150 Y0000.650 E71.127
G1  X0019.750 Y0000.650 E71.145
G1  X0019.750 Y0015.451 E71.822
G1  X0019.542 Y0015.707 E71.837
G1  X0019.350 Y0016.069 E71.855
G1  X0019.350 Y0000.650 E72.560
G1  X0018.950 Y0000.650 E72.579
G1  X0018.950 Y0017.130 E73.332
G1  E71.332 F2400

(Raster 2)
G92 E0
G1  X0041.750 Y0028.259 F2400
G1  E2.00000 F2400
G1  X0041.750 Y0007.738 E2.938 F2400
G1  X0041.530 Y0008.009 E2.954
G1  X0041.350 Y0008.159 E2.965
G1  X0041.350 Y0027.841 E3.865
G1  X0041.182 Y0027.705 E3.875
G1  X0040.950 Y0027.583 E3.887
G1  X0040.950 Y0008.418 E4.763
G1  X0040.836 Y0008.480 E4.769
G1  X0040.550 Y0008.569 E4.782
G1  X0040.550 Y0027.432 E5.645
G1  X0040.405 Y0027.389 E5.652
G1  X0040.150 Y0027.366 E5.664
G1  X0040.150 Y0008.635 E6.520
G1  X0040.015 Y0008.649 E6.526
G1  X0039.750 Y0008.625 E6.538
G1  X0039.750 Y0027.376 E7.396
G1  X0039.566 Y0027.395 E7.404
G1  X0039.350 Y0027.462 E7.414
G1  X0039.350 Y0008.538 E8.280
G1  X0039.191 Y0008.491 E8.287
G1  X0038.950 Y0008.364 E8.300
G1  X0038.950 Y0027.636 E9.181
G1  X0038.794 Y0027.721 E9.189
G1  X0038.550 Y0027.924 E9.203
G1  X0038.550 Y0008.078 E10.111
G1  X0038.491 Y0008.030 E10.114
G1  X0038.221 Y0007.706 E10.133
G1  X0038.150 Y0007.575 E10.140
G1  X0038.150 Y0028.422 E11.093
G1  E9.093 F2400

(Raster 3)
G92 E0
G1  X0041.750 Y0005.259 F2400
G1  E2.00000 F2400
G1  X0041.750 Y0000.819 E2.203 F2400
G1  X0041.446 Y0000.743 E2.217
G1  X0041.350 Y0000.729 E2.222
G1  X0041.350 Y0004.841 E2.410
G1  X0041.182 Y0004.705 E2.420
G1  X0040.950 Y0004.583 E2.432
G1  X0040.950 Y0000.672 E2.610
G1  X0040.550 Y0000.653 E2.629
G1  X0040.550 Y0004.432 E2.801
G1  X0040.405 Y0004.389 E2.808
G1  X0040.150 Y0004.366 E2.820
G1  X0040.150 Y0000.650 E2.990
G1  X0039.750 Y0000.650 E3.008
G1  X0039.750 Y0004.375 E3.179
G1  X0039.566 Y0004.395 E3.187
G1  X0039.350 Y0004.462 E3.197
G1  X0039.350 Y0000.650 E3.372
G1  X0038.950 Y0000.650 E3.390
G1  X0038.950 Y0004.636 E3.572
G1  X0038.794 Y0004.721 E3.580
G1  X0038.550 Y0004.924 E3.595
G1  X0038.550 Y0000.650 E3.790
G1  X0038.150 Y0000.650 E3.809
G1  X0038.150 Y0005.422 E4.027
G1  E2.027 F2400

(Raster 4)
G92 E0
G1  X0026.950 Y0019.204 F2400
G1  E2.00000 F2400
G1  X0026.950 Y0035.350 E2.738 F2400
G1  X0026.550 Y0035.350 E2.756
G1  X0026.550 Y0020.120 E3.453
G1  X0026.458 Y0020.293 E3.462
G1  X0026.150 Y0020.671 E3.484
G1  X0026.150 Y0035.350 E4.155
G1  X0025.750 Y0035.350 E4.173
G1  X0025.750 Y0021.084 E4.826
G1  X0025.350 Y0021.415 E4.849
G1  X0025.350 Y0035.350 E5.487
G1  X0024.950 Y0035.350 E5.505
G1  X0024.950 Y0021.640 E6.132
G1  X0024.601 Y0021.828 E6.150
G1  X0024.550 Y0021.844 E6.152
G1  X0024.550 Y0035.350 E6.770
G1  X0024.150 Y0035.350 E6.788
G1  X0024.150 Y0021.966 E7.400
G1  X0023.824 Y0022.067 E7.415
G1  X0023.750 Y0022.074 E7.419
G1  X0023.750 Y0035.350 E8.026
G1  X0023.350 Y0035.350 E8.044
G1  X0023.350 Y0022.115 E8.649
G1  X0023.015 Y0022.149 E8.665
G1  X0022.950 Y0022.143 E8.668
G1  X0022.950 Y0035.350 E9.271
G1  X0022.550 Y0035.350 E9.290
G1  X0022.550 Y0022.105 E9.895
G1  X0022.205 Y0022.072 E9.911
G1  X0022.150 Y0022.056 E9.914
G1  X0022.150 Y0035.350 E10.521
G1  X0021.750 Y0035.350 E10.540
G1  X0021.750 Y0021.936 E11.153
G1  X0021.426 Y0021.839 E11.168
G1  X0021.350 Y0021.799 E11.172
G1  X0021.350 Y0035.350 E11.792
G1  X0020.950 Y0035.350 E11.810
G1  X0020.950 Y0021.587 E12.439
G1  X0020.707 Y0021.458 E12.452
G1  X0020.550 Y0021.330 E12.461
G1  X0020.550 Y0035.350 E13.102
G1  X0020.150 Y0035.350 E13.121
G1  X0020.150 Y0021.004 E13.776
G1  X0020.076 Y0020.944 E13.781
G1  X0019.750 Y0020.549 E13.804
G1  X0019.750 Y0035.350 E14.481
G1  X0019.350 Y0035.350 E14.499
G1  X0019.350 Y0019.931 E15.204
G1  X0019.172 Y0019.601 E15.221
G1  X0018.950 Y0018.878 E15.256
G1  X0018.950 Y0035.350 E16.009
G1  X0018.550 Y0035.349 E16.027
G1  X0018.550 Y0000.650 E17.614
G1  X0018.150 Y0000.650 E17.632
G1  X0018.150 Y0035.349 E19.218
G1  X0017.750 Y0035.349 E19.237
G1  X0017.750 Y0000.650 E20.823
G1  X0017.350 Y0000.650 E20.841
G1  X0017.350 Y0035.349 E22.428
G1  X0016.950 Y0035.349 E22.446
G1  X0016.950 Y0000.650 E24.033
G1  X0016.550 Y0000.650 E24.051
G1  X0016.550 Y0035.349 E25.637
G1  X0016.150 Y0035.349 E25.656
G1  X0016.150 Y0000.650 E27.242
G1  X0015.750 Y0000.650 E27.260
G1  X0015.750 Y0035.349 E28.847
G1  X0015.350 Y0035.349 E28.865
G1  X0015.350 Y0000.650 E30.452
G1  X0014.950 Y0000.650 E30.470
G1  X0014.950 Y0035.349 E32.056
G1  X0014.550 Y0035.349 E32.075
G1  X0014.550 Y0000.650 E33.661
G1  X0014.150 Y0000.650 E33.679
G1  X0014.150 Y0035.349 E35.266
G1  X0013.750 Y0035.349 E35.284
G1  X0013.750 Y0000.650 E36.871
G1  X0013.350 Y0000.650 E36.889
G1  X0013.350 Y0035.349 E38.475
G1  X0012.950 Y0035.349 E38.494
G1  X0012.950 Y0000.650 E40.080
G1  X0012.550 Y0000.650 E40.098
G1  X0012.550 Y0035.349 E41.685
G1  X0012.150 Y0035.349 E41.703
G1  X0012.150 Y0000.650 E43.290
G1  X0011.750 Y0000.650 E43.308
G1  X0011.750 Y0035.349 E44.894
G1  X0011.350 Y0035.349 E44.913
G1  X0011.350 Y0000.650 E46.499
G1  X0010.950 Y0000.650 E46.517
G1  X0010.950 Y0035.349 E48.104
G1  X0010.550 Y0035.349 E48.122
G1  X0010.550 Y0000.650 E49.709
G1  X0010.150 Y0000.650 E49.727
G1  X0010.150 Y0035.349 E51.313
G1  X0009.750 Y0035.349 E51.332
G1  X0009.750 Y0000.650 E52.918
G1  X0009.350 Y0000.650 E52.936
G1  X0009.350 Y0035.349 E54.523
G1  X0008.950 Y0035.349 E54.541
G1  X0008.950 Y0000.650 E56.127
G1  X0008.550 Y0000.650 E56.146
G1  X0008.550 Y0035.349 E57.732
G1  X0008.150 Y0035.349 E57.751
G1  X0008.150 Y0000.650 E59.337
G1  X0007.750 Y0000.650 E59.355
G1  X0007.750 Y0005.259 E59.566
G1  X0007.509 Y0004.970 E59.583
G1  X0007.350 Y0004.841 E59.593
G1  X0007.350 Y0000.650 E59.784
G1  X0006.950 Y0000.650 E59.802
G1  X0006.950 Y0004.583 E59.982
G1  X0006.809 Y0004.509 E59.990
G1  X0006.550 Y0004.432 E60.002
G1  X0006.550 Y0000.650 E60.175
G1  X0006.150 Y0000.650 E60.193
G1  X0006.150 Y0004.366 E60.363
G1  X0005.985 Y0004.351 E60.371
G1  X0005.750 Y0004.375 E60.381
G1  X0005.750 Y0000.650 E60.552
G1  X0005.504 Y0000.650 E60.563
G1  X0005.350 Y0000.658 E60.570
G1  X0005.350 Y0004.462 E60.744
G1  X0005.164 Y0004.520 E60.753
G1  X0004.950 Y0004.636 E60.764
G1  X0004.950 Y0000.685 E60.945
G1  X0004.554 Y0000.743 E60.963
G1  X0004.550 Y0000.744 E60.963
G1  X0004.550 Y0004.924 E61.154
G1  X0004.470 Y0004.991 E61.159
G1  X0004.205 Y0005.318 E61.178
G1  X0004.150 Y0005.422 E61.184
G1  X0004.150 Y0000.844 E61.393
G1  X0004.093 Y0000.859 E61.396
G1  X0003.750 Y0000.982 E61.412
G1  X0003.750 Y0035.017 E62.968
G1  X0003.631 Y0034.974 E62.974
G1  X0003.350 Y0034.840 E62.988
G1  X0003.350 Y0001.158 E64.528
G1  X0003.214 Y0001.222 E64.535
G1  X0002.950 Y0001.381 E64.549
G1  X0002.950 Y0034.618 E66.069
G1  X0002.793 Y0034.523 E66.077
G1  X0002.550 Y0034.342 E66.091
G1  X0002.550 Y0001.657 E67.585
G1  X0002.423 Y0001.751 E67.593
G1  X0002.150 Y0001.998 E67.609
G1  X0002.150 Y0034.000 E69.073
G1  X0002.060 Y0033.919 E69.078
G1  X0001.750 Y0033.573 E69.099
G1  X0001.750 Y0002.425 E70.524
G1  X0001.468 Y0002.805 E70.545
G1  X0001.350 Y0003.002 E70.556
G1  X0001.350 Y0032.997 E71.927
G1  X0001.216 Y0032.773 E71.939
G1  X0001.015 Y0032.341 E71.961
G1  X0000.950 Y0032.160 E71.970
G1  X0000.950 Y0003.839 E73.264
G1  E71.264 F2400

(Raster 5)
G92 E0
G1  X0007.750 Y0007.738 F2400
G1  E2.00000 F2400
G1  X0007.750 Y0028.259 E2.938 F2400
G1  X0007.509 Y0027.970 E2.955
G1  X0007.350 Y0027.841 E2.965
G1  X0007.350 Y0008.159 E3.865
G1  X0007.206 Y0008.279 E3.873
G1  X0006.950 Y0008.418 E3.887
G1  X0006.950 Y0027.583 E4.763
G1  X0006.809 Y0027.509 E4.770
G1  X0006.550 Y0027.432 E4.782
G1  X0006.550 Y0008.569 E5.645
G1  X0006.434 Y0008.605 E5.650
G1  X0006.150 Y0008.635 E5.663
G1  X0006.150 Y0027.366 E6.520
G1  X0005.985 Y0027.351 E6.527
G1  X0005.750 Y0027.376 E6.538
G1  X0005.750 Y0008.625 E7.395
G1  X0005.595 Y0008.611 E7.403
G1  X0005.350 Y0008.538 E7.414
G1  X0005.350 Y0027.462 E8.279
G1  X0005.164 Y0027.520 E8.288
G1  X0004.950 Y0027.636 E8.299
G1  X0004.950 Y0008.364 E9.181
G1  X0004.818 Y0008.295 E9.187
G1  X0004.550 Y0008.078 E9.203
G1  X0004.550 Y0027.924 E10.111
G1  X0004.470 Y0027.991 E10.115
G1  X0004.205 Y0028.318 E10.135
G1  X0004.150 Y0028.422 E10.140
G1  X0004.150 Y0007.575 E11.093
G1  E9.093 F2400

(Raster 6)
G92 E0
G1  X0007.750 Y0030.738 F2400
G1  E2.00000 F2400
G1  X0007.750 Y0035.349 E2.211 F2400
G1  X0007.350 Y0035.349 E2.229
G1  X0007.350 Y0031.159 E2.421
G1  X0007.206 Y0031.279 E2.429
G1  X0006.950 Y0031.418 E2.443
G1  X0006.950 Y0035.349 E2.622
G1  X0006.550 Y0035.349 E2.641
G1  X0006.550 Y0031.569 E2.813
G1  X0006.434 Y0031.605 E2.819
G1  X0006.150 Y0031.635 E2.832
G1  X0006.150 Y0035.349 E3.002
G1  X0005.750 Y0035.349 E3.020
G1  X0005.750 Y0031.625 E3.190
G1  X0005.595 Y0031.611 E3.198
G1  X0005.350 Y0031.538 E3.209
G1  X0005.350 Y0035.342 E3.383
G1  X0005.010 Y0035.324 E3.399
G1  X0004.950 Y0035.315 E3.401
G1  X0004.950 Y0031.365 E3.582
G1  X0004.818 Y0031.295 E3.589
G1  X0004.550 Y0031.078 E3.605
G1  X0004.550 Y0035.255 E3.796
G1  X0004.540 Y0035.253 E3.796
G1  X0004.150 Y0035.154 E3.814
G1  X0004.150 Y0030.575 E4.024
G1  E2.024 F2400

(Layer 2)
G1  Z0.500 F2400

(Raster 1)
G92 E0
G1  X0040.497 Y0000.650 F2400
G1  E2.00000 F2400
G1  X0005.503 Y0000.650 E3.600 F2400
G1  X0005.025 Y0000.673 E3.622
G1  X0004.554 Y0000.743 E3.644
G1  X0004.093 Y0000.859 E3.665
G1  X0003.644 Y0001.020 E3.687
G1  X0003.580 Y0001.050 E3.690
G1  X0042.420 Y0001.050 E5.466
G1  X0042.786 Y0001.222 E5.485
G1  X0043.165 Y0001.450 E5.505
G1  X0002.835 Y0001.450 E7.349
G1  X0002.805 Y0001.468 E7.350
G1  X0002.423 Y0001.751 E7.372
G1  X0002.314 Y0001.850 E7.379
G1  X0043.686 Y0001.850 E9.270
G1  X0043.930 Y0002.070 E9.285
G1  X0044.092 Y0002.250 E9.296
G1  X0001.908 Y0002.250 E11.225
G1  X0001.751 Y0002.423 E11.236
G1  X0001.583 Y0002.650 E11.249
G1  X0044.417 Y0002.650 E13.207
G1  X0044.532 Y0002.805 E13.216
G1  X0044.679 Y0003.050 E13.229
G1  X0001.321 Y0003.050 E15.211
G1  X0001.222 Y0003.214 E15.220
G1  X0001.111 Y0003.450 E15.232
G1  X0044.889 Y0003.450 E17.233
G1  X0044.980 Y0003.644 E17.243
G1  X0045.054 Y0003.850 E17.253
G1  X0000.946 Y0003.850 E19.270
G1  X0000.859 Y0004.093 E19.282
G1  X0000.819 Y0004.250 E19.289
G1  X0045.181 Y0004.250 E21.317
G1  X0045.257 Y0004.554 E21.332
G1  X0045.271 Y0004.650 E21.336
G1  X0041.078 Y0004.650 E21.528
G1  X0041.182 Y0004.705 E21.533
G1  X0041.509 Y0004.970 E21.552
G1  X0041.576 Y0005.050 E21.557
G1  X0045.328 Y0005.050 E21.729
G1  X0045.347 Y0005.450 E21.747
G1  X0041.864 Y0005.450 E21.906
G1  X0041.980 Y0005.664 E21.917
G1  X0042.038 Y0005.850 E21.926
G1  X0045.350 Y0005.850 E22.078
G1  X0045.350 Y0006.250 E22.096
G1  X0042.124 Y0006.250 E22.244
G1  X0042.149 Y0006.485 E22.254
G1  X0042.134 Y0006.650 E22.262
G1  X0045.350 Y0006.650 E22.409
G1  X0045.350 Y0007.050 E22.427
G1  X0042.068 Y0007.050 E22.577
G1  X0041.991 Y0007.309 E22.590
G1  X0041.917 Y0007.450 E22.597
G1  X0045.350 Y0007.450 E22.754
G1  X0045.350 Y0007.850 E22.772
