; Generated by RP3 on 2021-07-8
; Job 0 - 3D Cloner

G21 ; set units to millimeters
M107 ;fan off
G28 ;home all axes
G90 ;absolute coordinates
G28 E0 ;home all axes
G1 E20.0 F100.0 ;extrude 20mm material with 100 mm/min speed
G28 E0 ;home all axes
G90 ;use absolute coordinates
M82 ; use absolute distances for extrusion
G92 E0 ;home of axes
M104 S90
G1 E-2.00000 F24000 ;retracts 2mm of material
M106 S102

(Layer 1)
G1  Z0.250 F2400

(Raster 1)
G92 E0
G1  X0029.987 Y0000.652 F2400
G1  E2.00000 F2400
G1  X0046.011 Y0000.652 E2.733 F2400
G1  X0046.320 Y0000.679 E2.747
G1  X0046.632 Y0000.762 E2.762
G1  X0046.924 Y0000.898 E2.776
G1  X0047.143 Y0001.052 E2.789
G1  X0028.856 Y0001.052 E3.625
G1  X0028.810 Y0001.083 E3.627
G1  X0028.583 Y0001.311 E3.642
G1  X0028.484 Y0001.452 E3.650
G1  X0047.514 Y0001.452 E4.520
G1  X0047.601 Y0001.575 E4.527
G1  X0047.730 Y0001.852 E4.541
G1  X0028.269 Y0001.852 E5.430
G1  X0028.261 Y0001.867 E5.431
G1  X0028.178 Y0002.184 E5.446
G1  X0028.172 Y0002.252 E5.449
G1  X0047.827 Y0002.252 E6.348
G1  X0047.849 Y0002.507 E6.360
G1  X0047.849 Y0002.652 E6.366
G1  X0028.149 Y0002.652 E7.267
G1  X0028.149 Y0003.052 E7.285
G1  X0047.849 Y0003.052 E8.186
G1  X0047.849 Y0003.452 E8.204
G1  X0028.149 Y0003.452 E9.105
G1  X0028.149 Y0003.852 E9.123
G1  X0047.849 Y0003.852 E10.024
G1  X0047.849 Y0004.252 E10.042
G1  X0028.149 Y0004.252 E10.943
G1  X0028.149 Y0004.652 E10.961
G1  X0047.849 Y0004.652 E11.862
G1  X0047.849 Y0005.052 E11.880
G1  X0028.149 Y0005.052 E12.781
G1  X0028.149 Y0005.452 E12.799
G1  X0047.849 Y0005.452 E13.700
G1  X0047.849 Y0005.852 E13.718
G1  X0028.149 Y0005.852 E14.619
G1  X0028.149 Y0006.252 E14.637
G1  X0047.849 Y0006.252 E15.538
G1  X0047.849 Y0006.453 E15.547
G1  X0047.858 Y0006.652 E15.556
G1  X0028.141 Y0006.652 E16.457
G1  X0028.124 Y0007.052 E16.476
G1  X0047.875 Y0007.052 E17.379
G1  X0047.892 Y0007.452 E17.397
G1  X0028.107 Y0007.452 E18.302
G1  X0028.090 Y0007.852 E18.320
G1  X0047.909 Y0007.852 E19.226
G1  X0047.923 Y0008.167 E19.241
G1  X0047.934 Y0008.252 E19.245
G1  X0028.064 Y0008.252 E20.153
G1  X0028.013 Y0008.652 E20.171
G1  X0047.985 Y0008.652 E21.085
G1  X0048.037 Y0009.052 E21.103
G1  X0027.962 Y0009.052 E22.021
G1  X0027.910 Y0009.452 E22.039
G1  X0048.088 Y0009.452 E22.962
G1  X0048.140 Y0009.852 E22.980
G1  X0027.859 Y0009.852 E23.908
G1  X0027.859 Y0009.855 E23.908
G1  X0027.773 Y0010.252 E23.926
G1  X0048.225 Y0010.252 E24.861
G1  X0048.312 Y0010.652 E24.880
G1  X0027.687 Y0010.652 E25.823
G1  X0027.600 Y0011.052 E25.842
G1  X0048.398 Y0011.052 E26.793
G1  X0048.485 Y0011.452 E26.811
G1  X0027.514 Y0011.452 E27.770
G1  X0027.497 Y0011.532 E27.774
G1  X0027.399 Y0011.852 E27.789
G1  X0048.599 Y0011.852 E28.758
G1  X0048.722 Y0012.252 E28.778
G1  X0027.276 Y0012.252 E29.758
G1  X0027.153 Y0012.652 E29.777
G1  X0048.845 Y0012.652 E30.769
G1  X0048.969 Y0013.052 E30.788
G1  X0027.030 Y0013.052 E31.791
G1  X0026.993 Y0013.172 E31.797
G1  X0026.881 Y0013.452 E31.811
G1  X0049.117 Y0013.452 E32.827
G1  X0049.279 Y0013.852 E32.847
G1  X0026.720 Y0013.852 E33.878
G1  X0026.559 Y0014.252 E33.898
G1  X0049.440 Y0014.252 E34.944
G1  X0049.601 Y0014.652 E34.964
G1  X0026.398 Y0014.652 E36.025
G1  X0026.353 Y0014.763 E36.030
G1  X0026.207 Y0015.052 E36.045
G1  X0049.791 Y0015.052 E37.123
G1  X0049.994 Y0015.452 E37.144
G1  X0026.005 Y0015.452 E38.241
G1  X0025.803 Y0015.852 E38.261
G1  X0050.196 Y0015.852 E39.377
G1  X0050.399 Y0016.252 E39.397
G1  X0025.600 Y0016.252 E40.531
G1  X0025.579 Y0016.294 E40.533
G1  X0025.358 Y0016.652 E40.552
G1  X0050.640 Y0016.652 E41.708
G1  X0050.888 Y0017.052 E41.730
G1  X0025.111 Y0017.052 E42.908
G1  X0024.864 Y0017.452 E42.930
G1  X0051.135 Y0017.452 E44.131
G1  X0051.328 Y0017.764 E44.148
G1  X0051.393 Y0017.852 E44.152
G1  X0024.605 Y0017.852 E45.377
G1  X0024.308 Y0018.252 E45.400
G1  X0051.690 Y0018.252 E46.652
G1  X0051.988 Y0018.652 E46.675
G1  X0024.011 Y0018.652 E47.954
G1  X0023.714 Y0019.052 E47.977
G1  X0052.285 Y0019.052 E49.283
G1  X0052.351 Y0019.141 E49.288
G1  X0052.626 Y0019.452 E49.307
G1  X0023.372 Y0019.452 E50.644
G1  X0023.019 Y0019.852 E50.669
G1  X0052.980 Y0019.852 E52.039
G1  X0053.333 Y0020.252 E52.063
G1  X0022.666 Y0020.252 E53.465
G1  X0022.519 Y0020.417 E53.475
G1  X0022.274 Y0020.652 E53.491
G1  X0053.724 Y0020.652 E54.929
G1  X0054.144 Y0021.052 E54.955
G1  X0021.855 Y0021.052 E56.431
G1  X0021.436 Y0021.452 E56.458
G1  X0054.563 Y0021.452 E57.973
G1  X0054.730 Y0021.610 E57.983
G1  X0055.031 Y0021.852 E58.001
G1  X0020.967 Y0021.852 E59.558
G1  X0020.470 Y0022.252 E59.587
G1  X0055.529 Y0022.252 E61.190
G1  X0056.028 Y0022.652 E61.219
G1  X0019.972 Y0022.652 E62.868
G1  X0019.941 Y0022.676 E62.870
G1  X0019.375 Y0023.052 E62.901
G1  X0056.623 Y0023.052 E64.604
G1  X0057.226 Y0023.452 E64.637
G1  X0018.772 Y0023.452 E66.395
G1  X0018.168 Y0023.852 E66.428
G1  X0057.830 Y0023.852 E68.241
G1  X0058.433 Y0024.252 E68.274
G1  X0017.565 Y0024.252 E70.143
G1  X0016.962 Y0024.652 E70.176
G1  X0059.037 Y0024.652 E72.100
G1  X0059.491 Y0024.953 E72.125
G1  X0059.622 Y0025.052 E72.132
G1  X0016.376 Y0025.052 E74.109
G1  X0015.845 Y0025.452 E74.140
G1  X0060.154 Y0025.452 E76.166
G1  X0060.685 Y0025.852 E76.196
G1  X0038.444 Y0025.852 E77.213
G1  X0039.137 Y0026.252 E77.249
G1  X0061.216 Y0026.252 E78.259
G1  X0061.408 Y0026.396 E78.270
G1  X0061.706 Y0026.652 E78.288
G1  X0039.830 Y0026.652 E79.288
G1  X0040.523 Y0027.052 E79.324
G1  X0062.172 Y0027.052 E80.314
G1  X0062.638 Y0027.452 E80.342
G1  X0041.216 Y0027.452 E81.322
G1  X0041.909 Y0027.852 E81.358
G1  X0063.103 Y0027.852 E82.327
G1  X0063.228 Y0027.959 E82.335
G1  X0063.528 Y0028.252 E82.354
G1  X0042.602 Y0028.252 E83.311
G1  X0043.295 Y0028.652 E83.347
G1  X0063.937 Y0028.652 E84.291
G1  X0064.347 Y0029.052 E84.317
G1  X0043.988 Y0029.052 E85.248
G1  X0044.680 Y0029.452 E85.285
G1  X0064.756 Y0029.452 E86.203
G1  X0064.944 Y0029.635 E86.215
G1  X0065.139 Y0029.852 E86.228
G1  X0045.373 Y0029.852 E87.132
G1  X0046.066 Y0030.252 E87.168
G1  X0065.499 Y0030.252 E88.057
G1  X0065.859 Y0030.652 E88.081
G1  X0046.759 Y0030.652 E88.954
G1  X0047.452 Y0031.052 E88.991
G1  X0066.219 Y0031.052 E89.849
G1  X0066.549 Y0031.418 E89.872
G1  X0066.575 Y0031.452 E89.874
G1  X0048.145 Y0031.452 E90.716
G1  X0048.838 Y0031.852 E90.753
G1  X0066.891 Y0031.852 E91.578
G1  X0067.207 Y0032.252 E91.601
G1  X0049.531 Y0032.252 E92.410
G1  X0050.224 Y0032.652 E92.446
G1  X0067.523 Y0032.652 E93.237
G1  X0067.839 Y0033.052 E93.260
G1  X0050.916 Y0033.052 E94.034
G1  X0051.609 Y0033.452 E94.071
G1  X0068.140 Y0033.452 E94.827
G1  X0068.417 Y0033.852 E94.849
G1  X0052.302 Y0033.852 E95.586
G1  X0052.995 Y0034.252 E95.622
G1  X0068.693 Y0034.252 E96.340
G1  X0068.969 Y0034.652 E96.362
G1  X0053.688 Y0034.652 E97.061
G1  X0054.381 Y0035.052 E97.097
G1  X0069.245 Y0035.052 E97.777
G1  X0069.399 Y0035.275 E97.789
G1  X0069.505 Y0035.452 E97.799
G1  X0055.074 Y0035.452 E98.459
G1  X0055.767 Y0035.852 E98.495
G1  X0069.745 Y0035.852 E99.134
G1  X0069.985 Y0036.252 E99.156
G1  X0056.460 Y0036.252 E99.774
G1  X0057.152 Y0036.652 E99.810
G1  X0070.225 Y0036.652 E100.408
G1  X0070.465 Y0037.052 E100.429
G1  X0057.845 Y0037.052 E101.006
G1  X0058.538 Y0037.452 E101.043
G1  X0070.694 Y0037.452 E101.599
G1  X0070.901 Y0037.852 E101.619
G1  X0059.231 Y0037.852 E102.153
G1  X0059.924 Y0038.252 E102.189
G1  X0071.107 Y0038.252 E102.701
G1  X0071.313 Y0038.652 E102.721
G1  X0060.617 Y0038.652 E103.210
G1  X0061.310 Y0039.052 E103.247
G1  X0071.519 Y0039.052 E103.714
G1  X0071.725 Y0039.452 E103.734
G1  X0062.003 Y0039.452 E104.179
G1  X0062.696 Y0039.852 E104.215
G1  X0071.901 Y0039.852 E104.636
G1  X0072.075 Y0040.252 E104.656
G1  X0063.388 Y0040.252 E105.053
G1  X0063.449 Y0040.287 E105.057
G1  X0063.567 Y0040.369 E105.063
G1  X0063.676 Y0040.474 E105.070
G1  X0063.767 Y0040.599 E105.077
G1  X0063.793 Y0040.652 E105.080
G1  X0072.250 Y0040.652 E105.466
G1  X0072.425 Y0041.052 E105.486
G1  X0063.898 Y0041.052 E105.876
G1  X0063.898 Y0041.452 E105.895
G1  X0072.599 Y0041.452 E106.292
G1  X0072.692 Y0041.663 E106.303
G1  X0072.760 Y0041.852 E106.312
G1  X0063.898 Y0041.852 E106.717
G1  X0063.898 Y0042.252 E106.736
G1  X0072.905 Y0042.252 E107.147
G1  X0073.050 Y0042.652 E107.167
G1  X0063.898 Y0042.652 E107.585
G1  X0063.898 Y0043.052 E107.603
G1  X0073.194 Y0043.052 E108.028
G1  X0073.339 Y0043.452 E108.048
G1  X0063.898 Y0043.452 E108.480
G1  X0063.898 Y0043.852 E108.498
G1  X0073.484 Y0043.852 E108.936
G1  X0073.508 Y0043.919 E108.939
G1  X0073.605 Y0044.252 E108.955
G1  X0063.898 Y0044.252 E109.399
G1  X0063.898 Y0044.652 E109.417
G1  X0073.722 Y0044.652 E109.866
G1  X0073.838 Y0045.052 E109.885
G1  X0063.898 Y0045.052 E110.340
G1  X0063.898 Y0045.452 E110.358
G1  X0073.954 Y0045.452 E110.818
G1  X0074.071 Y0045.852 E110.837
G1  X0063.898 Y0045.852 E111.302
G1  X0063.898 Y0046.252 E111.320
G1  X0074.185 Y0046.252 E111.791
G1  X0074.274 Y0046.652 E111.809
G1  X0063.898 Y0046.652 E112.284
G1  X0063.898 Y0047.052 E112.302
G1  X0074.363 Y0047.052 E112.781
G1  X0074.452 Y0047.452 E112.799
G1  X0063.898 Y0047.452 E113.282
G1  X0063.898 Y0047.852 E113.300
G1  X0074.541 Y0047.852 E113.787
G1  X0074.630 Y0048.252 E113.805
G1  X0063.898 Y0048.252 E114.296
G1  X0063.898 Y0048.652 E114.314
G1  X0074.713 Y0048.652 E114.809
G1  X0074.776 Y0049.052 E114.827
G1  X0063.898 Y0049.052 E115.325
G1  X0063.898 Y0049.452 E115.343
G1  X0074.838 Y0049.452 E115.843
G1  X0074.900 Y0049.852 E115.862
G1  X0063.898 Y0049.852 E116.365
G1  X0063.898 Y0050.252 E116.383
G1  X0074.963 Y0050.252 E116.889
G1  X0075.025 Y0050.652 E116.907
G1  X0063.899 Y0050.652 E117.416
G1  X0063.899 Y0051.052 E117.434
G1  X0075.080 Y0051.052 E117.945
G1  X0075.116 Y0051.452 E117.964
G1  X0063.899 Y0051.452 E118.477
G1  X0063.899 Y0051.852 E118.495
G1  X0075.152 Y0051.852 E119.009
G1  X0075.189 Y0052.252 E119.028
G1  X0063.899 Y0052.252 E119.544
G1  X0063.899 Y0052.652 E119.562
G1  X0075.225 Y0052.652 E120.080
G1  X0075.261 Y0053.052 E120.099
G1  X0063.899 Y0053.052 E120.618
G1  X0063.899 Y0053.452 E120.636
G1  X0075.289 Y0053.452 E121.157
G1  X0075.300 Y0053.852 E121.175
G1  X0063.899 Y0053.852 E121.697
G1  X0063.899 Y0054.252 E121.715
G1  X0075.310 Y0054.252 E122.237
G1  X0075.321 Y0054.652 E122.255
G1  X0063.899 Y0054.652 E122.777
G1  X0063.899 Y0055.052 E122.795
G1  X0075.331 Y0055.052 E123.318
G1  X0075.341 Y0055.452 E123.336
G1  X0063.899 Y0055.452 E123.860
G1  X0063.899 Y0055.852 E123.878
G1  X0075.344 Y0055.852 E124.401
G1  X0075.328 Y0056.252 E124.419
G1  X0063.899 Y0056.252 E124.942
G1  X0063.899 Y0056.652 E124.960
G1  X0075.313 Y0056.652 E125.482
G1  X0075.298 Y0057.052 E125.500
G1  X0063.899 Y0057.052 E126.022
G1  X0063.899 Y0057.452 E126.040
G1  X0075.283 Y0057.452 E126.560
G1  X0075.267 Y0057.852 E126.579
G1  X0063.899 Y0057.852 E127.098
G1  X0063.899 Y0058.252 E127.117
G1  X0075.244 Y0058.252 E127.635
G1  X0075.203 Y0058.652 E127.654
G1  X0063.899 Y0058.652 E128.171
G1  X0063.899 Y0059.052 E128.189
G1  X0075.162 Y0059.052 E128.704
G1  X0075.120 Y0059.452 E128.722
G1  X0063.899 Y0059.452 E129.235
G1  X0063.899 Y0059.852 E129.254
G1  X0075.079 Y0059.852 E129.765
G1  X0075.038 Y0060.252 E129.783
G1  X0063.899 Y0060.252 E130.292
G1  X0063.899 Y0060.652 E130.311
G1  X0074.988 Y0060.652 E130.818
G1  X0074.920 Y0061.052 E130.836
G1  X0063.899 Y0061.052 E131.340
G1  X0063.899 Y0061.452 E131.358
G1  X0074.853 Y0061.452 E131.859
G1  X0074.786 Y0061.852 E131.878
G1  X0063.899 Y0061.852 E132.376
G1  X0063.899 Y0062.252 E132.394
G1  X0074.719 Y0062.252 E132.889
G1  X0074.651 Y0062.652 E132.907
G1  X0063.899 Y0062.652 E133.399
G1  X0063.899 Y0063.052 E133.417
G1  X0074.572 Y0063.052 E133.905
G1  X0074.478 Y0063.452 E133.924
G1  X0063.899 Y0063.452 E134.407
G1  X0063.899 Y0063.852 E134.426
G1  X0074.384 Y0063.852 E134.905
G1  X0074.290 Y0064.252 E134.924
G1  X0063.899 Y0064.252 E135.399
G1  X0063.899 Y0064.652 E135.417
G1  X0074.196 Y0064.652 E135.888
G1  X0074.102 Y0065.052 E135.907
G1  X0063.899 Y0065.052 E136.373
G1  X0063.899 Y0065.452 E136.392
G1  X0073.991 Y0065.452 E136.853
G1  X0073.870 Y0065.852 E136.872
G1  X0063.899 Y0065.852 E137.328
G1  X0063.899 Y0066.252 E137.346
G1  X0073.748 Y0066.252 E137.797
G1  X0073.627 Y0066.652 E137.816
G1  X0063.899 Y0066.652 E138.260
G1  X0063.899 Y0067.052 E138.279
G1  X0073.505 Y0067.052 E138.718
G1  X0073.384 Y0067.452 E138.737
G1  X0063.899 Y0067.452 E139.171
G1  X0063.899 Y0067.852 E139.189
G1  X0073.237 Y0067.852 E139.616
G1  X0073.087 Y0068.252 E139.635
G1  X0063.899 Y0068.252 E140.056
G1  X0063.899 Y0068.652 E140.074
G1  X0072.936 Y0068.652 E140.487
G1  X0072.786 Y0069.052 E140.507
G1  X0063.899 Y0069.052 E140.913
G1  X0063.899 Y0069.452 E140.931
G1  X0072.636 Y0069.452 E141.331
G1  X0072.525 Y0069.748 E141.345
G1  X0072.478 Y0069.852 E141.350
G1  X0063.899 Y0069.852 E141.742
G1  X0063.899 Y0069.934 E141.746
G1  X0063.887 Y0070.077 E141.753
G1  X0063.850 Y0070.223 E141.760
G1  X0063.838 Y0070.252 E141.761
G1  X0072.298 Y0070.252 E142.148
G1  X0072.117 Y0070.652 E142.168
G1  X0063.535 Y0070.652 E142.560
G1  X0063.466 Y0070.702 E142.564
G1  X0062.861 Y0071.052 E142.596
G1  X0071.937 Y0071.052 E143.011
G1  X0071.757 Y0071.452 E143.031
G1  X0062.168 Y0071.452 E143.470
G1  X0061.476 Y0071.852 E143.506
G1  X0071.576 Y0071.852 E143.968
G1  X0071.539 Y0071.935 E143.972
G1  X0071.371 Y0072.252 E143.989
G1  X0060.783 Y0072.252 E144.473
G1  X0060.091 Y0072.652 E144.509
G1  X0071.159 Y0072.652 E145.015
G1  X0070.946 Y0073.052 E145.036
G1  X0059.398 Y0073.052 E145.564
G1  X0058.706 Y0073.452 E145.601
G1  X0070.734 Y0073.452 E146.150
G1  X0070.522 Y0073.852 E146.171
G1  X0058.216 Y0073.852 E146.734
G1  X0058.188 Y0073.910 E146.737
G1  X0058.160 Y0074.011 E146.742
G1  X0058.150 Y0074.121 E146.747
G1  X0058.150 Y0074.252 E146.753
G1  X0070.293 Y0074.252 E147.308
G1  X0070.047 Y0074.652 E147.329
G1  X0058.150 Y0074.652 E147.873
G1  X0058.150 Y0075.052 E147.891
G1  X0069.800 Y0075.052 E148.424
G1  X0069.554 Y0075.452 E148.446
G1  X0058.150 Y0075.452 E148.967
G1  X0058.150 Y0075.852 E148.985
G1  X0069.308 Y0075.852 E149.495
G1  X0069.157 Y0076.097 E149.509
G1  X0069.047 Y0076.252 E149.517
G1  X0058.150 Y0076.252 E150.016
G1  X0058.150 Y0076.652 E150.034
G1  X0068.764 Y0076.652 E150.519
G1  X0068.480 Y0077.052 E150.542
G1  X0058.150 Y0077.052 E151.014
G1  X0058.150 Y0077.452 E151.032
G1  X0068.197 Y0077.452 E151.492
G1  X0067.914 Y0077.852 E151.514
G1  X0058.150 Y0077.852 E151.960
G1  X0058.150 Y0078.252 E151.979
G1  X0067.611 Y0078.252 E152.411
G1  X0067.287 Y0078.652 E152.435
G1  X0058.149 Y0078.652 E152.853
G1  X0058.149 Y0079.052 E152.871
G1  X0066.963 Y0079.052 E153.274
G1  X0066.639 Y0079.452 E153.297
G1  X0058.149 Y0079.452 E153.685
G1  X0058.149 Y0079.852 E153.704
G1  X0066.315 Y0079.852 E154.077
G1  X0066.261 Y0079.919 E154.081
G1  X0065.954 Y0080.252 E154.102
G1  X0058.149 Y0080.252 E154.459
G1  X0058.149 Y0080.652 E154.477
G1  X0065.586 Y0080.652 E154.817
G1  X0065.217 Y0081.052 E154.842
G1  X0058.149 Y0081.052 E155.165
G1  X0058.149 Y0081.209 E155.172
G1  X0058.169 Y0081.452 E155.183
G1  X0064.848 Y0081.452 E155.489
G1  X0064.635 Y0081.683 E155.503
G1  X0064.458 Y0081.852 E155.514
G1  X0058.231 Y0081.852 E155.799
G1  X0058.302 Y0082.134 E155.812
G1  X0058.353 Y0082.252 E155.818
G1  X0064.039 Y0082.252 E156.078
G1  X0063.620 Y0082.652 E156.104
G1  X0058.546 Y0082.652 E156.336
G1  X0058.743 Y0082.956 E156.353
G1  X0058.831 Y0083.052 E156.359
G1  X0063.200 Y0083.052 E156.559
G1  X0062.902 Y0083.336 E156.577
G1  X0062.749 Y0083.452 E156.586
G1  X0059.250 Y0083.452 E156.746
G1  X0059.426 Y0083.591 E156.756
G1  X0059.829 Y0083.812 E156.777
G1  X0059.941 Y0083.852 E156.783
G1  X0062.070 Y0083.852 E156.880
G1  E154.880 F2400

(Raster 2)
G92 E0
G1  X0037.552 Y0025.852 F2400
G1  E2.00000 F2400
G1  X0015.314 Y0025.852 E3.017 F2400
G1  X0014.782 Y0026.252 E3.047
G1  X0036.859 Y0026.252 E4.057
G1  X0036.166 Y0026.652 E4.093
G1  X0014.293 Y0026.652 E5.093
G1  X0013.827 Y0027.052 E5.121
