; generated by Slic3r 1.3.1-dev (Build 8c69278) on 2021-12-10 at 13:24:50

; external perimeters extrusion width = 0.45mm (3.99mm^3/s)
; perimeters extrusion width = 0.45mm (3.99mm^3/s)
; infill extrusion width = 0.45mm (3.99mm^3/s)
; solid infill extrusion width = 0.45mm (4.99mm^3/s)
; top infill extrusion width = 0.45mm (3.00mm^3/s)
; support material extrusion width = 0.45mm (4.99mm^3/s)

M107
G92 E0
M104 S205 ; set temperature
G28 ; home all axes
G1 Z5 F5000 ; lift nozzle

; Filament gcode

M109 S205 ; set temperature and wait for it to be reached
G21 ; set units to millimeters
G90 ; use absolute coordinates
M82 ; use absolute distances for extrusion
G92 E0
G1 Z0.250 F7800.000
G1 E-2.00000 F2400.00000
G92 E0
G1 X117.716 Y88.219 F7800.000
G1 E2.00000 F2400.00000
G1 F2400.000
G1 X117.716 Y211.781 E7.28259
G1 X118.117 Y211.781 E7.29970
G1 X118.117 Y88.219 E12.58229
G1 X118.517 Y88.219 E12.59940
G1 X118.517 Y211.781 E17.88199
G1 X118.917 Y211.781 E17.89911
G1 X118.917 Y88.219 E23.18170
G1 X119.318 Y88.219 E23.19881
G1 X119.318 Y211.781 E28.48141
G1 X119.718 Y211.781 E28.49852
G1 X119.718 Y88.219 E33.78111
G1 X120.118 Y88.219 E33.79823
G1 X120.118 Y211.781 E39.08082
G1 X120.519 Y211.781 E39.09794
G1 X120.519 Y88.219 E44.38053
G1 X120.919 Y88.219 E44.39765
G1 X120.919 Y211.781 E49.68025
G1 X121.319 Y211.781 E49.69736
G1 X121.319 Y88.219 E54.97996
G1 X121.720 Y88.219 E54.99707
G1 X121.720 Y211.687 E60.27567
G1 X121.762 Y211.625 E60.27889
G1 X121.797 Y211.493 E60.28472
G1 X121.801 Y204.494 E60.58394
G1 X121.877 Y203.177 E60.64035
G1 X122.035 Y202.077 E60.68785
G1 X122.120 Y201.638 E60.70699
G1 X122.120 Y171.553 E61.99320
G1 X122.378 Y172.233 E62.02431
G1 X122.520 Y172.512 E62.03768
G1 X122.520 Y199.906 E63.20888
G1 X122.685 Y199.271 E63.23695
G1 X122.921 Y198.496 E63.27157
G1 X122.921 Y173.203 E64.35292
G1 X123.081 Y173.449 E64.36549
G1 X123.321 Y173.746 E64.38181
G1 X123.321 Y197.338 E65.39041
G1 X123.721 Y196.338 E65.43646
G1 X123.721 Y174.194 E66.38317
G1 X124.121 Y174.575 E66.40680
G1 X124.121 Y195.442 E67.29894
G1 X124.522 Y194.622 E67.33797
G1 X124.522 Y174.899 E68.18118
G1 X124.922 Y175.166 E68.20175
G1 X124.922 Y193.881 E69.00186
G1 X125.322 Y193.191 E69.03595
G1 X125.322 Y175.403 E69.79644
G1 X125.723 Y175.607 E69.81565
G1 X125.723 Y192.546 E70.53983
G1 X126.123 Y191.955 E70.57034
G1 X126.123 Y175.769 E71.26237
G1 X126.523 Y175.913 E71.28056
G1 X126.523 Y191.407 E71.94298
G1 X126.924 Y190.880 E71.97127
G1 X126.924 Y176.020 E72.60657
G1 X127.324 Y176.105 E72.62406
G1 X127.324 Y190.389 E73.23477
G1 X127.724 Y189.911 E73.26143
G1 X127.724 Y176.168 E73.84897
G1 X128.125 Y176.199 E73.86614
G1 X128.125 Y189.471 E74.43355
G1 X128.525 Y189.051 E74.45834
G1 X128.525 Y176.219 E75.00695
G1 X128.925 Y176.219 E75.02406
G1 X128.925 Y188.655 E75.55573
G1 X129.325 Y188.267 E75.57954
G1 X129.325 Y176.219 E76.09465
G1 X129.726 Y176.219 E76.11176
G1 X129.726 Y187.916 E76.61186
G1 X130.126 Y187.565 E76.63462
G1 X130.126 Y176.219 E77.11972
G1 X130.526 Y176.219 E77.13683
G1 X130.526 Y187.236 E77.60783
G1 X130.927 Y186.923 E77.62955
G1 X130.927 Y176.219 E78.08718
G1 X131.327 Y176.219 E78.10430
G1 X131.327 Y186.620 E78.54896
G1 X131.727 Y186.334 E78.56999
G1 X131.727 Y176.219 E79.00243
G1 X132.128 Y176.219 E79.01955
G1 X132.128 Y186.067 E79.44056
G1 X132.528 Y185.805 E79.46100
G1 X132.528 Y176.219 E79.87084
G1 X132.928 Y176.219 E79.88795
G1 X132.928 Y185.547 E80.28674
G1 X133.329 Y185.318 E80.30645
G1 X133.329 Y176.219 E80.69547
G1 X133.729 Y176.219 E80.71258
G1 X133.729 Y185.090 E81.09183
G1 X134.129 Y184.862 E81.11152
G1 X134.129 Y176.219 E81.48104
G1 X134.530 Y176.219 E81.49816
G1 X134.530 Y184.663 E81.85917
G1 X134.930 Y184.465 E81.87826
G1 X134.930 Y176.219 E82.23082
G1 X135.330 Y176.219 E82.24793
G1 X135.330 Y184.280 E82.59257
G1 X135.730 Y184.104 E82.61128
G1 X135.730 Y176.219 E82.94837
G1 X136.131 Y176.219 E82.96548
G1 X136.131 Y183.940 E83.29558
G1 X136.531 Y183.779 E83.31403
G1 X136.531 Y176.219 E83.63724
G1 X136.931 Y176.219 E83.65435
G1 X136.931 Y183.632 E83.97126
G1 X137.332 Y183.488 E83.98943
G1 X137.332 Y176.219 E84.30022
G1 X137.732 Y176.219 E84.31734
G1 X137.732 Y183.359 E84.62258
G1 X138.132 Y183.230 E84.64055
G1 X138.132 Y176.219 E84.94030
G1 X138.533 Y176.219 E84.95742
G1 X138.533 Y183.119 E85.25243
G1 X138.933 Y183.011 E85.27016
G1 X138.933 Y176.219 E85.56053
G1 X139.333 Y176.219 E85.57765
G1 X139.333 Y182.914 E85.86388
G1 X139.734 Y182.819 E85.88147
G1 X139.734 Y176.219 E86.16364
G1 X140.134 Y176.219 E86.18076
G1 X140.134 Y182.739 E86.45949
G1 X140.534 Y182.660 E86.47693
G1 X140.534 Y176.219 E86.75231
G1 X140.935 Y176.219 E86.76943
G1 X140.935 Y182.592 E87.04191
G1 X141.335 Y182.527 E87.05925
G1 X141.335 Y176.219 E87.32892
G1 X141.735 Y176.219 E87.34604
G1 X141.735 Y182.482 E87.61381
G1 X142.135 Y182.439 E87.63102
G1 X142.135 Y176.219 E87.89693
G1 X142.536 Y176.219 E87.91405
G1 X142.536 Y182.395 E88.17809
G1 X142.936 Y182.352 E88.19531
G1 X142.936 Y176.219 E88.45751
G1 X143.336 Y176.219 E88.47462
G1 X143.336 Y182.338 E88.73624
G1 X143.737 Y182.325 E88.75336
G1 X143.737 Y176.219 E89.01442
G1 X144.137 Y176.219 E89.03153
G1 X144.137 Y182.312 E89.29203
G1 X144.537 Y182.300 E89.30915
G1 X144.537 Y176.219 E89.56914
G1 X144.938 Y176.219 E89.58626
G1 X144.938 Y182.300 E89.84625
G1 X145.338 Y182.300 E89.86337
G1 X145.338 Y176.219 E90.12336
G1 X145.738 Y176.219 E90.14048
G1 X145.738 Y182.300 E90.40047
G1 X146.139 Y182.300 E90.41758
G1 X146.139 Y176.219 E90.67758
G1 X146.539 Y176.219 E90.69469
G1 X146.539 Y182.300 E90.95469
G1 X146.939 Y182.300 E90.97180
G1 X146.939 Y176.219 E91.23180
G1 X147.339 Y176.219 E91.24891
G1 X147.339 Y182.300 E91.50891
G1 X147.740 Y182.300 E91.52602
G1 X147.740 Y176.219 E91.78601
G1 X148.140 Y176.219 E91.80313
G1 X148.140 Y182.300 E92.06312
G1 X148.540 Y182.300 E92.08024
G1 X148.540 Y176.219 E92.34023
G1 X148.941 Y176.219 E92.35735
G1 X148.941 Y182.300 E92.61734
G1 X149.341 Y182.300 E92.63446
G1 X149.341 Y176.219 E92.89445
G1 X149.741 Y176.219 E92.91157
G1 X149.741 Y182.300 E93.17156
G1 X150.142 Y182.300 E93.18867
G1 X150.142 Y176.219 E93.44867
G1 X150.542 Y176.219 E93.46578
G1 X150.542 Y182.300 E93.72578
G1 X150.942 Y182.300 E93.74289
G1 X150.942 Y176.219 E94.00289
G1 X151.343 Y176.219 E94.02000
G1 X151.343 Y182.300 E94.28000
G1 X151.743 Y182.300 E94.29711
G1 X151.743 Y176.219 E94.55711
G1 X152.143 Y176.219 E94.57422
G1 X152.143 Y182.300 E94.83421
G1 X152.544 Y182.300 E94.85133
G1 X152.544 Y176.219 E95.11132
G1 X152.944 Y176.219 E95.12844
G1 X152.944 Y182.300 E95.38843
G1 X153.344 Y182.300 E95.40555
G1 X153.344 Y176.219 E95.66554
G1 X153.744 Y176.219 E95.68266
G1 X153.744 Y182.300 E95.94265
G1 X154.145 Y182.300 E95.95977
G1 X154.145 Y176.219 E96.21976
G1 X154.545 Y176.219 E96.23688
G1 X154.545 Y182.300 E96.49687
G1 X154.945 Y182.300 E96.51398
G1 X154.945 Y176.219 E96.77398
G1 X155.346 Y176.219 E96.79109
G1 X155.346 Y182.300 E97.05109
G1 X155.746 Y182.300 E97.06820
G1 X155.746 Y176.219 E97.32820
G1 X156.146 Y176.219 E97.34531
G1 X156.146 Y182.300 E97.60531
G1 X156.547 Y182.300 E97.62242
G1 X156.547 Y176.219 E97.88241
G1 X156.947 Y176.219 E97.89953
G1 X156.947 Y182.300 E98.15952
G1 X157.347 Y182.300 E98.17664
G1 X157.347 Y176.219 E98.43663
G1 X157.748 Y176.219 E98.45375
G1 X157.748 Y182.300 E98.71374
G1 X158.148 Y182.300 E98.73086
G1 X158.148 Y176.219 E98.99085
G1 X158.548 Y176.219 E99.00796
G1 X158.548 Y182.300 E99.26796
G1 X158.949 Y182.300 E99.28507
G1 X158.949 Y176.219 E99.54507
G1 X159.349 Y176.219 E99.56218
G1 X159.349 Y182.300 E99.82218
G1 X159.749 Y182.300 E99.83929
G1 X159.749 Y176.219 E100.09928
G1 X160.149 Y176.219 E100.11640
G1 X160.149 Y182.300 E100.37639
G1 X160.550 Y182.300 E100.39351
G1 X160.550 Y176.219 E100.65350
G1 X160.950 Y176.219 E100.67062
G1 X160.950 Y182.300 E100.93061
G1 X161.350 Y182.300 E100.94773
G1 X161.350 Y176.219 E101.20772
G1 X161.751 Y176.219 E101.22483
G1 X161.751 Y182.300 E101.48483
G1 X162.151 Y182.300 E101.50194
G1 X162.151 Y176.219 E101.76194
G1 X162.551 Y176.219 E101.77905
G1 X162.551 Y182.300 E102.03905
G1 X162.952 Y182.300 E102.05616
G1 X162.952 Y176.219 E102.31616
G1 X163.352 Y176.219 E102.33327
G1 X163.352 Y182.300 E102.59326
G1 X163.752 Y182.300 E102.61038
G1 X163.752 Y176.219 E102.87037
G1 X164.153 Y176.219 E102.88749
G1 X164.153 Y182.300 E103.14748
G1 X164.553 Y182.300 E103.16460
G1 X164.553 Y176.219 E103.42459
G1 X164.953 Y176.219 E103.44171
G1 X164.953 Y182.300 E103.70170
G1 X165.353 Y182.300 E103.71881
G1 X165.353 Y176.219 E103.97881
G1 X165.513 Y176.219 E103.98561
G1 X165.754 Y176.229 E103.99593
G1 X165.754 Y182.312 E104.25601
G1 X166.154 Y182.332 E104.27314
G1 X166.154 Y176.244 E104.53339
G1 X166.554 Y176.260 E104.55052
G1 X166.554 Y182.355 E104.81108
G1 X166.955 Y182.414 E104.82838
G1 X166.955 Y176.288 E105.09030
G1 X167.355 Y176.336 E105.10753
G1 X167.355 Y182.474 E105.36993
G1 X167.755 Y182.559 E105.38743
G1 X167.755 Y176.384 E105.65142
G1 X168.091 Y176.424 E105.66585
G1 X168.156 Y176.437 E105.66869
G1 X168.156 Y182.659 E105.93469
G1 X168.556 Y182.768 E105.95243
G1 X168.556 Y176.517 E106.21964
G1 X168.956 Y176.598 E106.23710
G1 X168.956 Y182.911 E106.50698
G1 X169.357 Y183.054 E106.52516
G1 X169.357 Y176.678 E106.79772
G1 X169.757 Y176.793 E106.81551
G1 X169.757 Y183.236 E107.09099
G1 X170.157 Y183.425 E107.10992
G1 X170.157 Y176.907 E107.38861
G1 X170.558 Y177.021 E107.40640
G1 X170.558 Y183.644 E107.68956
G1 X170.958 Y183.884 E107.70951
G1 X170.958 Y177.167 E107.99669
G1 X171.358 Y177.316 E108.01496
G1 X171.358 Y184.149 E108.30709
G1 X171.758 Y184.446 E108.32839
G1 X171.758 Y177.465 E108.62681
G1 X172.159 Y177.647 E108.64561
G1 X172.159 Y184.771 E108.95017
G1 X172.559 Y185.133 E108.97325
G1 X172.559 Y177.834 E109.28531
G1 X172.959 Y178.021 E109.30420
G1 X172.959 Y185.542 E109.62575
G1 X173.360 Y185.983 E109.65121
G1 X173.360 Y178.246 E109.98200
G1 X173.760 Y178.473 E110.00167
G1 X173.760 Y186.513 E110.34541
G1 X173.992 Y186.825 E110.36202
G1 X174.160 Y187.106 E110.37601
G1 X174.160 Y178.706 E110.73511
G1 X174.561 Y178.977 E110.75578
G1 X174.561 Y187.795 E111.13278
G1 X174.961 Y188.657 E111.17341
G1 X174.961 Y179.248 E111.57567
G1 X175.361 Y179.542 E111.59690
G1 X175.361 Y189.875 E112.03863
G1 X175.517 Y190.491 E112.06579
G1 X175.688 Y191.663 E112.11643
G1 X175.734 Y191.781 E112.12185
G1 X175.762 Y191.781 E112.12304
G1 X175.762 Y179.863 E112.63258
G1 X176.162 Y180.183 E112.65450
G1 X176.162 Y191.781 E113.15035
G1 X176.562 Y191.781 E113.16746
G1 X176.562 Y180.556 E113.64736
G1 X176.962 Y180.932 E113.67084
G1 X176.962 Y191.781 E114.13466
G1 X177.363 Y191.781 E114.15178
G1 X177.363 Y181.346 E114.59788
G1 X177.763 Y181.787 E114.62334
G1 X177.763 Y191.781 E115.05059
G1 X178.163 Y191.781 E115.06770
G1 X178.163 Y182.261 E115.47472
G1 X178.564 Y182.779 E115.50271
G1 X178.564 Y191.781 E115.88757
G1 X178.964 Y191.781 E115.90468
G1 X178.964 Y183.339 E116.26557
G1 X179.364 Y183.952 E116.29687
G1 X179.364 Y191.781 E116.63156
G1 X179.765 Y191.781 E116.64867
G1 X179.765 Y184.648 E116.95360
G1 X180.165 Y185.405 E116.99021
G1 X180.165 Y191.781 E117.26277
G1 X180.565 Y191.781 E117.27988
G1 X180.565 Y186.302 E117.51409
G1 X180.966 Y187.392 E117.56371
G1 X180.966 Y191.781 E117.75135
G1 X181.366 Y191.781 E117.76846
G1 X181.366 Y188.797 E117.89601
G1 X181.634 Y190.197 E117.95695
G1 X181.766 Y191.463 E118.01135
G1 E116.01135 F2400.00000
G92 E0
G1 X166.554 Y161.757 F7800.000
G1 E2.00000 F2400.00000
G1 F2400.000
G1 X166.554 Y159.935 E2.07791
G1 X166.395 Y159.132 E2.11291
G1 X166.154 Y158.295 E2.15016
G1 X166.154 Y161.781 E2.29919
G1 X165.754 Y161.781 E2.31630
G1 X165.754 Y157.166 E2.51358
G1 X165.644 Y156.877 E2.52680
G1 X165.353 Y156.270 E2.55557
G1 X165.353 Y161.781 E2.79117
G1 X164.953 Y161.781 E2.80828
G1 X164.953 Y155.501 E3.07674
G1 X164.553 Y154.818 E3.11062
G1 X164.553 Y161.781 E3.40832
G1 X164.153 Y161.781 E3.42544
G1 X164.153 Y154.242 E3.74776
G1 X163.752 Y153.694 E3.77678
G1 X163.752 Y161.781 E4.12254
G1 X163.352 Y161.781 E4.13965
G1 X163.352 Y153.215 E4.50589
G1 X162.952 Y152.760 E4.53179
G1 X162.952 Y161.781 E4.91746
G1 X162.551 Y161.781 E4.93458
G1 X162.551 Y152.355 E5.33757
G1 X162.151 Y151.965 E5.36147
G1 X162.151 Y161.781 E5.78115
G1 X161.751 Y161.781 E5.79826
G1 X161.751 Y151.622 E6.23259
G1 X161.350 Y151.280 E6.25512
G1 X161.350 Y161.781 E6.70410
G1 X160.950 Y161.782 E6.72122
G1 X160.950 Y150.990 E7.18258
G1 X160.550 Y150.701 E7.20368
G1 X160.550 Y160.902 E7.63978
G1 X160.503 Y160.642 E7.65107
G1 X160.269 Y159.829 E7.68724
G1 X160.149 Y159.532 E7.70093
G1 X160.149 Y150.440 E8.08962
G1 X159.749 Y150.200 E8.10959
G1 X159.749 Y158.659 E8.47127
G1 X159.557 Y158.297 E8.48881
G1 X159.349 Y157.985 E8.50483
G1 X159.349 Y149.960 E8.84793
G1 X158.949 Y149.763 E8.86701
G1 X158.949 Y157.427 E9.19469
G1 X158.548 Y156.945 E9.22147
G1 X158.548 Y149.565 E9.53699
G1 X158.148 Y149.382 E9.55580
G1 X158.148 Y156.553 E9.86237
G1 X157.941 Y156.350 E9.87475
G1 X157.748 Y156.197 E9.88530
G1 X157.748 Y149.225 E10.18338
G1 X157.347 Y149.067 E10.20177
G1 X157.347 Y155.879 E10.49298
G1 X156.947 Y155.613 E10.51354
G1 X156.947 Y148.932 E10.79915
G1 X156.547 Y148.812 E10.81701
G1 X156.547 Y155.360 E11.09694
G1 X156.146 Y155.159 E11.11609
G1 X156.146 Y148.692 E11.39257
G1 X155.746 Y148.599 E11.41014
G1 X155.746 Y154.966 E11.68237
G1 X155.346 Y154.815 E11.70066
G1 X155.346 Y148.514 E11.97003
G1 X154.945 Y148.430 E11.98753
G1 X154.945 Y154.672 E12.25439
G1 X154.545 Y154.566 E12.27209
G1 X154.545 Y148.374 E12.53681
G1 X154.145 Y148.324 E12.55405
G1 X154.145 Y154.466 E12.81665
G1 X153.744 Y154.403 E12.83397
G1 X153.744 Y148.274 E13.09604
G1 X153.705 Y148.269 E13.09775
G1 X153.344 Y148.254 E13.11318
G1 X153.344 Y154.343 E13.37351
G1 X152.944 Y154.322 E13.39065
G1 X152.944 Y148.237 E13.65081
G1 X152.544 Y148.220 E13.66794
G1 X152.544 Y154.301 E13.92793
G1 X152.143 Y154.300 E13.94504
G1 X152.143 Y148.219 E14.20503
G1 X151.743 Y148.219 E14.22215
G1 X151.743 Y154.300 E14.48214
G1 X151.343 Y154.300 E14.49926
G1 X151.343 Y148.219 E14.75925
G1 X150.942 Y148.219 E14.77637
G1 X150.942 Y154.300 E15.03636
G1 X150.542 Y154.300 E15.05348
G1 X150.542 Y148.219 E15.31347
G1 X150.142 Y148.219 E15.33059
G1 X150.142 Y154.300 E15.59058
G1 X149.741 Y154.300 E15.60770
G1 X149.741 Y148.219 E15.86769
G1 X149.341 Y148.219 E15.88481
G1 X149.341 Y154.300 E16.14480
G1 X148.941 Y154.300 E16.16191
G1 X148.941 Y148.219 E16.42191
G1 X148.540 Y148.219 E16.43902
G1 X148.540 Y154.300 E16.69902
G1 X148.140 Y154.300 E16.71613
G1 X148.140 Y148.219 E16.97613
G1 X147.740 Y148.219 E16.99324
G1 X147.740 Y154.300 E17.25324
G1 X147.339 Y154.300 E17.27035
G1 X147.339 Y148.219 E17.53035
G1 X146.939 Y148.219 E17.54746
G1 X146.939 Y154.300 E17.80746
G1 X146.539 Y154.300 E17.82457
G1 X146.539 Y148.219 E18.08457
G1 X146.139 Y148.219 E18.10168
G1 X146.139 Y154.300 E18.36167
G1 X145.738 Y154.300 E18.37879
G1 X145.738 Y148.219 E18.63878
G1 X145.338 Y148.219 E18.65590
G1 X145.338 Y154.300 E18.91589
G1 X144.938 Y154.300 E18.93301
G1 X144.938 Y148.219 E19.19300
G1 X144.537 Y148.219 E19.21012
G1 X144.537 Y154.300 E19.47011
G1 X144.137 Y154.300 E19.48723
G1 X144.137 Y148.219 E19.74722
G1 X143.737 Y148.219 E19.76433
G1 X143.737 Y154.300 E20.02433
G1 X143.336 Y154.300 E20.04144
G1 X143.336 Y148.219 E20.30144
G1 X142.936 Y148.219 E20.31855
G1 X142.936 Y154.300 E20.57855
G1 X142.536 Y154.300 E20.59566
G1 X142.536 Y148.219 E20.85566
G1 X142.135 Y148.219 E20.87277
G1 X142.135 Y154.300 E21.13277
G1 X141.735 Y154.300 E21.14988
G1 X141.735 Y148.219 E21.40988
G1 X141.335 Y148.219 E21.42699
G1 X141.335 Y154.300 E21.68698
G1 X140.935 Y154.300 E21.70410
G1 X140.935 Y148.219 E21.96409
G1 X140.534 Y148.219 E21.98121
G1 X140.534 Y154.300 E22.24120
G1 X140.134 Y154.300 E22.25832
G1 X140.134 Y148.219 E22.51831
G1 X139.734 Y148.219 E22.53543
G1 X139.734 Y154.300 E22.79542
G1 X139.333 Y154.300 E22.81254
G1 X139.333 Y148.219 E23.07253
G1 X138.933 Y148.219 E23.08965
G1 X138.933 Y154.300 E23.34964
G1 X138.533 Y154.300 E23.36675
G1 X138.533 Y148.219 E23.62675
G1 X138.132 Y148.219 E23.64386
G1 X138.132 Y154.300 E23.90386
