; generated by Slic3r 1.3.1-dev (Build 8c69278) on 2021-12-10 at 13:24:51

; external perimeters extrusion width = 0.45mm (3.99mm^3/s)
; perimeters extrusion width = 0.45mm (3.99mm^3/s)
; infill extrusion width = 0.45mm (3.99mm^3/s)
; solid infill extrusion width = 0.45mm (4.99mm^3/s)
; top infill extrusion width = 0.45mm (3.00mm^3/s)
; support material extrusion width = 0.45mm (4.99mm^3/s)

M107
G92 E0
M104 S205 ; set temperature
G28 ; home all axes
G1 Z5 F5000 ; lift nozzle

; Filament gcode

M109 S205 ; set temperature and wait for it to be reached
G21 ; set units to millimeters
G90 ; use absolute coordinates
M82 ; use absolute distances for extrusion
G92 E0
G1 Z0.250 F7800.000
G1 E-2.00000 F2400.00000
G92 E0
G1 X125.519 Y88.219 F7800.000
G1 E2.00000 F2400.00000
G1 F2400.000
G1 X120.767 Y88.219 E2.20314
G1 X125.519 Y88.219 E2.40629
G1 X126.808 Y88.270 E2.46144
G1 X128.091 Y88.424 E2.51668
G1 X129.061 Y88.619 E2.55901
G1 X117.716 Y88.619 E3.04404
G1 X117.716 Y89.019 E3.06113
G1 X130.551 Y89.019 E3.60984
G1 X131.634 Y89.419 E3.65919
G1 X117.716 Y89.419 E4.25420
G1 X117.716 Y89.819 E4.27129
G1 X132.526 Y89.819 E4.90444
G1 X132.981 Y90.031 E4.92592
G1 X133.312 Y90.219 E4.94216
G1 X117.716 Y90.219 E5.60891
G1 X117.716 Y90.618 E5.62600
G1 X134.017 Y90.618 E6.32288
G1 X134.621 Y91.018 E6.35388
G1 X117.716 Y91.018 E7.07661
G1 X117.716 Y91.418 E7.09371
G1 X135.206 Y91.418 E7.84144
G1 X135.706 Y91.818 E7.86881
G1 X117.716 Y91.818 E8.63791
G1 X117.716 Y92.218 E8.65501
G1 X136.202 Y92.218 E9.44534
G1 X136.628 Y92.618 E9.47031
G1 X117.716 Y92.618 E10.27884
G1 X117.716 Y93.018 E10.29594
G1 X137.054 Y93.018 E11.12267
G1 X137.427 Y93.418 E11.14607
G1 X117.716 Y93.418 E11.98878
G1 X117.716 Y93.817 E12.00587
G1 X137.791 Y93.817 E12.86411
G1 X138.130 Y94.217 E12.88653
G1 X117.716 Y94.217 E13.75927
G1 X117.716 Y94.617 E13.77636
G1 X138.439 Y94.617 E14.66232
G1 X138.748 Y95.017 E14.68392
G1 X117.716 Y95.017 E15.58308
G1 X117.716 Y95.417 E15.60018
G1 X126.612 Y95.417 E15.98050
G1 X125.814 Y95.703 E16.01675
G1 X125.587 Y95.817 E16.02760
G1 X117.716 Y95.817 E16.36411
G1 X117.716 Y96.217 E16.38120
G1 X124.878 Y96.217 E16.68739
G1 X124.589 Y96.403 E16.70207
G1 X124.323 Y96.617 E16.71668
G1 X117.716 Y96.617 E16.99913
G1 X117.716 Y97.016 E17.01622
G1 X123.866 Y97.016 E17.27914
G1 X123.478 Y97.416 E17.30297
G1 X117.716 Y97.416 E17.54928
G1 X117.716 Y97.816 E17.56637
G1 X123.152 Y97.816 E17.79876
G1 X122.879 Y98.216 E17.81946
G1 X117.716 Y98.216 E18.04017
G1 X117.716 Y98.616 E18.05726
G1 X122.637 Y98.616 E18.26761
G1 X122.432 Y99.016 E18.28682
G1 X117.716 Y99.016 E18.48842
G1 X117.716 Y99.416 E18.50552
G1 X122.266 Y99.416 E18.70001
G1 X122.117 Y99.816 E18.71825
G1 X117.716 Y99.816 E18.90639
G1 X117.716 Y100.215 E18.92348
G1 X122.009 Y100.215 E19.10701
G1 X121.920 Y100.615 E19.12453
G1 X117.716 Y100.615 E19.30424
G1 X117.716 Y101.015 E19.32133
G1 X121.856 Y101.015 E19.49831
G1 X121.821 Y101.415 E19.51548
G1 X117.716 Y101.415 E19.69095
G1 X117.716 Y101.815 E19.70805
G1 X121.800 Y101.815 E19.88262
G1 X121.798 Y102.215 E19.89972
G1 X117.716 Y102.215 E20.07421
G1 X117.716 Y102.615 E20.09131
G1 X121.798 Y102.615 E20.26581
G1 X121.798 Y103.015 E20.28290
G1 X117.716 Y103.015 E20.45740
G1 X117.716 Y103.414 E20.47449
G1 X121.798 Y103.414 E20.64899
G1 X121.798 Y103.814 E20.66609
G1 X117.716 Y103.814 E20.84058
G1 X117.716 Y104.214 E20.85768
G1 X121.798 Y104.214 E21.03217
G1 X121.798 Y104.614 E21.04927
G1 X117.716 Y104.614 E21.22376
G1 X117.716 Y105.014 E21.24086
G1 X121.798 Y105.014 E21.41535
G1 X121.798 Y105.414 E21.43245
G1 X117.716 Y105.414 E21.60694
G1 X117.716 Y105.814 E21.62404
G1 X121.798 Y105.814 E21.79853
G1 X121.798 Y106.214 E21.81563
G1 X117.716 Y106.214 E21.99012
G1 X117.716 Y106.613 E22.00722
G1 X121.798 Y106.613 E22.18171
G1 X121.798 Y107.013 E22.19881
G1 X117.716 Y107.013 E22.37330
G1 X117.716 Y107.413 E22.39040
G1 X121.798 Y107.413 E22.56489
G1 X121.798 Y107.813 E22.58199
G1 X117.716 Y107.813 E22.75648
G1 X117.716 Y108.213 E22.77357
G1 X121.798 Y108.213 E22.94807
G1 X121.798 Y108.613 E22.96516
G1 X117.716 Y108.613 E23.13965
G1 X117.716 Y109.013 E23.15675
G1 X121.798 Y109.013 E23.33124
G1 X121.798 Y109.413 E23.34834
G1 X117.716 Y109.413 E23.52283
G1 X117.716 Y109.812 E23.53992
G1 X121.798 Y109.812 E23.71441
G1 X121.798 Y110.212 E23.73151
G1 X117.716 Y110.212 E23.90600
G1 X117.716 Y110.612 E23.92310
G1 X121.798 Y110.612 E24.09759
G1 X121.798 Y111.012 E24.11468
G1 X117.716 Y111.012 E24.28917
G1 X117.716 Y111.412 E24.30627
G1 X121.798 Y111.412 E24.48076
G1 X121.814 Y111.812 E24.49787
G1 X117.716 Y111.812 E24.67304
G1 X117.716 Y112.212 E24.69014
G1 X121.836 Y112.212 E24.86625
G1 X121.899 Y112.612 E24.88356
G1 X117.716 Y112.612 E25.06238
G1 X117.716 Y113.011 E25.07948
G1 X121.975 Y113.011 E25.26155
G1 X122.082 Y113.411 E25.27924
G1 X117.716 Y113.411 E25.46589
G1 X117.716 Y113.811 E25.48299
G1 X122.216 Y113.811 E25.67538
G1 X122.370 Y114.211 E25.69369
G1 X117.716 Y114.211 E25.89264
G1 X117.716 Y114.611 E25.90974
G1 X122.571 Y114.611 E26.11729
G1 X122.796 Y115.011 E26.13690
G1 X117.716 Y115.011 E26.35406
G1 X117.716 Y115.411 E26.37116
G1 X123.055 Y115.411 E26.59942
G1 X123.373 Y115.811 E26.62126
G1 X117.716 Y115.811 E26.86310
G1 X117.716 Y116.210 E26.88019
G1 X123.738 Y116.210 E27.13762
G1 X124.021 Y116.493 E27.15473
G1 X124.165 Y116.610 E27.16267
G1 X117.716 Y116.610 E27.43837
G1 X117.716 Y117.010 E27.45547
G1 X124.681 Y117.010 E27.75325
G1 X125.157 Y117.319 E27.77749
G1 X125.336 Y117.410 E27.78607
G1 X117.716 Y117.410 E28.11182
G1 X117.716 Y117.810 E28.12891
G1 X126.231 Y117.810 E28.49293
G1 X126.440 Y117.890 E28.50252
G1 X127.120 Y118.072 E28.53259
G1 X127.814 Y118.182 E28.56266
G1 X128.337 Y118.210 E28.58504
G1 X117.716 Y118.210 E29.03910
G1 X117.716 Y118.610 E29.05620
G1 X139.015 Y118.610 E29.96676
G1 X139.357 Y118.679 E29.98170
G1 X140.518 Y119.010 E30.03329
G1 X117.716 Y119.010 E31.00812
G1 X117.716 Y119.409 E31.02521
G1 X141.608 Y119.409 E32.04667
G1 X141.810 Y119.485 E32.05588
G1 X142.506 Y119.809 E32.08869
G1 X117.716 Y119.809 E33.14851
G1 X117.716 Y120.209 E33.16561
G1 X143.295 Y120.209 E34.25917
G1 X144.000 Y120.609 E34.29382
G1 X117.716 Y120.609 E35.41752
G1 X117.716 Y121.009 E35.43462
G1 X144.607 Y121.009 E36.58429
G1 X145.194 Y121.409 E36.61465
G1 X117.716 Y121.409 E37.78941
G1 X117.716 Y121.809 E37.80650
G1 X145.694 Y121.809 E39.00263
G1 X146.192 Y122.209 E39.02995
G1 X117.716 Y122.209 E40.24738
G1 X117.716 Y122.608 E40.26448
G1 X146.618 Y122.608 E41.50011
G1 X147.044 Y123.008 E41.52508
G1 X117.716 Y123.008 E42.77892
G1 X117.716 Y123.408 E42.79601
G1 X147.419 Y123.408 E44.06588
G1 X147.782 Y123.808 E44.08898
G1 X136.138 Y123.808 E44.58679
G1 X136.448 Y123.822 E44.60007
G1 X137.373 Y123.943 E44.63995
G1 X138.284 Y124.144 E44.67982
G1 X138.486 Y124.208 E44.68888
G1 X148.123 Y124.208 E45.10087
G1 X148.432 Y124.608 E45.12248
G1 X139.618 Y124.608 E45.49927
G1 X140.036 Y124.780 E45.51858
G1 X140.474 Y125.008 E45.53969
G1 X148.741 Y125.008 E45.89311
G1 X148.784 Y125.064 E45.89615
G1 X149.009 Y125.408 E45.91370
G1 X141.175 Y125.408 E46.24861
G1 X141.779 Y125.807 E46.27956
G1 X149.270 Y125.807 E46.59983
G1 X149.491 Y126.146 E46.61710
G1 X149.524 Y126.207 E46.62010
G1 X142.302 Y126.207 E46.92889
G1 X142.754 Y126.607 E46.95472
G1 X149.742 Y126.607 E47.25347
G1 X149.960 Y127.007 E47.27294
G1 X143.174 Y127.007 E47.56305
G1 X143.542 Y127.407 E47.58629
G1 X150.166 Y127.407 E47.86945
G1 X150.344 Y127.807 E47.88817
G1 X143.878 Y127.807 E48.16460
G1 X144.187 Y128.207 E48.18619
G1 X150.523 Y128.207 E48.45707
G1 X150.636 Y128.460 E48.46893
G1 X150.688 Y128.607 E48.47557
G1 X144.459 Y128.607 E48.74186
G1 X144.715 Y129.006 E48.76217
G1 X150.829 Y129.006 E49.02356
G1 X150.971 Y129.406 E49.04169
G1 X144.937 Y129.406 E49.29963
G1 X145.147 Y129.806 E49.31894
G1 X151.101 Y129.806 E49.57349
G1 X151.208 Y130.206 E49.59119
G1 X145.329 Y130.206 E49.84256
G1 X145.496 Y130.606 E49.86108
G1 X151.315 Y130.606 E50.10987
G1 X151.415 Y131.006 E50.12750
G1 X145.643 Y131.006 E50.37429
G1 X145.770 Y131.406 E50.39223
G1 X151.488 Y131.406 E50.63671
G1 X151.562 Y131.806 E50.65409
G1 X145.887 Y131.806 E50.89672
G1 X145.977 Y132.205 E50.91424
G1 X151.635 Y132.205 E51.15613
G1 X151.677 Y132.605 E51.17332
G1 X146.067 Y132.605 E51.41316
G1 X146.122 Y133.005 E51.43042
G1 X151.719 Y133.005 E51.66969
G1 X151.761 Y133.405 E51.68688
G1 X146.177 Y133.405 E51.92558
G1 E49.92558 F2400.00000
G92 E0
G1 X127.998 Y123.808 F7800.000
G1 E2.00000 F2400.00000
G1 F2400.000
G1 X117.716 Y123.808 E2.43959
G1 X117.716 Y124.208 E2.45669
G1 X126.185 Y124.208 E2.81873
G1 X125.784 Y124.362 E2.83709
G1 X125.301 Y124.608 E2.86025
G1 X117.716 Y124.608 E3.18452
G1 X117.716 Y125.008 E3.20161
G1 X124.654 Y125.008 E3.49823
G1 X124.143 Y125.408 E3.52597
G1 X117.716 Y125.408 E3.80073
G1 X117.716 Y125.807 E3.81783
G1 X123.720 Y125.807 E4.07450
G1 X123.523 Y126.004 E4.08639
G1 X123.359 Y126.207 E4.09757
G1 X117.716 Y126.207 E4.33881
G1 X117.716 Y126.607 E4.35590
G1 X123.044 Y126.607 E4.58368
G1 X122.784 Y127.007 E4.60406
G1 X117.716 Y127.007 E4.82074
G1 X117.716 Y127.407 E4.83783
G1 X122.562 Y127.407 E5.04500
G1 X122.363 Y127.807 E5.06409
G1 X117.716 Y127.807 E5.26276
G1 X117.716 Y128.207 E5.27985
G1 X122.210 Y128.207 E5.47196
G1 X122.077 Y128.607 E5.48997
G1 X117.716 Y128.607 E5.67642
G1 X117.716 Y129.006 E5.69351
G1 X121.970 Y129.006 E5.87538
G1 X121.896 Y129.406 E5.89277
G1 X117.716 Y129.406 E6.07148
G1 X117.716 Y129.806 E6.08857
G1 X121.834 Y129.806 E6.26461
G1 X121.813 Y130.206 E6.28173
G1 X117.716 Y130.206 E6.45687
G1 X117.716 Y130.606 E6.47397
G1 X121.798 Y130.606 E6.64847
G1 X121.798 Y131.006 E6.66556
G1 X117.716 Y131.006 E6.84006
G1 X117.716 Y131.406 E6.85716
G1 X121.798 Y131.406 E7.03165
G1 X121.798 Y131.806 E7.04875
G1 X117.716 Y131.806 E7.22325
G1 X117.716 Y132.205 E7.24034
G1 X121.798 Y132.205 E7.41484
G1 X121.798 Y132.605 E7.43193
G1 X117.716 Y132.605 E7.60643
G1 X117.716 Y133.005 E7.62352
G1 X121.798 Y133.005 E7.79802
G1 X121.798 Y133.405 E7.81512
G1 X117.716 Y133.405 E7.98961
G1 X117.716 Y133.805 E8.00671
G1 X121.798 Y133.805 E8.18120
G1 X121.798 Y134.205 E8.19830
G1 X117.716 Y134.205 E8.37279
G1 X117.716 Y134.605 E8.38989
G1 X121.798 Y134.605 E8.56438
G1 X121.798 Y135.005 E8.58148
G1 X117.716 Y135.005 E8.75597
G1 X117.716 Y135.404 E8.77307
G1 X121.798 Y135.404 E8.94756
G1 X121.798 Y135.804 E8.96466
G1 X117.716 Y135.804 E9.13915
G1 X117.716 Y136.204 E9.15625
G1 X121.798 Y136.204 E9.33074
G1 X121.798 Y136.604 E9.34783
G1 X117.716 Y136.604 E9.52233
G1 X117.716 Y137.004 E9.53942
G1 X121.798 Y137.004 E9.71392
G1 X121.798 Y137.404 E9.73101
G1 X117.716 Y137.404 E9.90550
G1 X117.716 Y137.804 E9.92260
G1 X121.798 Y137.804 E10.09709
G1 X121.798 Y138.204 E10.11419
G1 X117.716 Y138.204 E10.28868
G1 X117.716 Y138.603 E10.30577
G1 X121.798 Y138.603 E10.48027
G1 X121.798 Y139.003 E10.49736
G1 X117.716 Y139.003 E10.67185
G1 X117.716 Y139.403 E10.68895
G1 X121.798 Y139.403 E10.86344
G1 X121.798 Y139.803 E10.88053
G1 X117.716 Y139.803 E11.05502
G1 X117.716 Y140.203 E11.07212
G1 X121.798 Y140.203 E11.24661
G1 X121.798 Y140.603 E11.26371
G1 X117.716 Y140.603 E11.43820
G1 X117.716 Y141.003 E11.45529
G1 X121.798 Y141.003 E11.62978
G1 X121.798 Y141.403 E11.64688
G1 X117.716 Y141.403 E11.82137
G1 X117.716 Y141.802 E11.83846
G1 X121.813 Y141.802 E12.01362
G1 X121.834 Y142.202 E12.03074
G1 X117.716 Y142.202 E12.20679
G1 X117.716 Y142.602 E12.22388
G1 X121.898 Y142.602 E12.40264
G1 X121.972 Y143.002 E12.42003
G1 X117.716 Y143.002 E12.60199
G1 X117.716 Y143.402 E12.61909
G1 X122.079 Y143.402 E12.80563
G1 X122.213 Y143.802 E12.82365
G1 X117.716 Y143.802 E13.01589
G1 X117.716 Y144.202 E13.03298
G1 X122.366 Y144.202 E13.23178
G1 X122.566 Y144.602 E13.25089
G1 X117.716 Y144.602 E13.45824
G1 X117.716 Y145.001 E13.47533
G1 X122.790 Y145.001 E13.69223
G1 X123.049 Y145.401 E13.71262
G1 X117.716 Y145.401 E13.94062
G1 X117.716 Y145.801 E13.95772
G1 X123.365 Y145.801 E14.19923
G1 X123.523 Y145.996 E14.20995
G1 X123.728 Y146.201 E14.22235
G1 X117.716 Y146.201 E14.47938
G1 X117.716 Y146.601 E14.49647
G1 X124.153 Y146.601 E14.77168
G1 X124.667 Y147.001 E14.79951
G1 X117.716 Y147.001 E15.09667
G1 X117.716 Y147.401 E15.11376
G1 X125.317 Y147.401 E15.43873
G1 X125.784 Y147.638 E15.46111
G1 X126.206 Y147.801 E15.48046
G1 X117.716 Y147.801 E15.84343
G1 X117.716 Y148.200 E15.86053
G1 X128.158 Y148.200 E16.30694
G1 X128.511 Y148.219 E16.32207
G1 X152.512 Y148.219 E17.34818
G1 X153.705 Y148.269 E17.39920
G1 X154.885 Y148.417 E17.45004
G1 X155.753 Y148.600 E17.48798
G1 X117.716 Y148.600 E19.11416
G1 X117.716 Y149.000 E19.13126
G1 X157.173 Y149.000 E20.81814
G1 X158.193 Y149.400 E20.86497
G1 X117.716 Y149.400 E22.59544
G1 X117.716 Y149.800 E22.61254
G1 X159.024 Y149.800 E24.37856
G1 X159.360 Y149.966 E24.39459
G1 X159.750 Y150.200 E24.41401
G1 X117.716 Y150.200 E26.21104
G1 X117.716 Y150.600 E26.22814
G1 X160.409 Y150.600 E28.05336
G1 X160.963 Y151.000 E28.08259
G1 X117.716 Y151.000 E29.93152
G1 X117.716 Y151.399 E29.94861
G1 X161.490 Y151.399 E31.82008
G1 X161.958 Y151.799 E31.84636
G1 X117.716 Y151.799 E33.73780
G1 X117.716 Y152.199 E33.75490
G1 X162.397 Y152.199 E35.66513
G1 X162.793 Y152.599 E35.68917
G1 X117.716 Y152.599 E37.61630
G1 X117.716 Y152.999 E37.63340
G1 X163.172 Y152.999 E39.57674
G1 X163.506 Y153.399 E39.59902
G1 X117.716 Y153.399 E41.55665
G1 X117.716 Y153.799 E41.57375
G1 X163.840 Y153.799 E43.54566
G1 X164.122 Y154.199 E43.56659
G1 X117.716 Y154.199 E45.55057
G1 X117.716 Y154.598 E45.56766
G1 X130.069 Y154.598 E46.09579
G1 X129.513 Y154.737 E46.12028
G1 X128.765 Y154.998 E46.15418
G1 X117.716 Y154.998 E46.62653
G1 X117.716 Y155.398 E46.64362
G1 X127.856 Y155.398 E47.07713
G1 X127.141 Y155.798 E47.11216
G1 X117.716 Y155.798 E47.51508
G1 X117.716 Y156.198 E47.53218
G1 X126.533 Y156.198 E47.90911
G1 X125.983 Y156.598 E47.93817
G1 X117.716 Y156.598 E48.29161
G1 X117.716 Y156.998 E48.30870
G1 X125.521 Y156.998 E48.64238
G1 X125.100 Y157.398 E48.66720
G1 X117.716 Y157.398 E48.98288
G1 X117.716 Y157.797 E48.99997
G1 X124.725 Y157.797 E49.29961
G1 X124.380 Y158.197 E49.32219
G1 X117.716 Y158.197 E49.60709
G1 X117.716 Y158.597 E49.62418
G1 X124.070 Y158.597 E49.89581
G1 X123.782 Y158.997 E49.91687
G1 X117.716 Y158.997 E50.17621
G1 X117.716 Y159.397 E50.19330
G1 X123.525 Y159.397 E50.44166
G1 X123.282 Y159.797 E50.46168
G1 X117.716 Y159.797 E50.69962
G1 X117.716 Y160.197 E50.71671
G1 X123.071 Y160.197 E50.94562
G1 X122.861 Y160.597 E50.96493
G1 X117.716 Y160.597 E51.18487
G1 X117.716 Y160.996 E51.20196
G1 X122.688 Y160.996 E51.41453
G1 X122.514 Y161.396 E51.43318
G1 X117.716 Y161.396 E51.63830
G1 X117.716 Y161.796 E51.65540
G1 X122.369 Y161.796 E51.85431
G1 X122.234 Y162.196 E51.87236
G1 X117.716 Y162.196 E52.06550
G1 X117.716 Y162.596 E52.08260
G1 X122.109 Y162.596 E52.27040
G1 X122.013 Y162.996 E52.28798
G1 X117.716 Y162.996 E52.47169
G1 X117.716 Y163.396 E52.48879
G1 X121.918 Y163.396 E52.66840
G1 X121.867 Y163.796 E52.68564
G1 X117.716 Y163.796 E52.86307
G1 X117.716 Y164.195 E52.88017
G1 X121.829 Y164.195 E53.05599
G1 X121.801 Y164.595 E53.07312
G1 X117.716 Y164.595 E53.24775
G1 X117.716 Y164.995 E53.26485
G1 X121.801 Y164.995 E53.43946
G1 X121.800 Y165.395 E53.45656
G1 X117.716 Y165.395 E53.63116
G1 X117.716 Y165.795 E53.64826
G1 X121.800 Y165.795 E53.82285
G1 X121.800 Y166.195 E53.83995
G1 X117.716 Y166.195 E54.01453
G1 X117.716 Y166.595 E54.03162
G1 X121.800 Y166.595 E54.20619
G1 X121.799 Y166.995 E54.22329
G1 X117.716 Y166.995 E54.39785
G1 X117.716 Y167.394 E54.41494
G1 X121.799 Y167.394 E54.58949
G1 X121.799 Y167.794 E54.60659
G1 X117.716 Y167.794 E54.78112
G1 X117.716 Y168.194 E54.79822
G1 X121.798 Y168.194 E54.97275
G1 X121.798 Y168.594 E54.98984
G1 X117.716 Y168.594 E55.16436
G1 X117.716 Y168.994 E55.18145
G1 X121.798 Y168.994 E55.35595
G1 X121.798 Y169.394 E55.37305
G1 X117.716 Y169.394 E55.54754
G1 X117.716 Y169.794 E55.56464
G1 X121.813 Y169.794 E55.73977
G1 X121.834 Y170.194 E55.75689
G1 X117.716 Y170.194 E55.93292
G1 X117.716 Y170.593 E55.95002
G1 X121.896 Y170.593 E56.12872
