; Generated by RP3 on 2021-07-8
; Job 0 - 3D Cloner

G21 ; set units to millimeters
M107 ;fan off
G28 ;home all axes
G90 ;absolute coordinates
G28 E0 ;home all axes
G1 E20.0 F100.0 ;extrude 20mm material with 100 mm/min speed
G28 E0 ;home all axes
G90 ;use absolute coordinates
M82 ; use absolute distances for extrusion
G92 E0 ;home of axes
M104 S90
G1 E-2.00000 F24000 ;retracts 2mm of material
M106 S102

(Layer 1)
G1  Z0.250 F2400

(Raster 1)
G92 E0
G1  X0064.517 Y0102.375 F2400
G1  E2.00000 F2400
G1  X0064.517 Y0104.815 E2.112 F2400
G1  X0064.451 Y0104.830 E2.115
G1  X0064.117 Y0104.830 E2.130
G1  X0064.117 Y0100.733 E2.317
G1  X0064.098 Y0100.663 E2.321
G1  X0063.717 Y0099.587 E2.373
G1  X0063.717 Y0104.830 E2.613
G1  X0063.317 Y0104.830 E2.631
G1  X0063.317 Y0098.660 E2.913
G1  X0063.137 Y0098.258 E2.933
G1  X0062.917 Y0097.854 E2.954
G1  X0062.917 Y0104.830 E3.273
G1  X0062.517 Y0104.830 E3.291
G1  X0062.517 Y0097.120 E3.644
G1  X0062.117 Y0096.508 E3.677
G1  X0062.117 Y0104.830 E4.058
G1  X0061.717 Y0104.830 E4.076
G1  X0061.717 Y0095.917 E4.484
G1  X0061.317 Y0095.399 E4.514
G1  X0061.317 Y0104.830 E4.945
G1  X0060.917 Y0104.830 E4.963
G1  X0060.917 Y0094.901 E5.417
G1  X0060.517 Y0094.460 E5.444
G1  X0060.517 Y0104.830 E5.918
G1  X0060.117 Y0104.830 E5.937
G1  X0060.117 Y0094.024 E6.431
G1  X0059.717 Y0093.648 E6.456
G1  X0059.717 Y0104.831 E6.967
G1  X0059.317 Y0104.831 E6.985
G1  X0059.317 Y0093.273 E7.514
G1  X0059.200 Y0093.163 E7.521
G1  X0058.917 Y0092.936 E7.538
G1  X0058.917 Y0104.831 E8.082
G1  X0058.675 Y0104.831 E8.093
G1  X0058.653 Y0104.782 E8.095
G1  X0058.624 Y0104.681 E8.100
G1  X0058.517 Y0103.954 E8.133
G1  X0058.517 Y0092.616 E8.652
G1  X0058.188 Y0092.353 E8.671
G1  X0058.117 Y0092.305 E8.675
G1  X0058.117 Y0102.285 E9.131
G1  X0057.865 Y0101.589 E9.165
G1  X0057.717 Y0101.277 E9.181
G1  X0057.717 Y0092.034 E9.603
G1  X0057.317 Y0091.763 E9.625
G1  X0057.317 Y0100.490 E10.025
G1  X0056.923 Y0099.838 E10.059
G1  X0056.917 Y0099.829 E10.060
G1  X0056.917 Y0091.514 E10.440
G1  X0056.517 Y0091.287 E10.461
G1  X0056.517 Y0099.293 E10.827
G1  X0056.330 Y0099.042 E10.841
G1  X0056.117 Y0098.808 E10.856
G1  X0056.117 Y0091.060 E11.210
G1  X0055.987 Y0090.987 E11.217
G1  X0055.717 Y0090.861 E11.231
G1  X0055.717 Y0098.369 E11.574
G1  X0055.658 Y0098.305 E11.578
G1  X0055.317 Y0097.997 E11.599
G1  X0055.317 Y0090.674 E11.934
G1  X0054.917 Y0090.487 E11.954
G1  X0054.917 Y0097.637 E12.281
G1  X0054.517 Y0097.342 E12.303
G1  X0054.517 Y0090.328 E12.624
G1  X0054.117 Y0090.179 E12.644
G1  X0054.117 Y0097.047 E12.958
G1  X0053.717 Y0096.808 E12.979
G1  X0053.717 Y0090.030 E13.289
G1  X0053.599 Y0089.986 E13.295
G1  X0053.317 Y0089.905 E13.308
G1  X0053.317 Y0096.570 E13.613
G1  X0053.266 Y0096.539 E13.615
G1  X0052.917 Y0096.375 E13.633
G1  X0052.917 Y0089.791 E13.934
G1  X0052.517 Y0089.677 E13.953
G1  X0052.517 Y0096.187 E14.251
G1  X0052.364 Y0096.115 E14.258
G1  X0052.117 Y0096.027 E14.270
G1  X0052.117 Y0089.583 E14.565
G1  X0051.717 Y0089.502 E14.584
G1  X0051.717 Y0095.885 E14.875
G1  X0051.428 Y0095.782 E14.889
G1  X0051.317 Y0095.755 E14.895
G1  X0051.317 Y0089.422 E15.184
G1  X0051.082 Y0089.375 E15.195
G1  X0050.917 Y0089.355 E15.203
G1  X0050.917 Y0095.655 E15.491
G1  X0050.517 Y0095.556 E15.510
G1  X0050.517 Y0089.307 E15.795
G1  X0050.117 Y0089.259 E15.814
G1  X0050.117 Y0095.491 E16.099
G1  X0049.716 Y0095.432 E16.117
G1  X0049.716 Y0089.218 E16.401
G1  X0049.316 Y0089.202 E16.420
G1  X0049.316 Y0095.390 E16.703
G1  X0048.916 Y0095.371 E16.721
G1  X0048.916 Y0089.186 E17.004
G1  X0048.658 Y0089.176 E17.015
G1  X0048.516 Y0089.176 E17.022
G1  X0048.516 Y0095.351 E17.304
G1  X0048.500 Y0095.350 E17.305
G1  X0048.116 Y0095.350 E17.323
G1  X0048.116 Y0089.176 E17.605
G1  X0047.716 Y0089.175 E17.623
G1  X0047.716 Y0095.350 E17.905
G1  X0047.316 Y0095.350 E17.924
G1  X0047.316 Y0089.175 E18.206
G1  X0046.916 Y0089.175 E18.224
G1  X0046.916 Y0095.350 E18.507
G1  X0046.516 Y0095.350 E18.525
G1  X0046.516 Y0089.175 E18.807
G1  X0046.116 Y0089.175 E18.826
G1  X0046.116 Y0095.350 E19.108
G1  X0045.716 Y0095.350 E19.126
G1  X0045.716 Y0089.175 E19.408
G1  X0045.316 Y0089.175 E19.427
G1  X0045.316 Y0095.350 E19.709
G1  X0044.916 Y0095.350 E19.727
G1  X0044.916 Y0089.175 E20.010
G1  X0044.516 Y0089.175 E20.028
G1  X0044.516 Y0095.350 E20.310
G1  X0044.116 Y0095.350 E20.329
G1  X0044.116 Y0089.175 E20.611
G1  X0043.716 Y0089.175 E20.629
G1  X0043.716 Y0095.350 E20.911
G1  X0043.316 Y0095.350 E20.930
G1  X0043.316 Y0089.175 E21.212
G1  X0042.916 Y0089.175 E21.230
G1  X0042.916 Y0095.350 E21.513
G1  X0042.516 Y0095.350 E21.531
G1  X0042.516 Y0089.175 E21.813
G1  X0042.116 Y0089.174 E21.832
G1  X0042.116 Y0095.350 E22.114
G1  X0041.716 Y0095.350 E22.132
G1  X0041.716 Y0089.174 E22.415
G1  X0041.316 Y0089.174 E22.433
G1  X0041.316 Y0095.350 E22.715
G1  X0040.916 Y0095.350 E22.734
G1  X0040.916 Y0089.174 E23.016
G1  X0040.516 Y0089.174 E23.034
G1  X0040.516 Y0095.350 E23.317
G1  X0040.116 Y0095.350 E23.335
G1  X0040.116 Y0089.174 E23.617
G1  X0039.716 Y0089.174 E23.636
G1  X0039.716 Y0095.350 E23.918
G1  X0039.316 Y0095.350 E23.936
G1  X0039.316 Y0089.174 E24.219
G1  X0038.916 Y0089.174 E24.237
G1  X0038.916 Y0095.350 E24.519
G1  X0038.516 Y0095.350 E24.537
G1  X0038.516 Y0089.174 E24.820
G1  X0038.116 Y0089.174 E24.838
G1  X0038.116 Y0095.350 E25.121
G1  X0037.716 Y0095.350 E25.139
G1  X0037.716 Y0089.174 E25.421
G1  X0037.316 Y0089.174 E25.439
G1  X0037.316 Y0095.350 E25.722
G1  X0036.916 Y0095.350 E25.740
G1  X0036.916 Y0089.174 E26.023
G1  X0036.516 Y0089.174 E26.041
G1  X0036.516 Y0095.350 E26.323
G1  X0036.116 Y0095.350 E26.342
G1  X0036.116 Y0089.173 E26.624
G1  X0035.716 Y0089.173 E26.642
G1  X0035.716 Y0095.350 E26.925
G1  X0035.316 Y0095.350 E26.943
G1  X0035.316 Y0089.173 E27.225
G1  X0034.916 Y0089.173 E27.244
G1  X0034.916 Y0095.350 E27.526
G1  X0034.516 Y0095.350 E27.544
G1  X0034.516 Y0089.173 E27.827
G1  X0034.116 Y0089.173 E27.845
G1  X0034.116 Y0095.350 E28.127
G1  X0033.716 Y0095.350 E28.146
G1  X0033.716 Y0089.173 E28.428
G1  X0033.316 Y0089.173 E28.446
G1  X0033.316 Y0095.350 E28.729
G1  X0032.916 Y0095.350 E28.747
G1  X0032.916 Y0089.173 E29.029
G1  X0032.516 Y0089.173 E29.048
G1  X0032.516 Y0095.350 E29.330
G1  X0032.116 Y0095.350 E29.348
G1  X0032.116 Y0089.173 E29.631
G1  X0031.716 Y0089.173 E29.649
G1  X0031.716 Y0095.350 E29.932
G1  X0031.316 Y0095.350 E29.950
G1  X0031.316 Y0089.173 E30.232
G1  X0030.916 Y0089.173 E30.251
G1  X0030.916 Y0095.350 E30.533
G1  X0030.516 Y0095.350 E30.551
G1  X0030.516 Y0089.173 E30.834
G1  X0030.116 Y0089.172 E30.852
G1  X0030.116 Y0095.350 E31.134
G1  X0029.716 Y0095.350 E31.153
G1  X0029.716 Y0089.172 E31.435
G1  X0029.316 Y0089.172 E31.454
G1  X0029.316 Y0095.350 E31.736
G1  X0028.916 Y0095.350 E31.754
G1  X0028.916 Y0089.172 E32.037
G1  X0028.516 Y0089.172 E32.055
G1  X0028.516 Y0095.350 E32.337
G1  X0028.116 Y0095.350 E32.356
G1  X0028.116 Y0089.172 E32.638
G1  X0027.716 Y0089.172 E32.656
G1  X0027.716 Y0095.350 E32.939
G1  X0027.477 Y0095.350 E32.950
G1  X0027.316 Y0095.355 E32.957
G1  X0027.316 Y0089.172 E33.240
G1  X0026.916 Y0089.172 E33.258
G1  X0026.916 Y0095.369 E33.542
G1  X0026.516 Y0095.382 E33.560
G1  X0026.516 Y0089.172 E33.844
G1  X0026.116 Y0089.172 E33.862
G1  X0026.116 Y0095.395 E34.147
G1  X0025.912 Y0095.402 E34.156
G1  X0025.716 Y0095.424 E34.165
G1  X0025.716 Y0089.172 E34.451
G1  X0025.316 Y0089.172 E34.469
G1  X0025.316 Y0095.467 E34.757
G1  X0024.916 Y0095.511 E34.775
G1  X0024.916 Y0089.172 E35.065
G1  X0024.516 Y0089.172 E35.083
G1  X0024.516 Y0095.554 E35.375
G1  X0024.334 Y0095.574 E35.384
G1  X0024.116 Y0095.611 E35.394
G1  X0024.116 Y0089.171 E35.688
G1  X0023.716 Y0089.171 E35.706
G1  X0023.716 Y0095.678 E36.004
G1  X0023.437 Y0095.725 E36.017
G1  X0023.316 Y0095.749 E36.022
G1  X0023.316 Y0089.171 E36.323
G1  X0022.916 Y0089.171 E36.342
G1  X0022.916 Y0095.830 E36.646
G1  X0022.724 Y0095.868 E36.655
G1  X0022.516 Y0095.918 E36.665
G1  X0022.516 Y0089.171 E36.973
G1  X0022.116 Y0089.171 E36.991
G1  X0022.116 Y0096.015 E37.304
G1  X0021.825 Y0096.085 E37.318
G1  X0021.716 Y0096.115 E37.323
G1  X0021.716 Y0089.171 E37.641
G1  X0021.316 Y0089.171 E37.659
G1  X0021.316 Y0096.226 E37.982
G1  X0021.127 Y0096.279 E37.991
G1  X0020.916 Y0096.347 E38.001
G1  X0020.916 Y0089.171 E38.329
G1  X0020.516 Y0089.171 E38.347
G1  X0020.516 Y0096.476 E38.681
G1  X0020.255 Y0096.561 E38.694
G1  X0020.116 Y0096.611 E38.700
G1  X0020.116 Y0089.171 E39.041
G1  X0019.716 Y0089.171 E39.059
G1  X0019.716 Y0096.756 E39.406
G1  X0019.576 Y0096.808 E39.412
G1  X0019.316 Y0096.913 E39.425
G1  X0019.316 Y0089.171 E39.779
G1  X0018.916 Y0089.171 E39.798
G1  X0018.916 Y0097.075 E40.159
G1  X0018.732 Y0097.150 E40.168
G1  X0018.516 Y0097.245 E40.179
G1  X0018.516 Y0089.170 E40.548
G1  X0018.116 Y0089.170 E40.566
G1  X0018.116 Y0097.422 E40.944
G1  X0018.092 Y0097.432 E40.945
G1  X0017.716 Y0097.619 E40.964
G1  X0017.716 Y0089.170 E41.350
G1  X0017.316 Y0089.170 E41.368
G1  X0017.316 Y0097.817 E41.764
G1  X0017.120 Y0097.914 E41.774
G1  X0016.916 Y0098.031 E41.784
G1  X0016.916 Y0089.170 E42.190
G1  X0016.516 Y0089.170 E42.208
G1  X0016.516 Y0098.259 E42.623
G1  X0016.116 Y0098.488 E42.644
G1  X0016.116 Y0089.170 E43.071
G1  X0015.716 Y0089.170 E43.089
G1  X0015.716 Y0098.729 E43.526
G1  X0015.316 Y0098.996 E43.548
G1  X0015.316 Y0089.170 E43.997
G1  X0014.916 Y0089.170 E44.015
G1  X0014.916 Y0099.262 E44.477
G1  X0014.516 Y0099.529 E44.499
G1  X0014.516 Y0089.170 E44.972
G1  X0014.116 Y0089.170 E44.991
G1  X0014.116 Y0099.834 E45.478
G1  X0013.716 Y0100.142 E45.501
G1  X0013.716 Y0089.170 E46.003
G1  X0013.316 Y0089.170 E46.021
G1  X0013.316 Y0100.451 E46.537
G1  X0013.309 Y0100.457 E46.537
G1  X0012.916 Y0100.801 E46.561
G1  X0012.916 Y0089.170 E47.093
G1  X0012.516 Y0089.169 E47.111
G1  X0012.516 Y0101.152 E47.659
G1  X0012.283 Y0101.356 E47.673
G1  X0012.116 Y0101.521 E47.684
G1  X0012.116 Y0089.169 E48.249
G1  X0011.716 Y0089.169 E48.267
G1  X0011.716 Y0101.917 E48.850
G1  X0011.369 Y0102.261 E48.872
G1  X0011.316 Y0102.319 E48.876
G1  X0011.316 Y0089.160 E49.478
G1  X0010.916 Y0089.139 E49.496
G1  X0010.916 Y0102.760 E50.119
G1  X0010.595 Y0103.116 E50.141
G1  X0010.516 Y0103.212 E50.146
G1  X0010.516 Y0089.083 E50.792
G1  X0010.208 Y0089.039 E50.806
G1  X0010.116 Y0089.016 E50.811
G1  X0010.116 Y0103.706 E51.482
G1  X0009.746 Y0104.162 E51.509
G1  X0009.716 Y0104.203 E51.512
G1  X0009.716 Y0088.915 E52.211
G1  X0009.532 Y0088.868 E52.219
G1  X0009.316 Y0088.788 E52.230
G1  X0009.316 Y0104.752 E52.960
G1  X0009.145 Y0104.987 E52.973
G1  X0008.916 Y0105.324 E52.992
G1  X0008.916 Y0088.641 E53.754
G1  X0008.796 Y0088.596 E53.760
G1  X0008.516 Y0088.454 E53.775
G1  X0008.516 Y0105.938 E54.574
G1  X0008.439 Y0106.061 E54.581
G1  X0008.116 Y0106.623 E54.610
G1  X0008.116 Y0088.243 E55.451
G1  X0007.716 Y0087.984 E55.472
G1  X0007.716 Y0107.320 E56.356
G1  X0007.700 Y0107.349 E56.358
G1  X0007.331 Y0108.073 E56.395
G1  X0007.316 Y0108.105 E56.397
G1  X0007.316 Y0087.678 E57.331
G1  X0007.112 Y0087.517 E57.342
G1  X0006.916 Y0087.327 E57.355
G1  X0006.916 Y0108.966 E58.344
G1  X0006.847 Y0109.114 E58.352
G1  X0006.516 Y0109.942 E58.392
G1  X0006.516 Y0086.917 E59.445
G1  X0006.165 Y0086.495 E59.470
G1  X0006.116 Y0086.423 E59.474
G1  X0006.116 Y0111.027 E60.599
G1  X0005.956 Y0111.494 E60.622
G1  X0005.716 Y0112.282 E60.659
G1  X0005.716 Y0085.802 E61.870
G1  X0005.451 Y0085.299 E61.896
G1  X0005.316 Y0084.963 E61.913
G1  X0005.316 Y0113.860 E63.234
G1  X0005.067 Y0115.089 E63.291
G1  X0004.916 Y0116.139 E63.340
G1  X0004.916 Y0083.491 E64.832
G1  E62.832 F2400

(Raster 2)
G92 E0
G1  X0049.716 Y0074.703 F2400
G1  E2.00000 F2400
G1  X0049.716 Y0073.798 E2.041 F2400
G1  X0049.659 Y0073.291 E2.065
G1  X0049.426 Y0072.120 E2.119
G1  X0049.316 Y0071.738 E2.137
G1  X0049.316 Y0074.830 E2.279
G1  X0048.916 Y0074.830 E2.297
G1  X0048.916 Y0070.499 E2.495
G1  X0048.673 Y0069.858 E2.527
G1  X0048.516 Y0069.531 E2.543
G1  X0048.516 Y0074.830 E2.785
G1  X0048.116 Y0074.830 E2.804
G1  X0048.116 Y0068.710 E3.083
G1  X0047.716 Y0068.027 E3.120
G1  X0047.716 Y0074.830 E3.431
G1  X0047.316 Y0074.831 E3.449
G1  X0047.316 Y0067.412 E3.788
G1  X0046.916 Y0066.843 E3.820
G1  X0046.916 Y0074.831 E4.185
G1  X0046.516 Y0074.831 E4.203
G1  X0046.516 Y0066.354 E4.591
G1  X0046.116 Y0065.875 E4.620
G1  X0046.116 Y0074.831 E5.029
G1  X0045.716 Y0074.831 E5.047
G1  X0045.716 Y0065.468 E5.475
G1  X0045.316 Y0065.064 E5.501
G1  X0045.316 Y0074.831 E5.948
G1  X0044.916 Y0074.831 E5.966
G1  X0044.916 Y0064.713 E6.429
G1  X0044.516 Y0064.371 E6.453
G1  X0044.516 Y0074.831 E6.931
G1  X0044.116 Y0074.831 E6.949
G1  X0044.116 Y0064.061 E7.442
G1  X0043.716 Y0063.772 E7.464
G1  X0043.716 Y0074.831 E7.970
G1  X0043.663 Y0074.831 E7.972
G1  X0043.656 Y0074.818 E7.973
G1  X0043.620 Y0074.707 E7.978
G1  X0043.434 Y0073.637 E8.028
G1  X0043.316 Y0073.234 E8.047
G1  X0043.316 Y0063.493 E8.493
G1  X0042.916 Y0063.252 E8.514
G1  X0042.916 Y0072.132 E8.920
G1  X0042.883 Y0072.051 E8.924
G1  X0042.516 Y0071.361 E8.960
G1  X0042.516 Y0063.012 E9.341
G1  X0042.367 Y0062.922 E9.349
G1  X0042.116 Y0062.798 E9.362
G1  X0042.116 Y0070.755 E9.726
G1  X0042.019 Y0070.610 E9.734
G1  X0041.716 Y0070.247 E9.756
G1  X0041.716 Y0062.601 E10.105
G1  X0041.316 Y0062.404 E10.126
G1  X0041.316 Y0069.804 E10.464
G1  X0040.916 Y0069.415 E10.489
G1  X0040.916 Y0062.245 E10.817
G1  X0040.516 Y0062.087 E10.837
G1  X0040.516 Y0069.091 E11.157
G1  X0040.219 Y0068.856 E11.174
G1  X0040.116 Y0068.791 E11.180
G1  X0040.116 Y0061.936 E11.493
G1  X0039.716 Y0061.816 E11.512
G1  X0039.716 Y0068.537 E11.820
G1  X0039.509 Y0068.405 E11.831
G1  X0039.316 Y0068.309 E11.841
G1  X0039.316 Y0061.696 E12.143
G1  X0039.044 Y0061.614 E12.156
G1  X0038.916 Y0061.588 E12.162
G1  X0038.916 Y0068.109 E12.460
G1  X0038.756 Y0068.029 E12.468
G1  X0038.516 Y0067.939 E12.480
G1  X0038.516 Y0061.503 E12.774
G1  X0038.116 Y0061.419 E12.793
G1  X0038.116 Y0067.789 E13.084
G1  X0037.968 Y0067.734 E13.092
G1  X0037.716 Y0067.668 E13.104
G1  X0037.716 Y0061.348 E13.392
G1  X0037.316 Y0061.297 E13.411
G1  X0037.316 Y0067.563 E13.697
G1  X0037.155 Y0067.521 E13.705
G1  X0036.916 Y0067.483 E13.716
G1  X0036.916 Y0061.247 E14.001
G1  X0036.692 Y0061.219 E14.011
G1  X0036.516 Y0061.212 E14.020
G1  X0036.516 Y0067.421 E14.303
G1  X0036.333 Y0067.393 E14.312
G1  X0036.116 Y0067.382 E14.322
G1  X0036.116 Y0061.195 E14.605
G1  X0035.716 Y0061.178 E14.623
G1  X0035.716 Y0067.361 E14.906
G1  X0035.500 Y0067.350 E14.916
G1  X0035.316 Y0067.350 E14.924
G1  X0035.316 Y0061.175 E15.206
G1  X0034.916 Y0061.175 E15.225
G1  X0034.916 Y0067.350 E15.507
G1  X0034.516 Y0067.350 E15.525
G1  X0034.516 Y0061.175 E15.807
G1  X0034.116 Y0061.175 E15.826
G1  X0034.116 Y0067.350 E16.108
G1  X0033.716 Y0067.350 E16.126
G1  X0033.716 Y0061.175 E16.409
G1  X0033.316 Y0061.175 E16.427
G1  X0033.316 Y0067.350 E16.709
G1  X0032.916 Y0067.350 E16.728
G1  X0032.916 Y0061.175 E17.010
G1  X0032.516 Y0061.175 E17.028
G1  X0032.516 Y0067.350 E17.311
G1  X0032.116 Y0067.350 E17.329
G1  X0032.116 Y0061.175 E17.611
G1  X0031.716 Y0061.174 E17.629
G1  X0031.716 Y0067.350 E17.912
G1  X0031.316 Y0067.350 E17.930
G1  X0031.316 Y0061.174 E18.212
G1  X0030.916 Y0061.174 E18.231
G1  X0030.916 Y0067.350 E18.513
G1  X0030.516 Y0067.350 E18.531
G1  X0030.516 Y0061.174 E18.814
G1  X0030.116 Y0061.174 E18.832
G1  X0030.116 Y0067.350 E19.114
G1  X0029.716 Y0067.350 E19.133
G1  X0029.716 Y0061.174 E19.415
G1  X0029.316 Y0061.174 E19.433
G1  X0029.316 Y0067.350 E19.716
G1  X0028.916 Y0067.350 E19.734
G1  X0028.916 Y0061.174 E20.016
G1  X0028.516 Y0061.174 E20.035
G1  X0028.516 Y0067.350 E20.317
G1  X0028.116 Y0067.350 E20.335
G1  X0028.116 Y0061.173 E20.618
G1  X0027.716 Y0061.173 E20.636
G1  X0027.716 Y0067.350 E20.918
G1  X0027.316 Y0067.350 E20.937
G1  X0027.316 Y0061.173 E21.219
G1  X0026.916 Y0061.173 E21.237
G1  X0026.916 Y0067.350 E21.520
G1  X0026.516 Y0067.350 E21.538
