; Generated by RP3 on 2021-07-8
; Job 0 - 3D Cloner

G21 ; set units to millimeters
M107 ;fan off
G28 ;home all axes
G90 ;absolute coordinates
G28 E0 ;home all axes
G1 E20.0 F100.0 ;extrude 20mm material with 100 mm/min speed
G28 E0 ;home all axes
G90 ;use absolute coordinates
M82 ; use absolute distances for extrusion
G92 E0 ;home of axes
M104 S90
G1 E-2.00000 F24000 ;retracts 2mm of material
M106 S102

(Layer 1)
G1  Z0.250 F2400

(Raster 1)
G92 E0
G1  X0011.623 Y0001.484 F2400
G1  E2.00000 F2400
G1  X0000.650 Y0001.484 E2.502 F2400
G1  X0000.650 Y0001.884 E2.520
G1  X0013.240 Y0001.884 E3.096
G1  X0013.599 Y0001.986 E3.113
G1  X0014.397 Y0002.284 E3.152
G1  X0000.650 Y0002.284 E3.780
G1  X0000.650 Y0002.684 E3.798
G1  X0015.337 Y0002.684 E4.470
G1  X0015.987 Y0002.987 E4.503
G1  X0016.158 Y0003.084 E4.512
G1  X0000.650 Y0003.084 E5.221
G1  X0000.650 Y0003.484 E5.239
G1  X0016.863 Y0003.484 E5.980
G1  X0017.115 Y0003.626 E5.993
G1  X0017.494 Y0003.884 E6.014
G1  X0000.650 Y0003.884 E6.784
G1  X0000.650 Y0004.284 E6.803
G1  X0018.085 Y0004.284 E7.600
G1  X0018.188 Y0004.353 E7.606
G1  X0018.601 Y0004.684 E7.630
G1  X0000.650 Y0004.684 E8.450
G1  X0000.650 Y0005.084 E8.469
G1  X0019.101 Y0005.084 E9.312
G1  X0019.200 Y0005.163 E9.318
G1  X0019.541 Y0005.484 E9.340
G1  X0000.650 Y0005.484 E10.203
G1  X0000.650 Y0005.884 E10.222
G1  X0019.967 Y0005.884 E11.105
G1  X0020.144 Y0006.050 E11.116
G1  X0020.356 Y0006.284 E11.130
G1  X0000.650 Y0006.284 E12.031
G1  X0000.650 Y0006.684 E12.049
G1  X0020.720 Y0006.684 E12.967
G1  X0021.016 Y0007.010 E12.987
G1  X0021.073 Y0007.084 E12.991
G1  X0000.650 Y0007.084 E13.925
G1  X0000.650 Y0007.484 E13.943
G1  X0021.382 Y0007.484 E14.891
G1  X0021.691 Y0007.884 E14.914
G1  X0000.650 Y0007.884 E15.876
G1  X0000.650 Y0008.284 E15.895
G1  X0010.437 Y0008.284 E16.342
G1  X0010.063 Y0008.346 E16.360
G1  X0009.388 Y0008.532 E16.392
G1  X0009.004 Y0008.684 E16.410
G1  X0000.650 Y0008.684 E16.792
G1  X0000.650 Y0009.084 E16.811
G1  X0008.171 Y0009.084 E17.155
G1  X0008.115 Y0009.113 E17.157
G1  X0007.555 Y0009.484 E17.188
G1  X0000.650 Y0009.484 E17.504
G1  X0000.650 Y0009.884 E17.522
G1  X0007.066 Y0009.884 E17.815
G1  X0006.991 Y0009.946 E17.820
G1  X0006.660 Y0010.284 E17.842
G1  X0000.650 Y0010.284 E18.116
G1  X0000.650 Y0010.684 E18.135
G1  X0006.312 Y0010.684 E18.394
G1  X0006.065 Y0010.996 E18.412
G1  X0006.010 Y0011.084 E18.416
G1  X0000.650 Y0011.084 E18.662
G1  X0000.650 Y0011.484 E18.680
G1  X0005.756 Y0011.484 E18.913
G1  X0005.690 Y0011.588 E18.919
G1  X0005.544 Y0011.884 E18.934
G1  X0000.650 Y0011.884 E19.158
G1  X0000.650 Y0012.284 E19.176
G1  X0005.354 Y0012.284 E19.391
G1  X0005.206 Y0012.684 E19.411
G1  X0000.650 Y0012.684 E19.619
G1  X0000.650 Y0013.084 E19.637
G1  X0005.082 Y0013.084 E19.840
G1  X0004.981 Y0013.484 E19.859
G1  X0000.650 Y0013.484 E20.057
G1  X0000.650 Y0013.884 E20.075
G1  X0004.915 Y0013.884 E20.270
G1  X0004.863 Y0014.243 E20.287
G1  X0004.861 Y0014.284 E20.288
G1  X0000.650 Y0014.284 E20.481
G1  X0000.650 Y0014.684 E20.499
G1  X0004.840 Y0014.684 E20.691
G1  X0004.831 Y0014.854 E20.699
G1  X0004.831 Y0015.084 E20.709
G1  X0000.650 Y0015.084 E20.900
G1  X0000.650 Y0015.484 E20.919
G1  X0004.831 Y0015.484 E21.110
G1  X0004.831 Y0015.884 E21.128
G1  X0000.650 Y0015.884 E21.319
G1  X0000.650 Y0016.284 E21.337
G1  X0004.831 Y0016.284 E21.529
G1  X0004.832 Y0016.684 E21.547
G1  X0000.650 Y0016.684 E21.738
G1  X0000.650 Y0017.084 E21.756
G1  X0004.832 Y0017.084 E21.948
G1  X0004.832 Y0017.484 E21.966
G1  X0000.650 Y0017.484 E22.157
G1  X0000.650 Y0017.884 E22.175
G1  X0004.832 Y0017.884 E22.367
G1  X0004.832 Y0018.284 E22.385
G1  X0000.650 Y0018.284 E22.576
G1  X0000.650 Y0018.684 E22.594
G1  X0004.833 Y0018.684 E22.786
G1  X0004.833 Y0019.084 E22.804
G1  X0000.650 Y0019.084 E22.995
G1  X0000.650 Y0019.484 E23.013
G1  X0004.833 Y0019.484 E23.205
G1  X0004.833 Y0019.884 E23.223
G1  X0000.650 Y0019.884 E23.414
G1  X0000.650 Y0020.284 E23.433
G1  X0004.833 Y0020.284 E23.624
G1  X0004.834 Y0020.684 E23.642
G1  X0000.650 Y0020.684 E23.833
G1  X0000.650 Y0021.084 E23.852
G1  X0004.834 Y0021.084 E24.043
G1  X0004.834 Y0021.484 E24.061
G1  X0000.650 Y0021.484 E24.253
G1  X0000.650 Y0021.884 E24.271
G1  X0004.834 Y0021.884 E24.462
G1  X0004.834 Y0022.284 E24.480
G1  X0000.650 Y0022.284 E24.672
G1  X0000.650 Y0022.684 E24.690
G1  X0004.835 Y0022.684 E24.881
G1  X0004.835 Y0023.084 E24.900
G1  X0000.650 Y0023.084 E25.091
G1  X0000.650 Y0023.484 E25.109
G1  X0004.835 Y0023.484 E25.301
G1  X0004.835 Y0023.884 E25.319
G1  X0000.650 Y0023.884 E25.510
G1  X0000.650 Y0024.284 E25.528
G1  X0004.835 Y0024.284 E25.720
G1  X0004.836 Y0024.596 E25.734
G1  X0004.841 Y0024.684 E25.738
G1  X0000.650 Y0024.684 E25.930
G1  X0000.650 Y0025.084 E25.948
G1  X0004.868 Y0025.084 E26.141
G1  X0004.882 Y0025.292 E26.150
G1  X0004.915 Y0025.484 E26.159
G1  X0000.650 Y0025.484 E26.354
G1  X0000.650 Y0025.884 E26.373
G1  X0004.984 Y0025.884 E26.571
G1  X0005.001 Y0025.980 E26.575
G1  X0005.087 Y0026.284 E26.590
G1  X0000.650 Y0026.284 E26.793
G1  X0000.650 Y0026.684 E26.811
G1  X0005.204 Y0026.684 E27.019
G1  X0005.365 Y0027.084 E27.039
G1  X0000.650 Y0027.084 E27.254
G1  X0000.650 Y0027.484 E27.273
G1  X0005.548 Y0027.484 E27.497
G1  X0005.760 Y0027.884 E27.517
G1  X0000.650 Y0027.884 E27.751
G1  X0000.650 Y0028.284 E27.769
G1  X0006.023 Y0028.284 E28.015
G1  X0006.165 Y0028.495 E28.026
G1  X0006.322 Y0028.684 E28.038
G1  X0000.650 Y0028.684 E28.297
G1  X0000.650 Y0029.084 E28.315
G1  X0006.666 Y0029.084 E28.590
G1  X0007.078 Y0029.484 E28.617
G1  X0000.650 Y0029.484 E28.910
G1  X0000.650 Y0029.884 E28.929
G1  X0007.578 Y0029.884 E29.246
G1  X0007.660 Y0029.948 E29.250
G1  X0008.194 Y0030.284 E29.279
G1  X0000.650 Y0030.284 E29.624
G1  X0000.650 Y0030.684 E29.642
G1  X0009.030 Y0030.684 E30.025
G1  X0009.532 Y0030.868 E30.050
G1  X0010.208 Y0031.039 E30.082
G1  X0010.519 Y0031.084 E30.096
G1  X0000.650 Y0031.084 E30.547
G1  X0000.650 Y0031.484 E30.566
G1  X0021.623 Y0031.484 E31.525
G1  X0022.352 Y0031.630 E31.559
G1  X0023.240 Y0031.884 E31.601
G1  X0000.650 Y0031.884 E32.634
G1  X0000.650 Y0032.284 E32.652
G1  X0024.397 Y0032.284 E33.738
G1  X0024.813 Y0032.439 E33.758
G1  X0025.337 Y0032.684 E33.784
G1  X0000.650 Y0032.684 E34.913
G1  X0000.650 Y0033.084 E34.931
G1  X0026.158 Y0033.084 E36.098
G1  X0026.863 Y0033.484 E36.135
G1  X0000.650 Y0033.484 E37.333
G1  X0000.650 Y0033.884 E37.351
G1  X0027.494 Y0033.884 E38.579
G1  X0028.085 Y0034.284 E38.611
G1  X0000.650 Y0034.284 E39.866
G1  X0000.650 Y0034.684 E39.884
G1  X0028.601 Y0034.684 E41.162
G1  X0029.101 Y0035.084 E41.191
G1  X0000.650 Y0035.084 E42.492
G1  X0000.650 Y0035.484 E42.510
G1  X0029.541 Y0035.484 E43.831
G1  X0029.967 Y0035.884 E43.858
G1  X0000.650 Y0035.884 E45.198
G1  X0000.650 Y0036.284 E45.216
G1  X0030.356 Y0036.284 E46.575
G1  X0030.720 Y0036.684 E46.599
G1  X0000.650 Y0036.684 E47.974
G1  X0000.650 Y0037.084 E47.992
G1  X0009.729 Y0037.084 E48.407
G1  X0009.354 Y0037.190 E48.425
G1  X0008.707 Y0037.448 E48.457
G1  X0008.640 Y0037.484 E48.461
G1  X0000.650 Y0037.484 E48.826
G1  X0000.650 Y0037.884 E48.844
G1  X0007.925 Y0037.884 E49.177
G1  X0007.509 Y0038.161 E49.200
G1  X0007.363 Y0038.284 E49.208
G1  X0000.650 Y0038.284 E49.515
G1  X0000.650 Y0038.684 E49.534
G1  X0006.899 Y0038.684 E49.819
G1  X0006.510 Y0039.084 E49.845
G1  X0000.650 Y0039.084 E50.113
G1  X0000.650 Y0039.484 E50.131
G1  X0006.191 Y0039.484 E50.384
G1  X0006.055 Y0039.656 E50.394
G1  X0005.911 Y0039.884 E50.407
G1  X0000.650 Y0039.884 E50.647
G1  X0000.650 Y0040.284 E50.666
G1  X0005.665 Y0040.284 E50.895
G1  X0005.468 Y0040.684 E50.915
G1  X0000.650 Y0040.684 E51.135
G1  X0000.650 Y0041.084 E51.154
G1  X0005.297 Y0041.084 E51.366
G1  X0005.149 Y0041.484 E51.386
G1  X0000.650 Y0041.484 E51.591
G1  X0000.650 Y0041.884 E51.610
G1  X0005.043 Y0041.884 E51.811
G1  X0004.962 Y0042.203 E51.826
G1  X0004.950 Y0042.284 E51.829
G1  X0000.650 Y0042.284 E52.026
G1  X0000.650 Y0042.684 E52.044
G1  X0004.893 Y0042.684 E52.238
G1  X0004.863 Y0042.891 E52.248
G1  X0004.852 Y0043.084 E52.257
G1  X0000.650 Y0043.084 E52.449
G1  X0000.650 Y0043.484 E52.467
G1  X0004.832 Y0043.484 E52.658
G1  X0004.831 Y0043.500 E52.659
G1  X0004.831 Y0043.884 E52.676
G1  X0000.650 Y0043.884 E52.868
G1  X0000.650 Y0044.284 E52.886
G1  X0004.831 Y0044.284 E53.077
G1  X0004.831 Y0044.684 E53.095
G1  X0000.650 Y0044.684 E53.287
G1  X0000.650 Y0045.084 E53.305
G1  X0004.831 Y0045.084 E53.496
G1  X0004.832 Y0045.484 E53.514
G1  X0000.650 Y0045.484 E53.705
G1  X0000.650 Y0045.884 E53.724
G1  X0004.832 Y0045.884 E53.915
G1  X0004.832 Y0046.284 E53.933
G1  X0000.650 Y0046.284 E54.124
G1  X0000.650 Y0046.684 E54.143
G1  X0004.832 Y0046.684 E54.334
G1  X0004.832 Y0047.084 E54.352
G1  X0000.650 Y0047.084 E54.543
G1  X0000.650 Y0047.484 E54.562
G1  X0004.832 Y0047.484 E54.753
G1  X0004.833 Y0047.884 E54.771
G1  X0000.650 Y0047.884 E54.962
G1  X0000.650 Y0048.284 E54.981
G1  X0004.833 Y0048.284 E55.172
G1  X0004.833 Y0048.684 E55.190
G1  X0000.650 Y0048.684 E55.382
G1  X0000.650 Y0049.084 E55.400
G1  X0004.833 Y0049.084 E55.591
G1  X0004.833 Y0049.484 E55.609
G1  X0000.650 Y0049.484 E55.801
G1  X0000.650 Y0049.884 E55.819
G1  X0004.834 Y0049.884 E56.010
G1  X0004.834 Y0050.284 E56.028
G1  X0000.650 Y0050.284 E56.220
G1  X0000.650 Y0050.684 E56.238
G1  X0004.834 Y0050.684 E56.429
G1  X0004.834 Y0051.084 E56.448
G1  X0000.650 Y0051.084 E56.639
G1  X0000.650 Y0051.484 E56.657
G1  X0004.834 Y0051.484 E56.849
G1  X0004.834 Y0051.884 E56.867
G1  X0000.650 Y0051.884 E57.058
G1  X0000.650 Y0052.284 E57.076
G1  X0004.835 Y0052.284 E57.268
G1  X0004.835 Y0052.684 E57.286
G1  X0000.650 Y0052.684 E57.477
G1  X0000.650 Y0053.084 E57.496
G1  X0004.835 Y0053.084 E57.687
G1  X0004.835 Y0053.484 E57.705
G1  X0000.650 Y0053.484 E57.897
G1  X0000.650 Y0053.884 E57.915
G1  X0004.835 Y0053.884 E58.106
G1  X0004.835 Y0054.284 E58.125
G1  X0000.650 Y0054.284 E58.316
G1  X0000.650 Y0054.684 E58.334
G1  X0004.841 Y0054.684 E58.526
G1  X0004.868 Y0055.084 E58.544
G1  X0000.650 Y0055.084 E58.737
G1  X0000.650 Y0055.484 E58.755
G1  X0004.915 Y0055.484 E58.950
G1  X0004.985 Y0055.884 E58.969
G1  X0000.650 Y0055.884 E59.167
G1  X0000.650 Y0056.284 E59.185
G1  X0005.087 Y0056.284 E59.388
G1  X0005.191 Y0056.651 E59.406
G1  X0005.205 Y0056.684 E59.407
G1  X0000.650 Y0056.684 E59.615
G1  X0000.650 Y0057.084 E59.634
G1  X0005.365 Y0057.084 E59.849
G1  X0005.451 Y0057.298 E59.860
G1  X0005.548 Y0057.484 E59.869
G1  X0000.650 Y0057.484 E60.093
G1  X0000.650 Y0057.884 E60.112
G1  X0005.760 Y0057.884 E60.345
G1  X0005.776 Y0057.915 E60.347
G1  X0006.023 Y0058.284 E60.367
G1  X0000.650 Y0058.284 E60.613
G1  X0000.650 Y0058.684 E60.631
G1  X0006.322 Y0058.684 E60.890
G1  X0006.612 Y0059.031 E60.911
G1  X0006.666 Y0059.084 E60.915
G1  X0000.650 Y0059.084 E61.190
G1  X0000.650 Y0059.484 E61.208
G1  X0007.078 Y0059.484 E61.502
G1  X0007.112 Y0059.517 E61.504
G1  X0007.578 Y0059.884 E61.531
G1  X0000.650 Y0059.884 E61.848
G1  X0000.650 Y0060.284 E61.866
G1  X0008.194 Y0060.284 E62.211
G1  X0008.251 Y0060.320 E62.214
G1  X0008.877 Y0060.627 E62.246
G1  X0009.030 Y0060.684 E62.254
G1  X0000.650 Y0060.684 E62.637
G1  X0000.650 Y0061.084 E62.655
G1  X0010.520 Y0061.084 E63.106
G1  X0010.897 Y0061.138 E63.124
G1  X0011.500 Y0061.169 E63.151
G1  X0035.645 Y0061.175 E64.255
G1  X0036.692 Y0061.219 E64.303
G1  X0037.876 Y0061.368 E64.358
G1  X0038.425 Y0061.484 E64.383
G1  X0000.650 Y0061.484 E66.110
G1  X0000.650 Y0061.884 E66.129
G1  X0039.941 Y0061.884 E67.925
G1  X0040.187 Y0061.957 E67.937
G1  X0041.016 Y0062.284 E67.978
G1  X0000.650 Y0062.284 E69.823
G1  X0000.650 Y0062.684 E69.841
G1  X0041.884 Y0062.684 E71.727
G1  X0042.367 Y0062.922 E71.751
G1  X0042.636 Y0063.084 E71.766
G1  X0000.650 Y0063.084 E73.685
G1  X0000.650 Y0063.484 E73.703
G1  X0043.301 Y0063.484 E75.653
G1  X0043.390 Y0063.537 E75.658
G1  X0043.871 Y0063.884 E75.685
G1  X0000.650 Y0063.884 E77.661
G1  X0000.650 Y0064.284 E77.680
G1  X0044.415 Y0064.284 E79.681
G1  X0044.882 Y0064.684 E79.709
G1  X0000.650 Y0064.684 E81.731
G1  X0000.650 Y0065.084 E81.749
G1  X0045.336 Y0065.084 E83.792
G1  X0045.732 Y0065.484 E83.818
G1  X0000.650 Y0065.484 E85.879
G1  X0000.650 Y0065.884 E85.897
G1  X0046.123 Y0065.884 E87.977
G1  X0046.458 Y0066.284 E88.000
G1  X0000.650 Y0066.284 E90.095
G1  X0000.650 Y0066.684 E90.113
G1  X0046.792 Y0066.684 E92.223
G1  X0046.869 Y0066.775 E92.228
G1  X0047.085 Y0067.084 E92.245
G1  X0000.650 Y0067.084 E94.368
G1  X0000.650 Y0067.484 E94.387
G1  X0013.892 Y0067.484 E94.992
G1  X0013.481 Y0067.545 E95.011
G1  X0012.508 Y0067.786 E95.057
G1  X0012.233 Y0067.884 E95.070
G1  X0000.650 Y0067.884 E95.600
G1  X0000.650 Y0068.284 E95.618
G1  X0011.217 Y0068.284 E96.101
G1  X0010.651 Y0068.548 E96.130
G1  X0010.423 Y0068.684 E96.142
G1  X0000.650 Y0068.684 E96.589
G1  X0000.650 Y0069.084 E96.607
G1  X0009.756 Y0069.084 E97.023
G1  X0009.209 Y0069.484 E97.054
G1  X0000.650 Y0069.484 E97.446
G1  X0000.650 Y0069.884 E97.464
G1  X0008.716 Y0069.884 E97.833
G1  X0008.265 Y0070.284 E97.860
G1  X0000.650 Y0070.284 E98.208
G1  X0000.650 Y0070.684 E98.227
G1  X0007.884 Y0070.684 E98.557
G1  X0007.533 Y0071.060 E98.581
G1  X0007.515 Y0071.084 E98.582
G1  X0000.650 Y0071.084 E98.896
G1  X0000.650 Y0071.484 E98.914
G1  X0007.204 Y0071.484 E99.214
G1  X0006.913 Y0071.859 E99.236
G1  X0006.898 Y0071.884 E99.237
G1  X0000.650 Y0071.884 E99.523
G1  X0000.650 Y0072.284 E99.541
G1  X0006.641 Y0072.284 E99.815
G1  X0006.384 Y0072.684 E99.837
G1  X0000.650 Y0072.684 E100.099
G1  X0000.650 Y0073.084 E100.117
G1  X0006.170 Y0073.084 E100.370
G1  X0005.959 Y0073.484 E100.390
G1  X0000.650 Y0073.484 E100.633
G1  X0000.650 Y0073.884 E100.651
G1  X0005.774 Y0073.884 E100.886
G1  X0005.602 Y0074.284 E100.905
G1  X0000.650 Y0074.284 E101.132
G1  X0000.650 Y0074.684 E101.150
G1  X0005.443 Y0074.684 E101.369
G1  X0005.308 Y0075.084 E101.389
G1  X0000.650 Y0075.084 E101.602
G1  X0000.650 Y0075.484 E101.620
G1  X0005.173 Y0075.484 E101.827
G1  X0005.163 Y0075.513 E101.828
G1  X0005.075 Y0075.884 E101.845
G1  X0000.650 Y0075.884 E102.048
G1  X0000.650 Y0076.284 E102.066
G1  X0004.980 Y0076.284 E102.264
G1  X0004.927 Y0076.506 E102.274
G1  X0004.910 Y0076.684 E102.283
G1  X0000.650 Y0076.684 E102.477
G1  X0000.650 Y0077.084 E102.496
G1  X0004.873 Y0077.084 E102.689
G1  X0004.835 Y0077.484 E102.707
G1  X0000.650 Y0077.484 E102.899
G1  X0000.650 Y0077.884 E102.917
G1  X0004.834 Y0077.884 E103.108
G1  X0004.834 Y0078.284 E103.126
G1  X0000.650 Y0078.284 E103.318
G1  X0000.650 Y0078.684 E103.336
G1  X0004.834 Y0078.684 E103.527
G1  X0004.834 Y0079.084 E103.546
G1  X0000.650 Y0079.084 E103.737
G1  X0000.650 Y0079.484 E103.755
G1  X0004.835 Y0079.484 E103.947
G1  X0004.835 Y0079.884 E103.965
G1  X0000.650 Y0079.884 E104.156
G1  X0000.650 Y0080.284 E104.174
G1  X0004.835 Y0080.284 E104.366
G1  X0004.835 Y0080.684 E104.384
G1  X0000.650 Y0080.684 E104.575
G1  X0000.650 Y0081.084 E104.594
G1  X0004.835 Y0081.084 E104.785
G1  X0004.835 Y0081.484 E104.803
G1  X0000.650 Y0081.484 E104.995
G1  X0000.650 Y0081.884 E105.013
G1  X0004.835 Y0081.884 E105.204
G1  X0004.835 Y0082.284 E105.223
G1  X0000.650 Y0082.284 E105.414
G1  X0000.650 Y0082.684 E105.432
G1  X0004.841 Y0082.684 E105.624
G1  X0004.868 Y0083.084 E105.642
G1  X0000.650 Y0083.084 E105.835
G1  X0000.650 Y0083.484 E105.853
G1  X0004.915 Y0083.484 E106.048
G1  X0004.985 Y0083.884 E106.067
G1  X0000.650 Y0083.884 E106.265
G1  X0000.650 Y0084.284 E106.283
G1  X0005.087 Y0084.284 E106.486
G1  X0005.191 Y0084.651 E106.504
G1  X0005.205 Y0084.684 E106.505
G1  X0000.650 Y0084.684 E106.714
G1  X0000.650 Y0085.084 E106.732
G1  X0005.365 Y0085.084 E106.947
G1  X0005.451 Y0085.299 E106.958
G1  X0005.549 Y0085.484 E106.968
G1  X0000.650 Y0085.484 E107.191
G1  X0000.650 Y0085.884 E107.210
G1  X0005.760 Y0085.884 E107.443
G1  X0005.776 Y0085.915 E107.445
G1  X0006.023 Y0086.284 E107.465
G1  X0000.650 Y0086.284 E107.711
