; Generated by RP3 on 2021-07-8
; Job 0 - 3D Cloner

G21 ; set units to millimeters
M107 ;fan off
G28 ;home all axes
G90 ;absolute coordinates
G28 E0 ;home all axes
G1 E20.0 F100.0 ;extrude 20mm material with 100 mm/min speed
G28 E0 ;home all axes
G90 ;use absolute coordinates
M82 ; use absolute distances for extrusion
G92 E0 ;home of axes
M104 S90
G1 E-2.00000 F24000 ;retracts 2mm of material
M106 S102

(Layer 1)
G1  Z0.250 F2400

(Raster 1)
G92 E0
G1  X0052.946 Y0032.948 F2400
G1  E2.00000 F2400
G1  X0052.946 Y0028.052 E2.224 F2400
G1  X0052.691 Y0027.354 E2.258
G1  X0052.546 Y0027.074 E2.272
G1  X0052.546 Y0033.925 E2.585
G1  X0052.284 Y0034.426 E2.611
G1  X0052.146 Y0034.635 E2.623
G1  X0052.146 Y0026.366 E3.001
G1  X0051.746 Y0025.761 E3.034
G1  X0051.746 Y0035.238 E3.467
G1  X0051.670 Y0035.354 E3.474
G1  X0051.346 Y0035.722 E3.496
G1  X0051.346 Y0025.277 E3.974
G1  X0051.188 Y0025.097 E3.984
G1  X0050.946 Y0024.885 E3.999
G1  X0050.946 Y0036.117 E4.513
G1  X0050.546 Y0036.465 E4.537
G1  X0050.546 Y0024.535 E5.082
G1  X0050.160 Y0024.197 E5.106
G1  X0050.146 Y0024.188 E5.107
G1  X0050.146 Y0036.813 E5.684
G1  X0050.141 Y0036.817 E5.684
G1  X0049.746 Y0037.070 E5.706
G1  X0049.746 Y0023.931 E6.306
G1  X0049.346 Y0023.674 E6.328
G1  X0049.346 Y0037.325 E6.952
G1  X0049.200 Y0037.418 E6.960
G1  X0048.946 Y0037.521 E6.973
G1  X0048.946 Y0023.479 E7.615
G1  X0048.546 Y0023.316 E7.634
G1  X0048.546 Y0037.683 E8.291
G1  X0048.146 Y0037.844 E8.311
G1  X0048.146 Y0023.153 E8.983
G1  X0047.848 Y0023.032 E8.997
G1  X0047.746 Y0023.016 E9.002
G1  X0047.746 Y0037.994 E9.687
G1  X0047.346 Y0038.082 E9.706
G1  X0047.346 Y0022.955 E10.397
G1  X0046.946 Y0022.894 E10.416
G1  X0046.946 Y0038.170 E11.114
G1  X0046.546 Y0038.257 E11.133
G1  X0046.546 Y0022.833 E11.838
G1  X0046.146 Y0022.772 E11.856
G1  X0046.146 Y0038.308 E12.567
G1  X0045.746 Y0038.327 E12.585
G1  X0045.746 Y0022.711 E13.299
G1  X0045.398 Y0022.658 E13.315
G1  X0045.346 Y0022.664 E13.318
G1  X0045.346 Y0038.341 E14.034
G1  X0044.946 Y0038.297 E14.053
G1  X0044.946 Y0022.705 E14.766
G1  X0044.546 Y0022.747 E14.784
G1  X0044.546 Y0038.253 E15.493
G1  X0044.146 Y0038.208 E15.511
G1  X0044.146 Y0022.789 E16.216
G1  X0044.033 Y0022.801 E16.221
G1  X0043.746 Y0022.875 E16.235
G1  X0043.746 Y0038.126 E16.932
G1  X0043.346 Y0038.021 E16.951
G1  X0043.346 Y0022.979 E17.639
G1  X0042.946 Y0023.082 E17.658
G1  X0042.946 Y0037.917 E18.336
G1  X0042.932 Y0037.913 E18.337
G1  X0042.546 Y0037.746 E18.356
G1  X0042.546 Y0023.255 E19.018
G1  X0042.146 Y0023.428 E19.038
G1  X0042.146 Y0037.572 E19.685
G1  X0041.793 Y0037.420 E19.703
G1  X0041.746 Y0037.391 E19.705
G1  X0041.746 Y0023.614 E20.335
G1  X0041.346 Y0023.879 E20.357
G1  X0041.346 Y0037.147 E20.964
G1  X0041.147 Y0037.025 E20.974
G1  X0040.946 Y0036.879 E20.986
G1  X0040.946 Y0024.145 E21.568
G1  X0040.566 Y0024.397 E21.589
G1  X0040.546 Y0024.418 E21.590
G1  X0040.546 Y0036.587 E22.146
G1  X0040.146 Y0036.164 E22.173
G1  X0040.146 Y0024.841 E22.691
G1  X0039.746 Y0025.264 E22.717
G1  X0039.746 Y0035.740 E23.196
G1  X0039.346 Y0035.316 E23.223
G1  X0039.346 Y0025.686 E23.663
G1  X0039.072 Y0025.975 E23.681
G1  X0038.946 Y0026.090 E23.689
G1  X0038.946 Y0034.912 E24.093
G1  X0038.546 Y0034.555 E24.117
G1  X0038.546 Y0026.453 E24.487
G1  X0038.421 Y0026.567 E24.495
G1  X0038.375 Y0026.595 E24.498
G1  X0038.146 Y0026.686 E24.509
G1  X0038.146 Y0034.304 E24.857
G1  X0037.746 Y0034.141 E24.877
G1  X0037.746 Y0026.845 E25.211
G1  X0037.346 Y0027.003 E25.230
G1  X0037.346 Y0033.979 E25.549
G1  X0037.256 Y0033.942 E25.554
G1  X0037.205 Y0033.931 E25.556
G1  X0036.946 Y0033.923 E25.568
G1  X0036.946 Y0027.081 E25.881
G1  X0036.546 Y0027.096 E25.899
G1  X0036.546 Y0033.911 E26.210
G1  X0036.276 Y0033.902 E26.223
G1  X0036.146 Y0033.933 E26.229
G1  X0036.146 Y0027.062 E26.543
G1  X0035.746 Y0026.973 E26.562
G1  X0035.746 Y0034.027 E26.884
G1  X0035.538 Y0034.076 E26.894
G1  X0035.346 Y0034.148 E26.903
G1  X0035.346 Y0026.850 E27.237
G1  X0034.946 Y0026.700 E27.257
G1  X0034.946 Y0034.298 E27.604
G1  X0034.546 Y0034.448 E27.624
G1  X0034.546 Y0026.550 E27.985
G1  X0034.146 Y0026.400 E28.004
G1  X0034.146 Y0034.598 E28.379
G1  X0033.746 Y0034.748 E28.399
G1  X0033.746 Y0026.250 E28.787
G1  X0033.346 Y0026.100 E28.807
G1  X0033.346 Y0034.898 E29.209
G1  X0032.946 Y0035.048 E29.228
G1  X0032.946 Y0031.453 E29.393
G1  X0032.857 Y0031.726 E29.406
G1  X0032.639 Y0032.141 E29.427
G1  X0032.546 Y0032.264 E29.434
G1  X0032.546 Y0035.198 E29.569
G1  X0032.146 Y0035.348 E29.588
G1  X0032.146 Y0032.719 E29.708
G1  X0031.746 Y0032.990 E29.730
G1  X0031.746 Y0035.498 E29.845
G1  X0031.346 Y0035.648 E29.865
G1  X0031.346 Y0033.262 E29.974
G1  X0031.094 Y0033.433 E29.988
G1  X0030.946 Y0033.489 E29.995
G1  X0030.946 Y0035.798 E30.100
G1  X0030.546 Y0035.948 E30.120
G1  X0030.546 Y0033.639 E30.226
G1  X0030.146 Y0033.789 E30.245
G1  X0030.146 Y0036.098 E30.351
G1  X0029.746 Y0036.248 E30.370
G1  X0029.746 Y0033.939 E30.476
G1  X0029.346 Y0034.089 E30.495
G1  X0029.346 Y0036.398 E30.601
G1  X0028.946 Y0036.548 E30.620
G1  X0028.946 Y0034.239 E30.726
G1  X0028.546 Y0034.389 E30.745
G1  X0028.546 Y0036.698 E30.851
G1  X0028.146 Y0036.848 E30.871
G1  X0028.146 Y0034.539 E30.976
G1  X0027.746 Y0034.689 E30.996
G1  X0027.746 Y0036.998 E31.101
G1  X0027.346 Y0037.148 E31.121
G1  X0027.346 Y0034.840 E31.226
G1  X0026.946 Y0034.990 E31.246
G1  X0026.946 Y0037.298 E31.351
G1  X0026.546 Y0037.448 E31.371
G1  X0026.546 Y0035.140 E31.476
G1  X0026.146 Y0035.290 E31.496
G1  X0026.146 Y0037.598 E31.601
G1  X0025.746 Y0037.748 E31.621
G1  X0025.746 Y0035.440 E31.727
G1  X0025.346 Y0035.590 E31.746
G1  X0025.346 Y0037.898 E31.852
G1  X0024.946 Y0038.048 E31.871
G1  X0024.946 Y0035.740 E31.977
G1  X0024.546 Y0035.890 E31.996
G1  X0024.546 Y0038.198 E32.102
G1  X0024.146 Y0038.348 E32.121
G1  X0024.146 Y0036.040 E32.227
G1  X0023.746 Y0036.190 E32.246
G1  X0023.746 Y0038.498 E32.352
G1  X0023.346 Y0038.648 E32.371
G1  X0023.346 Y0036.340 E32.477
G1  X0022.946 Y0036.490 E32.496
G1  X0022.946 Y0038.798 E32.602
G1  X0022.546 Y0038.948 E32.622
G1  X0022.546 Y0036.640 E32.727
G1  X0022.146 Y0036.791 E32.747
G1  X0022.146 Y0039.098 E32.852
G1  X0021.746 Y0039.248 E32.872
G1  X0021.746 Y0036.941 E32.977
G1  X0021.346 Y0037.091 E32.997
G1  X0021.346 Y0039.398 E33.102
G1  X0020.946 Y0039.548 E33.122
G1  X0020.946 Y0037.241 E33.227
G1  X0020.546 Y0037.391 E33.247
G1  X0020.546 Y0039.699 E33.352
G1  X0020.146 Y0039.849 E33.372
G1  X0020.146 Y0037.541 E33.477
G1  X0019.746 Y0037.691 E33.497
G1  X0019.746 Y0039.999 E33.602
G1  X0019.346 Y0040.149 E33.622
G1  X0019.346 Y0037.841 E33.727
G1  X0018.946 Y0037.991 E33.747
G1  X0018.946 Y0040.299 E33.852
G1  X0018.546 Y0040.449 E33.872
G1  X0018.546 Y0038.141 E33.977
G1  X0018.146 Y0038.291 E33.997
G1  X0018.146 Y0040.599 E34.102
G1  X0017.746 Y0040.749 E34.122
G1  X0017.746 Y0038.441 E34.227
G1  X0017.346 Y0038.591 E34.247
G1  X0017.346 Y0040.899 E34.352
G1  X0016.946 Y0041.049 E34.372
G1  X0016.946 Y0038.741 E34.477
G1  X0016.546 Y0038.892 E34.497
G1  X0016.546 Y0041.199 E34.603
G1  X0016.146 Y0041.349 E34.622
G1  X0016.146 Y0039.042 E34.728
G1  X0015.746 Y0039.192 E34.747
G1  X0015.746 Y0041.499 E34.853
G1  X0015.346 Y0041.649 E34.872
G1  X0015.346 Y0039.342 E34.978
G1  X0014.946 Y0039.492 E34.997
G1  X0014.946 Y0041.799 E35.103
G1  X0014.546 Y0041.949 E35.122
G1  X0014.546 Y0039.642 E35.228
G1  X0014.146 Y0039.792 E35.247
G1  X0014.146 Y0042.099 E35.353
G1  X0013.746 Y0042.249 E35.372
G1  X0013.746 Y0039.942 E35.478
G1  X0013.346 Y0040.092 E35.497
G1  X0013.346 Y0042.399 E35.603
G1  X0012.946 Y0042.549 E35.622
G1  X0012.946 Y0040.242 E35.728
G1  X0012.546 Y0040.392 E35.747
G1  X0012.546 Y0042.699 E35.853
G1  X0012.146 Y0042.849 E35.872
G1  X0012.146 Y0040.542 E35.978
G1  X0011.746 Y0040.692 E35.997
G1  X0011.746 Y0042.999 E36.102
G1  X0011.346 Y0043.149 E36.122
G1  X0011.346 Y0040.843 E36.227
G1  X0010.946 Y0040.993 E36.247
G1  X0010.946 Y0043.299 E36.352
G1  X0010.546 Y0043.449 E36.372
G1  X0010.546 Y0041.143 E36.477
G1  X0010.146 Y0041.293 E36.497
G1  X0010.146 Y0043.599 E36.602
G1  X0009.746 Y0043.749 E36.622
G1  X0009.746 Y0041.443 E36.727
G1  X0009.606 Y0041.495 E36.734
G1  X0009.346 Y0041.564 E36.747
G1  X0009.346 Y0043.899 E36.853
G1  X0008.946 Y0044.049 E36.873
G1  X0008.946 Y0041.659 E36.982
G1  X0008.546 Y0041.690 E37.000
G1  X0008.546 Y0044.199 E37.115
G1  X0008.146 Y0044.349 E37.135
G1  X0008.146 Y0041.656 E37.258
G1  X0007.894 Y0041.633 E37.269
G1  X0007.746 Y0041.576 E37.277
G1  X0007.746 Y0044.499 E37.410
G1  X0007.376 Y0044.638 E37.428
G1  X0007.346 Y0044.654 E37.430
G1  X0007.346 Y0041.422 E37.578
G1  X0006.946 Y0041.267 E37.597
G1  X0006.946 Y0044.872 E37.762
G1  X0006.671 Y0045.021 E37.776
G1  X0006.546 Y0045.130 E37.784
G1  X0006.546 Y0041.002 E37.973
G1  X0006.460 Y0040.940 E37.977
G1  X0006.146 Y0040.634 E37.998
G1  X0006.146 Y0045.500 E38.220
G1  X0005.901 Y0045.799 E38.238
G1  X0005.746 Y0046.079 E38.252
G1  X0005.746 Y0040.006 E38.530
G1  E36.530 F2400

(Raster 2)
G92 E0
G1  X0032.946 Y0029.647 F2400
G1  E2.00000 F2400
G1  X0032.946 Y0025.950 E2.169 F2400
G1  X0032.546 Y0025.800 E2.189
G1  X0032.546 Y0028.779 E2.325
G1  X0032.218 Y0028.317 E2.351
G1  X0032.146 Y0028.255 E2.355
G1  X0032.146 Y0025.650 E2.474
G1  X0031.746 Y0025.500 E2.494
G1  X0031.746 Y0027.913 E2.604
G1  X0031.745 Y0027.913 E2.604
G1  X0031.346 Y0027.701 E2.625
G1  X0031.346 Y0025.350 E2.732
G1  X0030.946 Y0025.200 E2.752
G1  X0030.946 Y0027.507 E2.857
G1  X0030.546 Y0027.357 E2.877
G1  X0030.546 Y0025.050 E2.982
G1  X0030.146 Y0024.900 E3.002
G1  X0030.146 Y0027.207 E3.107
G1  X0029.746 Y0027.057 E3.127
G1  X0029.746 Y0024.750 E3.232
G1  X0029.346 Y0024.600 E3.252
G1  X0029.346 Y0026.907 E3.357
G1  X0028.946 Y0026.757 E3.377
G1  X0028.946 Y0024.450 E3.482
G1  X0028.546 Y0024.300 E3.502
G1  X0028.546 Y0026.607 E3.607
G1  X0028.146 Y0026.457 E3.627
G1  X0028.146 Y0024.150 E3.732
G1  X0027.746 Y0024.000 E3.752
G1  X0027.746 Y0026.307 E3.857
G1  X0027.346 Y0026.157 E3.877
G1  X0027.346 Y0023.850 E3.982
G1  X0026.946 Y0023.700 E4.002
G1  X0026.946 Y0026.007 E4.107
G1  X0026.546 Y0025.857 E4.127
G1  X0026.546 Y0023.550 E4.232
G1  X0026.146 Y0023.400 E4.252
G1  X0026.146 Y0025.707 E4.357
G1  X0025.746 Y0025.557 E4.377
G1  X0025.746 Y0023.250 E4.482
G1  X0025.346 Y0023.100 E4.502
G1  X0025.346 Y0025.407 E4.607
G1  X0024.946 Y0025.257 E4.627
G1  X0024.946 Y0022.951 E4.732
G1  X0024.546 Y0022.801 E4.752
G1  X0024.546 Y0025.107 E4.857
G1  X0024.146 Y0024.957 E4.877
G1  X0024.146 Y0022.651 E4.982
G1  X0023.746 Y0022.501 E5.002
G1  X0023.746 Y0024.807 E5.107
G1  X0023.346 Y0024.657 E5.127
G1  X0023.346 Y0022.351 E5.232
G1  X0022.946 Y0022.201 E5.252
G1  X0022.946 Y0024.507 E5.357
G1  X0022.546 Y0024.357 E5.377
G1  X0022.546 Y0022.051 E5.482
G1  X0022.146 Y0021.901 E5.502
G1  X0022.146 Y0024.207 E5.607
G1  X0021.746 Y0024.057 E5.627
G1  X0021.746 Y0021.751 E5.732
G1  X0021.346 Y0021.601 E5.752
G1  X0021.346 Y0023.908 E5.857
G1  X0020.946 Y0023.758 E5.877
G1  X0020.946 Y0021.451 E5.982
G1  X0020.546 Y0021.301 E6.002
G1  X0020.546 Y0023.608 E6.107
G1  X0020.146 Y0023.458 E6.127
G1  X0020.146 Y0021.151 E6.232
G1  X0019.746 Y0021.001 E6.252
G1  X0019.746 Y0023.308 E6.357
G1  X0019.346 Y0023.158 E6.377
G1  X0019.346 Y0020.851 E6.482
G1  X0018.946 Y0020.701 E6.502
G1  X0018.946 Y0023.008 E6.607
G1  X0018.546 Y0022.858 E6.627
G1  X0018.546 Y0020.551 E6.732
G1  X0018.146 Y0020.401 E6.752
G1  X0018.146 Y0022.708 E6.857
G1  X0017.746 Y0022.558 E6.877
G1  X0017.746 Y0020.251 E6.982
G1  X0017.346 Y0020.101 E7.001
G1  X0017.346 Y0022.408 E7.107
G1  X0016.946 Y0022.258 E7.126
G1  X0016.946 Y0019.951 E7.232
G1  X0016.546 Y0019.801 E7.251
G1  X0016.546 Y0022.108 E7.357
G1  X0016.146 Y0021.958 E7.376
G1  X0016.146 Y0019.651 E7.482
G1  X0015.746 Y0019.501 E7.501
G1  X0015.746 Y0021.808 E7.607
G1  X0015.346 Y0021.658 E7.626
G1  X0015.346 Y0019.351 E7.732
G1  X0014.946 Y0019.202 E7.751
G1  X0014.946 Y0021.508 E7.857
G1  X0014.546 Y0021.358 E7.876
G1  X0014.546 Y0019.052 E7.982
G1  X0014.146 Y0018.902 E8.001
G1  X0014.146 Y0021.208 E8.107
G1  X0013.746 Y0021.058 E8.126
G1  X0013.746 Y0018.752 E8.232
G1  X0013.346 Y0018.602 E8.251
G1  X0013.346 Y0020.908 E8.357
G1  X0012.946 Y0020.758 E8.376
G1  X0012.946 Y0018.452 E8.482
G1  X0012.546 Y0018.302 E8.501
G1  X0012.546 Y0020.608 E8.607
G1  X0012.146 Y0020.458 E8.626
G1  X0012.146 Y0018.152 E8.732
G1  X0011.746 Y0018.002 E8.751
G1  X0011.746 Y0020.308 E8.857
G1  X0011.346 Y0020.158 E8.876
G1  X0011.346 Y0017.852 E8.982
G1  X0010.946 Y0017.702 E9.001
G1  X0010.946 Y0020.008 E9.107
G1  X0010.546 Y0019.858 E9.126
G1  X0010.546 Y0017.552 E9.232
G1  X0010.146 Y0017.402 E9.251
G1  X0010.146 Y0019.708 E9.357
G1  X0009.746 Y0019.558 E9.376
G1  X0009.746 Y0017.252 E9.482
G1  X0009.346 Y0017.102 E9.501
G1  X0009.346 Y0019.437 E9.608
G1  X0008.972 Y0019.340 E9.626
G1  X0008.946 Y0019.339 E9.627
G1  X0008.946 Y0016.952 E9.736
G1  X0008.546 Y0016.802 E9.755
G1  X0008.546 Y0019.321 E9.871
G1  X0008.321 Y0019.311 E9.881
G1  X0008.146 Y0019.338 E9.889
G1  X0008.146 Y0016.652 E10.012
G1  X0007.746 Y0016.502 E10.031
G1  X0007.746 Y0019.401 E10.164
G1  X0007.705 Y0019.407 E10.166
G1  X0007.346 Y0019.540 E10.183
G1  X0007.346 Y0016.345 E10.329
G1  X0006.946 Y0016.133 E10.350
G1  X0006.946 Y0019.719 E10.514
G1  X0006.827 Y0019.786 E10.520
G1  X0006.546 Y0020.004 E10.537
G1  X0006.546 Y0015.867 E10.726
G1  X0006.229 Y0015.597 E10.745
G1  X0006.146 Y0015.479 E10.751
G1  X0006.146 Y0020.366 E10.975
G1  X0006.103 Y0020.411 E10.978
G1  X0005.827 Y0020.794 E10.999
G1  X0005.746 Y0020.950 E11.007
G1  X0005.746 Y0014.910 E11.283
G1  X0005.693 Y0014.835 E11.288
G1  X0005.420 Y0014.075 E11.324
G1  X0005.368 Y0013.753 E11.339
G1  X0005.350 Y0004.588 E11.758
G1  X0005.346 Y0004.588 E11.759
G1  X0005.346 Y0056.413 E14.128
G1  X0004.946 Y0056.414 E14.146
G1  X0004.946 Y0004.590 E16.516
G1  X0004.546 Y0004.591 E16.534
G1  X0004.546 Y0056.414 E18.903
G1  X0004.146 Y0056.415 E18.922
G1  X0004.146 Y0004.592 E21.291
G1  X0003.746 Y0004.594 E21.309
G1  X0003.746 Y0056.416 E23.679
G1  X0003.346 Y0056.417 E23.697
G1  X0003.346 Y0004.595 E26.066
G1  X0002.946 Y0004.597 E26.084
G1  X0002.946 Y0056.418 E28.454
G1  X0002.546 Y0056.419 E28.472
G1  X0002.546 Y0004.598 E30.841
G1  X0002.146 Y0004.599 E30.860
G1  X0002.146 Y0056.420 E33.229
G1  X0001.746 Y0056.420 E33.247
G1  X0001.746 Y0004.601 E35.616
G1  X0001.346 Y0004.602 E35.635
G1  X0001.346 Y0056.421 E38.004
G1  X0000.946 Y0056.422 E38.022
G1  X0000.946 Y0004.604 E40.391
G1  E38.391 F2400

(Layer 2)
G1  Z0.500 F2400

(Raster 1)
G92 E0
G1  X0005.351 Y0003.854 F2400
G1  E2.00000 F2400
G1  X0000.650 Y0003.854 E2.215 F2400
G1  X0000.650 Y0004.254 E2.233
G1  X0005.351 Y0004.254 E2.448
G1  X0005.352 Y0004.654 E2.466
G1  X0000.650 Y0004.654 E2.681
G1  X0000.650 Y0005.054 E2.700
G1  X0005.353 Y0005.054 E2.915
G1  X0005.354 Y0005.454 E2.933
G1  X0000.650 Y0005.454 E3.148
G1  X0000.650 Y0005.854 E3.166
G1  X0005.355 Y0005.854 E3.381
G1  X0005.355 Y0006.254 E3.400
G1  X0000.650 Y0006.254 E3.615
G1  X0000.650 Y0006.654 E3.633
G1  X0005.356 Y0006.654 E3.848
G1  X0005.357 Y0007.054 E3.867
G1  X0000.650 Y0007.054 E4.082
G1  X0000.650 Y0007.454 E4.100
G1  X0005.358 Y0007.454 E4.315
G1  X0005.359 Y0007.854 E4.334
G1  X0000.650 Y0007.854 E4.549
G1  X0000.650 Y0008.254 E4.567
G1  X0005.359 Y0008.254 E4.782
G1  X0005.360 Y0008.654 E4.801
G1  X0000.650 Y0008.654 E5.016
G1  X0000.650 Y0009.054 E5.034
G1  X0005.361 Y0009.054 E5.250
G1  X0005.362 Y0009.454 E5.268
G1  X0000.650 Y0009.454 E5.484
G1  X0000.650 Y0009.854 E5.502
G1  X0005.363 Y0009.854 E5.717
G1  X0005.363 Y0010.254 E5.736
G1  X0000.650 Y0010.254 E5.951
G1  X0000.650 Y0010.654 E5.969
G1  X0005.364 Y0010.654 E6.185
G1  X0005.365 Y0011.054 E6.203
G1  X0000.650 Y0011.054 E6.419
G1  X0000.650 Y0011.454 E6.437
G1  X0005.366 Y0011.454 E6.653
G1  X0005.367 Y0011.854 E6.671
G1  X0000.650 Y0011.854 E6.887
G1  X0000.650 Y0012.254 E6.905
