; generated by Slic3r 1.3.1-dev (Build 8c69278) on 2021-12-10 at 13:24:52

; external perimeters extrusion width = 0.45mm (3.99mm^3/s)
; perimeters extrusion width = 0.45mm (3.99mm^3/s)
; infill extrusion width = 0.45mm (3.99mm^3/s)
; solid infill extrusion width = 0.45mm (4.99mm^3/s)
; top infill extrusion width = 0.45mm (3.00mm^3/s)
; support material extrusion width = 0.45mm (4.99mm^3/s)

M107
G92 E0
M104 S205 ; set temperature
G28 ; home all axes
G1 Z5 F5000 ; lift nozzle

; Filament gcode

M109 S205 ; set temperature and wait for it to be reached
G21 ; set units to millimeters
G90 ; use absolute coordinates
M82 ; use absolute distances for extrusion
G92 E0
G1 Z0.250 F7800.000
G1 E-2.00000 F2400.00000
G92 E0
G1 X128.302 Y124.138 F7800.000
G1 E2.00000 F2400.00000
G1 F2400.000
G1 X123.702 Y124.154 E2.19669
G1 X123.702 Y124.539 E2.21315
G1 X128.302 Y124.539 E2.40985
G1 X128.302 Y124.940 E2.42699
G1 X123.702 Y124.940 E2.62368
G1 X123.702 Y125.341 E2.64083
G1 X128.303 Y125.341 E2.83754
G1 X128.304 Y125.742 E2.85469
G1 X123.702 Y125.742 E3.05143
G1 X123.702 Y126.143 E3.06858
G1 X128.304 Y126.143 E3.26535
G1 X128.305 Y126.545 E3.28250
G1 X123.702 Y126.545 E3.47930
G1 X123.702 Y126.946 E3.49645
G1 X128.306 Y126.946 E3.69329
G1 X128.306 Y127.347 E3.71043
G1 X123.702 Y127.347 E3.90730
G1 X123.702 Y127.748 E3.92445
G1 X128.307 Y127.748 E4.12135
G1 X128.308 Y128.149 E4.13849
G1 X123.702 Y128.149 E4.33542
G1 X123.702 Y128.550 E4.35257
G1 X128.309 Y128.550 E4.54953
G1 X128.309 Y128.951 E4.56668
G1 X123.702 Y128.951 E4.76367
G1 X123.702 Y129.352 E4.78082
G1 X128.310 Y129.352 E4.97784
G1 X128.311 Y129.753 E4.99499
G1 X123.702 Y129.753 E5.19205
G1 X123.702 Y130.154 E5.20919
G1 X128.312 Y130.154 E5.40628
G1 X128.312 Y130.555 E5.42343
G1 X123.702 Y130.555 E5.62055
G1 X123.702 Y130.956 E5.63769
G1 X128.313 Y130.956 E5.83484
G1 X128.314 Y131.357 E5.85199
G1 X123.702 Y131.357 E6.04917
G1 X123.702 Y131.758 E6.06632
G1 X128.315 Y131.758 E6.26353
G1 X128.315 Y132.159 E6.28068
G1 X123.702 Y132.159 E6.47792
G1 X123.702 Y132.560 E6.49507
G1 X128.316 Y132.560 E6.69234
G1 X128.317 Y132.961 E6.70949
G1 X123.702 Y132.961 E6.90679
G1 X123.702 Y133.362 E6.92394
G1 X128.337 Y133.362 E7.12209
G1 X128.369 Y133.573 E7.13122
G1 X128.435 Y133.763 E7.13982
G1 X123.702 Y133.763 E7.34217
G1 X123.702 Y134.164 E7.35932
G1 X128.574 Y134.164 E7.56761
G1 X128.630 Y134.327 E7.57494
G1 X128.794 Y134.565 E7.58734
G1 X123.702 Y134.565 E7.80506
G1 X123.702 Y134.966 E7.82220
G1 X129.072 Y134.966 E8.05179
G1 X129.184 Y135.122 E8.05997
G1 X129.468 Y135.368 E8.07604
G1 X123.702 Y135.368 E8.32257
G1 X123.702 Y135.769 E8.33971
G1 X130.096 Y135.769 E8.61307
G1 X130.372 Y135.914 E8.62645
G1 X131.053 Y136.170 E8.65751
G1 X123.702 Y136.170 E8.97179
G1 X123.702 Y136.571 E8.98893
G1 X132.122 Y136.571 E9.34893
G1 X133.192 Y136.972 E9.39776
G1 X123.702 Y136.972 E9.80348
G1 X123.702 Y137.373 E9.82063
G1 X134.261 Y137.373 E10.27207
G1 X135.330 Y137.774 E10.32090
G1 X123.702 Y137.774 E10.81807
G1 X123.702 Y138.175 E10.83521
G1 X136.400 Y138.175 E11.37810
G1 X137.469 Y138.576 E11.42693
G1 X123.702 Y138.576 E12.01554
G1 X123.702 Y138.977 E12.03269
G1 X130.371 Y138.977 E12.31783
G1 X130.101 Y139.076 E12.33015
G1 X129.811 Y139.238 E12.34433
G1 X129.629 Y139.378 E12.35417
G1 X123.702 Y139.378 E12.60757
G1 X123.702 Y139.779 E12.62471
G1 X129.160 Y139.779 E12.85808
G1 X128.849 Y140.180 E12.87978
G1 X123.702 Y140.180 E13.09984
G1 X123.702 Y140.581 E13.11699
G1 X128.620 Y140.581 E13.32726
G1 X128.558 Y140.700 E13.33300
G1 X128.464 Y140.982 E13.34570
G1 X123.702 Y140.982 E13.54932
G1 X123.702 Y141.383 E13.56646
G1 X128.376 Y141.383 E13.76631
G1 X128.323 Y141.784 E13.78360
G1 X123.702 Y141.784 E13.98118
G1 X123.702 Y142.185 E13.99832
G1 X128.302 Y142.185 E14.19502
G1 X128.302 Y142.586 E14.21216
G1 X123.702 Y142.586 E14.40885
G1 X123.702 Y142.987 E14.42600
G1 X128.302 Y142.987 E14.62269
G1 X128.302 Y143.388 E14.63984
G1 X123.702 Y143.388 E14.83653
G1 X123.702 Y143.789 E14.85367
G1 X128.302 Y143.789 E15.05037
G1 X128.302 Y144.191 E15.06751
G1 X123.702 Y144.191 E15.26420
G1 X123.702 Y144.592 E15.28135
G1 X128.302 Y144.592 E15.47804
G1 X128.302 Y144.993 E15.49519
G1 X123.702 Y144.993 E15.69188
G1 X123.702 Y145.394 E15.70902
G1 X128.302 Y145.394 E15.90571
G1 X128.302 Y145.795 E15.92286
G1 X123.702 Y145.795 E16.11955
G1 X123.702 Y146.196 E16.13670
G1 X128.302 Y146.196 E16.33339
G1 X128.302 Y146.597 E16.35054
G1 X123.702 Y146.597 E16.54723
G1 X123.702 Y146.998 E16.56437
G1 X128.302 Y146.998 E16.76106
G1 X128.302 Y147.399 E16.77821
G1 X123.702 Y147.399 E16.97490
G1 X123.702 Y147.800 E16.99205
G1 X128.302 Y147.800 E17.18874
G1 X128.302 Y148.201 E17.20588
G1 X123.702 Y148.201 E17.40258
G1 X123.702 Y148.602 E17.41972
G1 X128.302 Y148.602 E17.61641
G1 X128.302 Y149.003 E17.63356
G1 X123.702 Y149.003 E17.83025
G1 X123.702 Y149.404 E17.84740
G1 X128.302 Y149.404 E18.04409
G1 X128.302 Y149.805 E18.06123
G1 X123.702 Y149.805 E18.25793
G1 X123.702 Y150.206 E18.27507
G1 X128.302 Y150.206 E18.47176
G1 X128.302 Y150.607 E18.48891
G1 X123.702 Y150.607 E18.68560
G1 X123.702 Y151.008 E18.70275
G1 X128.302 Y151.008 E18.89944
G1 X128.302 Y151.409 E18.91658
G1 X123.702 Y151.409 E19.11328
G1 X123.702 Y151.810 E19.13042
G1 X128.302 Y151.810 E19.32711
G1 X128.302 Y152.211 E19.34426
G1 X123.702 Y152.211 E19.54095
G1 X123.702 Y152.612 E19.55810
G1 X128.302 Y152.612 E19.75479
G1 X128.302 Y153.014 E19.77193
G1 X123.702 Y153.014 E19.96862
G1 X123.702 Y153.415 E19.98577
G1 X128.302 Y153.415 E20.18246
G1 X128.302 Y153.816 E20.19961
G1 X123.702 Y153.816 E20.39630
G1 X123.702 Y154.217 E20.41345
G1 X128.302 Y154.217 E20.61014
G1 X128.302 Y154.618 E20.62728
G1 X123.702 Y154.618 E20.82397
G1 X123.702 Y155.019 E20.84112
G1 X128.302 Y155.019 E21.03781
G1 X128.302 Y155.420 E21.05496
G1 X123.702 Y155.420 E21.25165
G1 X123.702 Y155.821 E21.26879
G1 X128.302 Y155.821 E21.46549
G1 X128.302 Y156.222 E21.48263
G1 X123.702 Y156.222 E21.67932
G1 X123.702 Y156.623 E21.69647
G1 X128.302 Y156.623 E21.89316
G1 X128.302 Y157.024 E21.91031
G1 X123.702 Y157.024 E22.10700
G1 X123.702 Y157.425 E22.12414
G1 X128.302 Y157.425 E22.32084
G1 X128.302 Y157.826 E22.33798
G1 X123.702 Y157.826 E22.53467
G1 X123.702 Y158.227 E22.55182
G1 X128.311 Y158.227 E22.74888
G1 X128.366 Y158.628 E22.76619
G1 X123.702 Y158.628 E22.96562
G1 X123.702 Y159.029 E22.98277
G1 X128.484 Y159.029 E23.18722
G1 X128.656 Y159.430 E23.20588
G1 X123.702 Y159.430 E23.41771
G1 X123.702 Y159.831 E23.43486
G1 X128.857 Y159.831 E23.65527
G1 X129.079 Y160.137 E23.67141
G1 X129.177 Y160.232 E23.67726
G1 X123.702 Y160.232 E23.91133
G1 X123.702 Y160.633 E23.92848
G1 X129.639 Y160.633 E24.18231
G1 X129.855 Y160.785 E24.19357
G1 X130.489 Y161.034 E24.22273
G1 X123.702 Y161.034 E24.51291
G1 E22.51291 F2400.00000
G92 E0
G1 X123.702 Y175.873 F7800.000
G1 E2.00000 F2400.00000
G1 F2400.000
G1 X128.302 Y175.863 E2.19669
G1 X128.302 Y175.472 E2.21341
G1 X123.702 Y175.472 E2.41010
G1 X123.702 Y175.071 E2.42725
G1 X128.302 Y175.071 E2.62394
G1 X128.302 Y174.670 E2.64109
G1 X123.702 Y174.670 E2.83778
G1 X123.702 Y174.269 E2.85492
G1 X128.302 Y174.269 E3.05162
G1 X128.302 Y173.868 E3.06876
G1 X123.702 Y173.868 E3.26545
G1 X123.702 Y173.467 E3.28260
G1 X128.302 Y173.467 E3.47929
G1 X128.302 Y173.066 E3.49644
G1 X123.702 Y173.066 E3.69313
G1 X123.702 Y172.665 E3.71027
G1 X128.302 Y172.665 E3.90696
G1 X128.302 Y172.264 E3.92411
G1 X123.702 Y172.264 E4.12080
G1 X123.702 Y171.863 E4.13795
G1 X128.302 Y171.863 E4.33464
G1 X128.302 Y171.462 E4.35179
G1 X123.702 Y171.462 E4.54848
G1 X123.702 Y171.061 E4.56562
G1 X128.302 Y171.061 E4.76231
G1 X128.302 Y170.659 E4.77946
G1 X123.702 Y170.659 E4.97615
G1 X123.702 Y170.258 E4.99330
G1 X128.302 Y170.258 E5.18999
G1 X128.302 Y169.857 E5.20713
G1 X123.702 Y169.857 E5.40383
G1 X123.702 Y169.456 E5.42097
G1 X128.302 Y169.456 E5.61766
G1 X128.302 Y169.055 E5.63481
G1 X123.702 Y169.055 E5.83150
G1 X123.702 Y168.654 E5.84865
G1 X128.302 Y168.654 E6.04534
G1 X128.302 Y168.253 E6.06248
G1 X123.702 Y168.253 E6.25918
G1 X123.702 Y167.852 E6.27632
G1 X128.302 Y167.852 E6.47301
G1 X128.302 Y167.451 E6.49016
G1 X123.702 Y167.451 E6.68685
G1 X123.702 Y167.050 E6.70400
G1 X128.304 Y167.050 E6.90075
G1 X128.338 Y166.649 E6.91796
G1 X123.702 Y166.649 E7.11616
G1 X123.702 Y166.248 E7.13331
G1 X128.448 Y166.248 E7.33625
G1 X128.574 Y165.847 E7.35421
G1 X123.702 Y165.847 E7.56252
G1 X123.702 Y165.446 E7.57966
G1 X128.762 Y165.446 E7.79601
G1 X128.868 Y165.262 E7.80507
G1 X129.045 Y165.045 E7.81707
G1 X123.702 Y165.045 E8.04554
G1 X123.702 Y164.644 E8.06268
G1 X129.455 Y164.644 E8.30864
G1 X129.680 Y164.452 E8.32130
G1 X130.074 Y164.243 E8.34035
G1 X123.702 Y164.243 E8.61278
G1 X123.702 Y163.842 E8.62993
G1 X131.022 Y163.842 E8.94291
G1 X132.092 Y163.441 E8.99174
G1 X123.702 Y163.441 E9.35045
G1 X123.702 Y163.040 E9.36759
G1 X133.161 Y163.040 E9.77202
G1 X134.231 Y162.639 E9.82085
G1 X123.702 Y162.639 E10.27100
G1 X123.702 Y162.238 E10.28814
G1 X135.300 Y162.238 E10.78402
G1 X136.370 Y161.836 E10.83285
G1 X123.702 Y161.836 E11.37444
G1 X123.702 Y161.435 E11.39159
G1 X137.439 Y161.435 E11.97890
G1 X138.509 Y161.034 E12.02773
G1 X132.645 Y161.034 E12.27841
G1 X133.715 Y160.633 E12.32724
G1 X139.578 Y160.633 E12.57792
G1 X140.648 Y160.232 E12.62675
G1 X134.784 Y160.232 E12.87742
G1 X135.854 Y159.831 E12.92625
G1 X141.717 Y159.831 E13.17692
G1 X142.786 Y159.430 E13.22575
G1 X136.923 Y159.430 E13.47642
G1 X137.993 Y159.029 E13.52525
G1 X143.856 Y159.029 E13.77592
G1 X144.925 Y158.628 E13.82475
G1 X139.062 Y158.628 E14.07541
G1 X140.132 Y158.227 E14.12425
G1 X145.995 Y158.227 E14.37491
G1 X147.064 Y157.826 E14.42374
G1 X141.201 Y157.826 E14.67440
G1 X142.271 Y157.425 E14.72323
G1 X148.134 Y157.425 E14.97389
G1 X149.203 Y157.024 E15.02272
G1 X143.340 Y157.024 E15.27337
G1 X144.410 Y156.623 E15.32220
G1 X150.273 Y156.623 E15.57286
G1 X151.342 Y156.222 E15.62169
G1 X145.479 Y156.222 E15.87234
G1 X146.549 Y155.821 E15.92117
G1 X152.411 Y155.821 E16.17182
G1 X153.481 Y155.420 E16.22065
G1 X147.618 Y155.420 E16.47130
G1 X148.688 Y155.019 E16.52013
G1 X154.550 Y155.019 E16.77077
G1 X155.620 Y154.618 E16.81961
G1 X149.757 Y154.618 E17.07025
G1 X150.827 Y154.217 E17.11908
G1 X156.689 Y154.217 E17.36972
G1 X157.759 Y153.816 E17.41855
G1 X151.896 Y153.816 E17.66919
G1 X152.966 Y153.415 E17.71802
G1 X159.007 Y153.415 E17.97629
G1 E15.97629 F2400.00000
G92 E0
G1 X166.174 Y157.425 F7800.000
G1 E2.00000 F2400.00000
G1 F2400.000
G1 X170.820 Y157.425 E2.19864
G1 X171.808 Y157.024 E2.24422
G1 X165.161 Y157.024 E2.52839
G1 X164.818 Y156.875 E2.54438
G1 X164.402 Y156.623 E2.56517
G1 X172.573 Y156.623 E2.91452
G1 X173.178 Y156.222 E2.94554
G1 X163.816 Y156.222 E3.34580
G1 X163.582 Y156.051 E3.35818
G1 X163.365 Y155.821 E3.37172
G1 X173.638 Y155.821 E3.81094
G1 X174.099 Y155.420 E3.83704
G1 X162.987 Y155.420 E4.31211
G1 X162.608 Y155.019 E4.33568
G1 X174.461 Y155.019 E4.84240
G1 X174.632 Y154.823 E4.85351
G1 X174.768 Y154.618 E4.86406
G1 X162.230 Y154.618 E5.40012
G1 X161.809 Y154.217 E5.42498
G1 X175.034 Y154.217 E5.99039
G1 X175.288 Y153.816 E6.01070
G1 X161.310 Y153.816 E6.60833
G1 X160.329 Y153.415 E6.65363
G1 X175.497 Y153.415 E7.30212
G1 X175.689 Y153.014 E7.32113
G1 X154.035 Y153.014 E8.24688
G1 X154.113 Y152.984 E8.25045
G1 X154.669 Y152.612 E8.27902
G1 X175.835 Y152.612 E9.18394
G1 X175.981 Y152.211 E9.20219
G1 X155.265 Y152.211 E10.08787
G1 X155.579 Y151.810 E10.10966
G1 X176.078 Y151.810 E10.98606
G1 X176.168 Y151.409 E11.00362
G1 X155.821 Y151.409 E11.87351
G1 X155.901 Y151.258 E11.88082
G1 X155.983 Y151.008 E11.89208
G1 X176.227 Y151.008 E12.75755
G1 X176.275 Y150.607 E12.77482
G1 X156.083 Y150.607 E13.63808
G1 X156.145 Y150.206 E13.65543
G1 X176.297 Y150.206 E14.51697
G1 X176.284 Y149.805 E14.53412
G1 X156.134 Y149.805 E15.39561
G1 X156.120 Y149.535 E15.40718
G1 X156.085 Y149.404 E15.41297
G1 X176.271 Y149.404 E16.27599
G1 X176.229 Y149.003 E16.29323
G1 X155.960 Y149.003 E17.15980
G1 X155.832 Y148.602 E17.17779
G1 X176.169 Y148.602 E18.04727
G1 X176.081 Y148.201 E18.06483
G1 X155.559 Y148.201 E18.94220
G1 X155.277 Y147.800 E18.96316
G1 X175.985 Y147.800 E19.84851
G1 X175.839 Y147.399 E19.86675
G1 X154.813 Y147.399 E20.76568
G1 X154.066 Y146.998 E20.80194
G1 X175.693 Y146.998 E21.72658
G1 X175.504 Y146.597 E21.74555
G1 X160.247 Y146.597 E22.39779
G1 X161.278 Y146.196 E22.44508
G1 X175.294 Y146.196 E23.04431
G1 X175.042 Y145.795 E23.06458
G1 X161.797 Y145.795 E23.63083
G1 X162.220 Y145.394 E23.65575
G1 X174.776 Y145.394 E24.19255
G1 X174.630 Y145.174 E24.20381
G1 X174.471 Y144.993 E24.21414
G1 X162.599 Y144.993 E24.72171
G1 X162.978 Y144.592 E24.74530
G1 X174.112 Y144.592 E25.22131
G1 X173.652 Y144.191 E25.24739
G1 X163.356 Y144.191 E25.68755
G1 X163.593 Y143.941 E25.70225
G1 X163.820 Y143.789 E25.71392
G1 X173.192 Y143.789 E26.11461
G1 X172.590 Y143.388 E26.14554
G1 X164.423 Y143.388 E26.49471
G1 X164.822 Y143.123 E26.51519
G1 X165.135 Y142.987 E26.52980
G1 X171.838 Y142.987 E26.81635
G1 X170.849 Y142.586 E26.86196
G1 X166.130 Y142.586 E27.06372
G1 X167.035 Y142.351 E27.10372
G1 X168.382 Y142.206 E27.16163
G1 X170.849 Y142.586 E27.26834
G1 E25.26834 F2400.00000
G92 E0
G1 X152.996 Y146.597 F7800.000
G1 E2.00000 F2400.00000
G1 F2400.000
G1 X159.053 Y146.597 E2.25896
G1 X158.532 Y146.474 E2.28186
G1 X157.789 Y146.196 E2.31576
G1 X151.927 Y146.196 E2.56640
G1 X150.857 Y145.795 E2.61523
G1 X156.720 Y145.795 E2.86587
G1 X155.650 Y145.394 E2.91470
G1 X149.788 Y145.394 E3.16535
G1 X148.718 Y144.993 E3.21418
G1 X154.581 Y144.993 E3.46482
G1 X153.511 Y144.592 E3.51365
G1 X147.649 Y144.592 E3.76430
G1 X146.579 Y144.191 E3.81313
G1 X152.442 Y144.191 E4.06378
G1 X151.372 Y143.789 E4.11261
G1 X145.510 Y143.789 E4.36326
G1 X144.440 Y143.388 E4.41210
G1 X150.303 Y143.388 E4.66275
G1 X149.233 Y142.987 E4.71158
G1 X143.370 Y142.987 E4.96224
G1 X142.301 Y142.586 E5.01107
G1 X148.164 Y142.586 E5.26173
G1 X147.094 Y142.185 E5.31056
G1 X141.231 Y142.185 E5.56122
G1 X140.162 Y141.784 E5.61005
G1 X146.025 Y141.784 E5.86071
G1 X144.956 Y141.383 E5.90954
G1 X139.092 Y141.383 E6.16020
G1 X138.023 Y140.982 E6.20904
G1 X143.886 Y140.982 E6.45970
G1 X142.817 Y140.581 E6.50853
G1 X136.953 Y140.581 E6.75920
G1 X135.884 Y140.180 E6.80803
G1 X141.747 Y140.180 E7.05870
G1 X140.678 Y139.779 E7.10754
G1 X134.814 Y139.779 E7.35821
G1 X133.745 Y139.378 E7.40704
G1 X139.608 Y139.378 E7.65771
G1 X138.539 Y138.977 E7.70654
G1 X132.675 Y138.977 E7.95722
G1 X131.998 Y138.792 E7.98724
G1 X131.350 Y138.757 E8.01497
G1 X130.709 Y138.853 E8.04272
G1 X130.371 Y138.977 E8.05808
G1 Z0.250 F7800.000
G1 Z0.500 F7800.000
G1 E6.05808 F2400.00000
G92 E0
G1 X123.702 Y123.303 F7800.000
G1 E2.00000 F2400.00000
G1 F2400.000
G1 X123.702 Y176.696 E4.28269
G1 X123.702 Y123.303 E6.56538
G1 X124.103 Y123.303 E6.58255
G1 X124.103 Y176.696 E8.86523
G1 X124.505 Y176.696 E8.88240
G1 X124.505 Y123.303 E11.16508
G1 X124.906 Y123.303 E11.18225
G1 X124.906 Y176.696 E13.46492
G1 X125.308 Y176.696 E13.48209
G1 X125.308 Y123.303 E15.76476
G1 X125.709 Y123.303 E15.78193
G1 X125.709 Y176.696 E18.06459
G1 X126.111 Y176.696 E18.08176
G1 X126.111 Y123.304 E20.36442
G1 X126.512 Y123.304 E20.38159
G1 X126.512 Y176.696 E22.66425
G1 X126.914 Y176.696 E22.68141
G1 X126.914 Y123.304 E24.96407
G1 X127.315 Y123.304 E24.98123
G1 X127.315 Y176.696 E27.26388
G1 X127.717 Y176.696 E27.28105
G1 X127.717 Y123.304 E29.56369
G1 X128.118 Y123.304 E29.58085
G1 X128.118 Y176.696 E31.86349
G1 X128.302 Y176.696 E31.87136
G1 X128.302 Y167.073 E32.28276
G1 X128.349 Y166.560 E32.30478
G1 X128.520 Y166.015 E32.32922
G1 X128.520 Y159.112 E32.62432
G1 X128.409 Y158.852 E32.63639
G1 X128.322 Y158.393 E32.65638
G1 X128.302 Y158.051 E32.67103
G1 X128.302 Y141.941 E33.35978
G1 X128.407 Y141.158 E33.39354
G1 X128.520 Y140.814 E33.40902
G1 X128.520 Y134.010 E33.69990
G1 X128.634 Y134.333 E33.71453
G1 X128.921 Y134.752 E33.73626
G1 X128.921 Y140.080 E33.96403
G1 X129.085 Y139.858 E33.97584
G1 X129.323 Y139.614 E33.99039
G1 X129.323 Y135.242 E34.17731
G1 X129.724 Y135.572 E34.19952
