; Generated by RP3 on 2021-07-8
; Job 0 - 3D Cloner

G21 ; set units to millimeters
M107 ;fan off
G28 ;home all axes
G90 ;absolute coordinates
G28 E0 ;home all axes
G1 E20.0 F100.0 ;extrude 20mm material with 100 mm/min speed
G28 E0 ;home all axes
G90 ;use absolute coordinates
M82 ; use absolute distances for extrusion
G92 E0 ;home of axes
M104 S90
G1 E-2.00000 F24000 ;retracts 2mm of material
M106 S102

(Layer 1)
G1  Z0.250 F2400

(Raster 1)
G92 E0
G1  X0022.347 Y0004.953 F2400
G1  E2.00000 F2400
G1  X0027.047 Y0004.953 E2.215 F2400
G1  X0027.047 Y0005.353 E2.233
G1  X0022.347 Y0005.353 E2.448
G1  X0022.347 Y0005.753 E2.466
G1  X0027.047 Y0005.753 E2.681
G1  X0027.047 Y0006.153 E2.700
G1  X0022.347 Y0006.153 E2.914
G1  X0022.347 Y0006.553 E2.933
G1  X0027.047 Y0006.553 E3.148
G1  X0027.047 Y0006.953 E3.166
G1  X0022.347 Y0006.953 E3.381
G1  X0022.347 Y0007.353 E3.399
G1  X0027.047 Y0007.353 E3.614
G1  X0027.047 Y0007.753 E3.632
G1  X0022.347 Y0007.753 E3.847
G1  X0022.347 Y0008.153 E3.865
G1  X0027.047 Y0008.153 E4.080
G1  X0027.047 Y0008.553 E4.099
G1  X0022.347 Y0008.553 E4.313
G1  X0022.347 Y0008.953 E4.332
G1  X0027.047 Y0008.953 E4.547
G1  X0027.047 Y0009.353 E4.565
G1  X0022.347 Y0009.353 E4.780
G1  X0022.347 Y0009.753 E4.798
G1  X0027.047 Y0009.753 E5.013
G1  X0027.047 Y0010.153 E5.031
G1  X0022.347 Y0010.153 E5.246
G1  X0022.347 Y0010.553 E5.265
G1  X0027.047 Y0010.553 E5.479
G1  X0027.047 Y0010.953 E5.498
G1  X0022.347 Y0010.953 E5.713
G1  X0022.347 Y0011.353 E5.731
G1  X0027.047 Y0011.353 E5.946
G1  X0027.047 Y0011.753 E5.964
G1  X0022.347 Y0011.753 E6.179
G1  X0022.347 Y0012.153 E6.197
G1  X0027.047 Y0012.153 E6.412
G1  X0027.047 Y0012.553 E6.430
G1  X0022.347 Y0012.553 E6.645
G1  X0022.347 Y0012.953 E6.664
G1  X0027.047 Y0012.953 E6.879
G1  X0027.047 Y0013.353 E6.897
G1  X0022.347 Y0013.353 E7.112
G1  X0022.347 Y0013.753 E7.130
G1  X0027.047 Y0013.753 E7.345
G1  X0027.047 Y0014.153 E7.363
G1  X0022.346 Y0014.153 E7.578
G1  X0022.346 Y0014.553 E7.596
G1  X0027.047 Y0014.553 E7.811
G1  X0027.047 Y0014.953 E7.830
G1  X0022.346 Y0014.953 E8.045
G1  X0022.346 Y0015.353 E8.063
G1  X0027.047 Y0015.353 E8.278
G1  X0027.047 Y0015.753 E8.296
G1  X0022.346 Y0015.753 E8.511
G1  X0022.346 Y0016.153 E8.529
G1  X0027.047 Y0016.153 E8.744
G1  X0027.047 Y0016.553 E8.762
G1  X0022.346 Y0016.553 E8.977
G1  X0022.346 Y0016.953 E8.996
G1  X0027.047 Y0016.953 E9.211
G1  X0027.047 Y0017.353 E9.229
G1  X0022.346 Y0017.353 E9.444
G1  X0022.346 Y0017.753 E9.462
G1  X0027.047 Y0017.753 E9.677
G1  X0027.047 Y0018.153 E9.695
G1  X0022.346 Y0018.153 E9.910
G1  X0022.346 Y0018.553 E9.928
G1  X0027.047 Y0018.553 E10.143
G1  X0027.047 Y0018.953 E10.162
G1  X0022.346 Y0018.953 E10.377
G1  X0022.346 Y0019.353 E10.395
G1  X0027.047 Y0019.353 E10.610
G1  X0027.047 Y0019.753 E10.628
G1  X0022.346 Y0019.753 E10.843
G1  X0022.346 Y0020.153 E10.861
G1  X0027.047 Y0020.153 E11.076
G1  X0027.047 Y0020.553 E11.094
G1  X0022.346 Y0020.553 E11.309
G1  X0022.346 Y0020.953 E11.328
G1  X0027.047 Y0020.953 E11.543
G1  X0027.047 Y0021.353 E11.561
G1  X0022.346 Y0021.353 E11.776
G1  X0022.346 Y0021.434 E11.780
G1  X0022.315 Y0021.753 E11.794
G1  X0027.047 Y0021.753 E12.011
G1  X0027.047 Y0022.153 E12.029
G1  X0022.205 Y0022.153 E12.250
G1  X0022.178 Y0022.245 E12.255
G1  X0022.150 Y0022.297 E12.257
G1  X0021.939 Y0022.553 E12.272
G1  X0027.047 Y0022.553 E12.506
G1  X0027.047 Y0022.953 E12.524
G1  X0021.609 Y0022.953 E12.773
G1  X0021.430 Y0023.169 E12.786
G1  X0021.385 Y0023.206 E12.788
G1  X0021.105 Y0023.353 E12.803
G1  X0027.047 Y0023.353 E13.074
G1  X0027.047 Y0023.753 E13.093
G1  X0017.096 Y0023.753 E13.548
G1  X0017.455 Y0024.152 E13.572
G1  X0017.456 Y0024.153 E13.572
G1  X0027.047 Y0024.153 E14.011
G1  X0027.047 Y0024.553 E14.029
G1  X0017.783 Y0024.553 E14.453
G1  X0017.975 Y0024.787 E14.466
G1  X0018.193 Y0024.953 E14.479
G1  X0027.047 Y0024.953 E14.884
G1  X0027.047 Y0025.353 E14.902
G1  X0020.241 Y0025.353 E15.213
G1  X0020.299 Y0025.356 E15.216
G1  X0020.958 Y0025.494 E15.247
G1  X0021.371 Y0025.705 E15.268
G1  X0021.424 Y0025.751 E15.271
G1  X0021.425 Y0025.753 E15.271
G1  X0027.047 Y0025.753 E15.528
G1  X0027.047 Y0026.153 E15.547
G1  X0021.705 Y0026.153 E15.791
G1  X0021.985 Y0026.553 E15.813
G1  X0027.047 Y0026.553 E16.045
G1  X0027.047 Y0026.953 E16.063
G1  X0022.264 Y0026.953 E16.282
G1  X0022.269 Y0026.960 E16.282
G1  X0022.258 Y0027.353 E16.300
G1  X0027.047 Y0027.353 E16.519
G1  X0027.047 Y0027.753 E16.537
G1  X0022.150 Y0027.753 E16.761
G1  X0022.064 Y0027.905 E16.769
G1  X0022.026 Y0027.948 E16.772
G1  X0021.768 Y0028.153 E16.787
G1  X0027.047 Y0028.153 E17.028
G1  X0027.047 Y0028.553 E17.046
G1  X0021.044 Y0028.553 E17.321
G1  X0020.952 Y0028.591 E17.325
G1  X0020.490 Y0028.648 E17.347
G1  X0017.244 Y0028.650 E17.495
G1  X0016.751 Y0028.784 E17.518
G1  X0016.566 Y0028.942 E17.530
G1  X0016.559 Y0028.953 E17.530
G1  X0027.047 Y0028.953 E18.010
G1  X0027.047 Y0029.353 E18.028
G1  X0016.421 Y0029.353 E18.514
G1  X0016.409 Y0029.753 E18.532
G1  X0027.047 Y0029.753 E19.018
G1  X0027.047 Y0030.153 E19.037
G1  X0016.396 Y0030.153 E19.524
G1  X0016.384 Y0030.553 E19.542
G1  X0027.047 Y0030.553 E20.029
G1  X0027.047 Y0030.953 E20.048
G1  X0016.371 Y0030.953 E20.536
G1  X0016.359 Y0031.353 E20.554
G1  X0027.047 Y0031.353 E21.043
G1  X0027.047 Y0031.753 E21.061
G1  X0016.434 Y0031.753 E21.546
G1  X0016.516 Y0032.000 E21.558
G1  X0016.695 Y0032.153 E21.569
G1  X0027.047 Y0032.153 E22.042
G1  X0027.047 Y0032.553 E22.061
G1  X0021.318 Y0032.553 E22.323
G1  X0021.929 Y0032.953 E22.356
G1  X0027.047 Y0032.953 E22.590
G1  X0027.047 Y0033.353 E22.608
G1  X0022.203 Y0033.353 E22.830
G1  X0022.235 Y0033.410 E22.833
G1  X0022.254 Y0033.478 E22.836
G1  X0022.262 Y0033.753 E22.848
G1  X0027.047 Y0033.753 E23.067
G1  X0027.047 Y0034.153 E23.085
G1  X0022.213 Y0034.153 E23.307
G1  X0022.057 Y0034.553 E23.326
G1  X0027.047 Y0034.553 E23.554
G1  X0027.047 Y0034.953 E23.573
G1  X0021.744 Y0034.953 E23.815
G1  X0021.637 Y0035.082 E23.823
G1  X0021.263 Y0035.353 E23.844
G1  X0027.047 Y0035.353 E24.108
G1  X0027.047 Y0035.753 E24.127
G1  X0018.715 Y0035.753 E24.507
G1  X0018.445 Y0035.856 E24.521
G1  X0018.052 Y0036.153 E24.543
G1  X0027.047 Y0036.153 E24.954
G1  X0027.047 Y0036.553 E24.973
G1  X0017.684 Y0036.553 E25.401
G1  X0017.342 Y0036.953 E25.425
G1  X0027.047 Y0036.953 E25.869
G1  X0027.047 Y0037.353 E25.887
G1  X0017.001 Y0037.353 E26.346
G1  X0016.790 Y0037.599 E26.361
G1  X0016.600 Y0037.753 E26.372
G1  X0019.096 Y0037.753 E26.486
G1  X0018.640 Y0038.097 E26.512
G1  X0018.588 Y0038.153 E26.516
G1  X0016.106 Y0038.153 E26.629
G1  X0015.612 Y0038.553 E26.658
G1  X0018.212 Y0038.553 E26.777
G1  X0017.836 Y0038.953 E26.802
G1  X0015.118 Y0038.953 E26.927
G1  X0014.997 Y0039.051 E26.934
G1  X0014.433 Y0039.353 E26.963
G1  X0017.399 Y0039.353 E27.099
G1  X0017.167 Y0039.562 E27.113
G1  X0016.917 Y0039.753 E27.127
G1  X0013.686 Y0039.753 E27.275
G1  X0013.634 Y0039.781 E27.278
G1  X0012.903 Y0040.075 E27.314
G1  X0012.623 Y0040.153 E27.327
G1  X0016.394 Y0040.153 E27.499
G1  X0016.286 Y0040.235 E27.506
G1  X0015.778 Y0040.553 E27.533
G1  X0010.832 Y0040.553 E27.759
G1  E25.759 F2400

(Raster 2)
G92 E0
G1  X0012.171 Y0018.953 F2400
G1  E2.00000 F2400
G1  X0006.915 Y0018.953 E2.240 F2400
G1  X0006.475 Y0019.052 E2.261
G1  X0005.566 Y0019.346 E2.305
G1  X0005.549 Y0019.353 E2.305
G1  X0013.552 Y0019.353 E2.671
G1  X0013.594 Y0019.367 E2.673
G1  X0014.368 Y0019.684 E2.712
G1  X0014.510 Y0019.753 E2.719
G1  X0004.611 Y0019.753 E3.171
G1  X0004.144 Y0019.952 E3.195
G1  X0003.780 Y0020.153 E3.214
G1  X0015.289 Y0020.153 E3.740
G1  X0015.938 Y0020.553 E3.775
G1  X0011.525 Y0020.553 E3.977
G1  X0012.135 Y0020.692 E4.005
G1  X0012.950 Y0020.953 E4.044
G1  X0016.507 Y0020.953 E4.207
G1  X0016.971 Y0021.353 E4.235
G1  X0013.910 Y0021.353 E4.375
G1  X0014.071 Y0021.423 E4.383
G1  X0014.655 Y0021.753 E4.414
G1  X0017.434 Y0021.753 E4.541
G1  X0017.897 Y0022.153 E4.569
G1  X0015.246 Y0022.153 E4.690
G1  X0015.742 Y0022.553 E4.719
G1  X0018.325 Y0022.553 E4.837
G1  X0018.659 Y0022.921 E4.860
G1  X0018.698 Y0022.953 E4.862
G1  X0016.239 Y0022.953 E4.974
G1  X0016.735 Y0023.353 E5.004
G1  X0019.289 Y0023.353 E5.120
G1  E3.120 F2400

(Raster 3)
G92 E0
G1  X0007.731 Y0020.553 F2400
G1  E2.00000 F2400
G1  X0001.436 Y0020.553 E2.288 F2400
G1  X0001.220 Y0020.715 E2.300
G1  X0001.032 Y0020.953 E2.314
G1  X0006.207 Y0020.953 E2.551
G1  X0005.545 Y0021.172 E2.582
G1  X0005.183 Y0021.353 E2.601
G1  X0000.816 Y0021.353 E2.801
G1  X0000.703 Y0021.614 E2.814
G1  X0000.685 Y0021.753 E2.820
G1  X0004.399 Y0021.753 E2.990
G1  X0004.365 Y0021.783 E2.992
G1  X0004.340 Y0021.854 E2.995
G1  X0004.314 Y0022.153 E3.009
G1  X0000.664 Y0022.153 E3.176
G1  X0000.694 Y0022.443 E3.189
G1  X0000.732 Y0022.553 E3.195
G1  X0004.267 Y0022.553 E3.356
G1  X0004.094 Y0022.953 E3.376
G1  X0000.901 Y0022.953 E3.522
G1  X0001.052 Y0023.196 E3.535
G1  X0001.210 Y0023.353 E3.545
G1  X0003.768 Y0023.353 E3.662
G1  X0003.666 Y0023.471 E3.670
G1  X0003.179 Y0023.753 E3.695
G1  X0001.818 Y0023.753 E3.757
G1  E1.757 F2400

(Raster 4)
G92 E0
G1  X0003.361 Y0037.353 F2400
G1  E2.00000 F2400
G1  X0001.612 Y0037.353 E2.080 F2400
G1  X0001.202 Y0037.641 E2.103
G1  X0001.112 Y0037.753 E2.109
G1  X0003.863 Y0037.753 E2.235
G1  X0004.085 Y0038.013 E2.251
G1  X0004.148 Y0038.153 E2.258
G1  X0000.869 Y0038.153 E2.408
G1  X0000.716 Y0038.553 E2.427
G1  X0004.273 Y0038.553 E2.590
G1  X0004.318 Y0038.953 E2.608
G1  X0000.686 Y0038.953 E2.774
G1  X0000.702 Y0039.353 E2.793
G1  X0004.590 Y0039.353 E2.970
G1  X0005.239 Y0039.685 E3.004
G1  X0005.413 Y0039.753 E3.012
G1  X0000.837 Y0039.753 E3.222
G1  X0000.844 Y0039.773 E3.223
G1  X0001.160 Y0040.153 E3.245
G1  X0006.439 Y0040.153 E3.486
G1  X0006.559 Y0040.200 E3.492
G1  X0008.078 Y0040.527 E3.563
G1  X0008.405 Y0040.553 E3.578
G1  X0001.629 Y0040.553 E3.888
G1  X0001.875 Y0040.683 E3.901
G1  X0002.560 Y0040.796 E3.933
G1  X0003.293 Y0040.626 E3.967
G1  X0003.346 Y0040.624 E3.969
G1  X0003.396 Y0040.640 E3.972
G1  X0003.997 Y0040.953 E4.003
G1  X0015.089 Y0040.953 E4.510
G1  X0014.353 Y0041.322 E4.548
G1  X0014.273 Y0041.353 E4.552
G1  X0004.833 Y0041.353 E4.983
G1  X0005.666 Y0041.696 E5.024
G1  X0005.861 Y0041.753 E5.034
G1  X0013.218 Y0041.753 E5.370
G1  X0013.056 Y0041.814 E5.378
G1  X0011.618 Y0042.153 E5.445
G1  X0007.473 Y0042.153 E5.635
G1  E3.635 F2400

(Raster 5)
G92 E0
G1  X0021.268 Y0037.753 F2400
G1  E2.00000 F2400
G1  X0027.047 Y0037.753 E2.264 F2400
G1  X0027.047 Y0038.153 E2.283
G1  X0021.788 Y0038.153 E2.523
G1  X0022.047 Y0038.490 E2.542
G1  X0022.075 Y0038.553 E2.546
G1  X0027.047 Y0038.553 E2.773
G1  X0027.047 Y0038.953 E2.791
G1  X0022.243 Y0038.953 E3.011
G1  X0022.311 Y0039.353 E3.029
G1  X0027.047 Y0039.353 E3.246
G1  X0027.047 Y0039.753 E3.264
G1  X0022.343 Y0039.753 E3.479
G1  X0022.343 Y0040.153 E3.497
G1  X0027.047 Y0040.153 E3.713
G1  X0027.047 Y0040.553 E3.731
G1  X0022.344 Y0040.553 E3.946
G1  X0022.344 Y0040.953 E3.964
G1  X0027.047 Y0040.953 E4.179
G1  X0027.047 Y0041.353 E4.197
G1  X0022.344 Y0041.353 E4.412
G1  X0022.344 Y0041.753 E4.431
G1  X0027.047 Y0041.753 E4.646
G1  X0027.047 Y0042.153 E4.664
G1  X0022.344 Y0042.153 E4.879
G1  X0022.344 Y0042.553 E4.897
G1  X0027.047 Y0042.553 E5.112
G1  X0027.047 Y0042.953 E5.131
G1  X0022.344 Y0042.953 E5.346
G1  X0022.344 Y0043.353 E5.364
G1  X0027.047 Y0043.353 E5.579
G1  X0027.047 Y0043.753 E5.597
G1  X0022.344 Y0043.753 E5.812
G1  X0022.344 Y0044.153 E5.831
G1  X0027.047 Y0044.153 E6.046
G1  X0027.047 Y0044.553 E6.064
G1  X0022.344 Y0044.553 E6.279
G1  X0022.344 Y0044.953 E6.297
G1  X0027.047 Y0044.953 E6.512
G1  X0027.047 Y0045.353 E6.531
G1  X0022.345 Y0045.353 E6.745
G1  X0022.345 Y0045.753 E6.764
G1  X0027.047 Y0045.753 E6.979
G1  X0027.047 Y0046.153 E6.997
G1  X0022.345 Y0046.153 E7.212
G1  X0022.345 Y0046.553 E7.230
G1  X0027.047 Y0046.553 E7.445
G1  X0027.047 Y0046.953 E7.464
G1  X0022.345 Y0046.953 E7.679
G1  X0022.345 Y0047.353 E7.697
G1  X0027.047 Y0047.353 E7.912
G1  X0027.047 Y0047.753 E7.930
G1  X0022.345 Y0047.753 E8.145
G1  X0022.345 Y0048.153 E8.163
G1  X0027.047 Y0048.153 E8.378
G1  X0027.047 Y0048.553 E8.397
G1  X0022.345 Y0048.553 E8.612
G1  X0022.345 Y0048.953 E8.630
G1  X0027.047 Y0048.953 E8.845
G1  X0027.047 Y0049.353 E8.863
G1  X0022.345 Y0049.353 E9.078
G1  X0022.346 Y0049.753 E9.096
G1  X0027.047 Y0049.753 E9.311
G1  X0027.047 Y0050.153 E9.330
G1  X0022.346 Y0050.153 E9.545
G1  X0022.346 Y0050.553 E9.563
G1  X0027.047 Y0050.553 E9.778
G1  X0027.047 Y0050.953 E9.796
G1  X0022.346 Y0050.953 E10.011
G1  X0022.346 Y0051.353 E10.029
G1  X0027.047 Y0051.353 E10.244
G1  X0027.047 Y0051.753 E10.263
G1  X0022.346 Y0051.753 E10.477
G1  X0022.346 Y0052.153 E10.496
G1  X0027.047 Y0052.153 E10.711
G1  X0027.047 Y0052.553 E10.729
G1  X0022.346 Y0052.553 E10.944
G1  X0022.346 Y0052.953 E10.962
G1  X0027.047 Y0052.953 E11.177
G1  X0027.047 Y0053.353 E11.195
G1  X0022.346 Y0053.353 E11.410
G1  X0022.346 Y0053.753 E11.429
G1  X0027.047 Y0053.753 E11.644
G1  X0027.047 Y0054.153 E11.662
G1  X0022.346 Y0054.153 E11.877
G1  X0022.347 Y0054.553 E11.895
G1  X0027.047 Y0054.553 E12.110
G1  X0027.047 Y0054.953 E12.128
G1  X0022.347 Y0054.953 E12.343
G1  X0022.347 Y0055.353 E12.361
G1  X0027.047 Y0055.353 E12.576
G1  X0027.047 Y0055.753 E12.595
G1  X0022.347 Y0055.753 E12.809
G1  X0022.347 Y0056.153 E12.828
G1  X0027.047 Y0056.153 E13.043
G1  E11.043 F2400

(Layer 2)
G1  Z0.500 F2400

(Raster 1)
G92 E0
G1  X0026.647 Y0057.210 F2400
G1  E2.00000 F2400
G1  X0026.647 Y0003.773 E4.443 F2400
G1  X0026.247 Y0003.776 E4.461
G1  X0026.247 Y0057.211 E6.904
G1  X0025.847 Y0057.212 E6.923
G1  X0025.847 Y0003.779 E9.366
G1  X0025.447 Y0003.782 E9.384
G1  X0025.447 Y0057.213 E11.827
G1  X0025.047 Y0057.214 E11.845
G1  X0025.047 Y0003.785 E14.288
G1  X0024.647 Y0003.789 E14.306
G1  X0024.647 Y0057.215 E16.749
G1  X0024.247 Y0057.216 E16.767
G1  X0024.247 Y0003.792 E19.210
G1  X0023.847 Y0003.795 E19.228
G1  X0023.847 Y0057.218 E21.671
G1  X0023.447 Y0057.219 E21.689
G1  X0023.447 Y0003.798 E24.131
G1  X0023.047 Y0003.801 E24.150
G1  X0023.047 Y0057.220 E26.592
G1  X0022.647 Y0057.221 E26.610
G1  X0022.647 Y0003.804 E29.052
G1  X0022.347 Y0003.807 E29.066
G1  X0022.347 Y0021.425 E29.872
G1  X0022.312 Y0021.786 E29.888
G1  X0022.247 Y0022.004 E29.898
G1  X0022.247 Y0026.925 E30.123
G1  X0021.847 Y0026.361 E30.155
G1  X0021.847 Y0022.674 E30.324
G1  X0021.447 Y0023.153 E30.352
G1  X0021.447 Y0025.798 E30.473
G1  X0021.408 Y0025.743 E30.476
G1  X0021.356 Y0025.698 E30.479
G1  X0021.047 Y0025.541 E30.495
G1  X0021.047 Y0023.384 E30.594
G1  X0020.956 Y0023.432 E30.599
G1  X0020.900 Y0023.448 E30.601
G1  X0020.647 Y0023.473 E30.613
G1  X0020.647 Y0025.431 E30.702
G1  X0020.273 Y0025.356 E30.720
G1  X0020.247 Y0025.355 E30.721
G1  X0020.247 Y0023.511 E30.805
G1  X0019.882 Y0023.546 E30.822
G1  X0019.847 Y0023.543 E30.824
G1  X0019.847 Y0025.333 E30.905
G1  X0019.447 Y0025.311 E30.924
G1  X0019.447 Y0023.424 E31.010
G1  X0019.056 Y0023.241 E31.030
G1  X0019.047 Y0023.233 E31.030
G1  X0019.047 Y0025.290 E31.124
G1  X0018.784 Y0025.276 E31.136
G1  X0018.647 Y0025.222 E31.143
G1  X0018.647 Y0022.908 E31.249
G1  X0018.247 Y0022.467 E31.276
G1  X0018.247 Y0024.994 E31.392
G1  X0017.971 Y0024.783 E31.408
G1  X0017.847 Y0024.632 E31.417
G1  X0017.847 Y0022.111 E31.532
G1  X0017.447 Y0021.764 E31.556
G1  X0017.447 Y0024.143 E31.665
G1  X0017.439 Y0024.133 E31.665
G1  X0017.047 Y0023.698 E31.692
G1  X0017.047 Y0021.418 E31.796
G1  X0016.647 Y0021.071 E31.821
G1  X0016.647 Y0023.278 E31.921
G1  X0016.247 Y0022.957 E31.945
G1  X0016.247 Y0020.747 E32.046
G1  X0015.847 Y0020.499 E32.067
G1  X0015.847 Y0022.635 E32.165
G1  X0015.447 Y0022.314 E32.189
G1  X0015.447 Y0020.251 E32.283
G1  X0015.116 Y0020.046 E32.301
G1  X0015.047 Y0020.013 E32.304
G1  X0015.047 Y0021.993 E32.395
G1  X0014.970 Y0021.931 E32.399
G1  X0014.647 Y0021.748 E32.416
G1  X0014.647 Y0019.819 E32.504
G1  X0014.385 Y0019.693 E32.518
