; Generated by RP3 on 2021-07-8
; Job 0 - 3D Cloner

G21 ; set units to millimeters
M107 ;fan off
G28 ;home all axes
G90 ;absolute coordinates
G28 E0 ;home all axes
G1 E20.0 F100.0 ;extrude 20mm material with 100 mm/min speed
G28 E0 ;home all axes
G90 ;use absolute coordinates
M82 ; use absolute distances for extrusion
G92 E0 ;home of axes
M104 S90
G1 E-2.00000 F24000 ;retracts 2mm of material
M106 S102

(Layer 1)
G1  Z0.250 F2400

(Raster 1)
G92 E0
G1  X0052.121 Y0000.850 F2400
G1  E2.00000 F2400
G1  X0058.896 Y0000.850 E2.310 F2400
G1  X0059.918 Y0000.987 E2.357
G1  X0061.057 Y0001.185 E2.410
G1  X0061.362 Y0001.250 E2.424
G1  X0049.621 Y0001.250 E2.961
G1  X0049.567 Y0001.260 E2.963
G1  X0048.440 Y0001.519 E3.016
G1  X0047.953 Y0001.650 E3.039
G1  X0063.053 Y0001.650 E3.730
G1  X0063.308 Y0001.716 E3.742
G1  X0064.416 Y0002.048 E3.795
G1  X0064.422 Y0002.050 E3.795
G1  X0046.594 Y0002.050 E4.610
G1  X0046.220 Y0002.168 E4.628
G1  X0045.433 Y0002.450 E4.666
G1  X0065.578 Y0002.450 E5.587
G1  X0066.626 Y0002.850 E5.638
G1  X0044.366 Y0002.850 E6.656
G1  X0043.318 Y0003.250 E6.707
G1  X0067.674 Y0003.250 E7.821
G1  X0068.723 Y0003.650 E7.872
G1  X0042.270 Y0003.650 E9.082
G1  X0041.222 Y0004.050 E9.133
G1  X0069.771 Y0004.050 E10.438
G1  X0070.819 Y0004.450 E10.490
G1  X0040.174 Y0004.450 E11.891
G1  X0039.126 Y0004.850 E11.942
G1  X0071.867 Y0004.850 E13.439
G1  X0072.915 Y0005.250 E13.490
G1  X0038.079 Y0005.250 E15.083
G1  X0037.031 Y0005.650 E15.134
G1  X0073.963 Y0005.650 E16.823
G1  X0075.012 Y0006.050 E16.874
G1  X0035.983 Y0006.050 E18.658
G1  X0034.935 Y0006.450 E18.710
G1  X0076.060 Y0006.450 E20.590
G1  X0077.108 Y0006.850 E20.641
G1  X0033.887 Y0006.850 E22.617
G1  X0032.839 Y0007.250 E22.669
G1  X0053.063 Y0007.250 E23.593
G1  X0052.308 Y0007.340 E23.628
G1  X0051.260 Y0007.514 E23.677
G1  X0050.627 Y0007.650 E23.706
G1  X0031.791 Y0007.650 E24.567
G1  X0030.743 Y0008.050 E24.619
G1  X0049.064 Y0008.050 E25.456
G1  X0048.183 Y0008.328 E25.498
G1  X0047.851 Y0008.450 E25.515
G1  X0029.695 Y0008.450 E26.345
G1  X0028.647 Y0008.850 E26.396
G1  X0046.817 Y0008.850 E27.227
G1  X0046.208 Y0009.108 E27.257
G1  X0045.909 Y0009.250 E27.272
G1  X0027.599 Y0009.250 E28.109
G1  X0026.551 Y0009.650 E28.161
G1  X0045.093 Y0009.650 E29.008
G1  X0044.348 Y0010.050 E29.047
G1  X0025.503 Y0010.050 E29.909
G1  X0024.455 Y0010.450 E29.960
G1  X0043.677 Y0010.450 E30.839
G1  X0043.403 Y0010.615 E30.853
G1  X0043.049 Y0010.850 E30.873
G1  X0023.407 Y0010.850 E31.771
G1  X0022.359 Y0011.250 E31.822
G1  X0042.454 Y0011.250 E32.741
G1  X0041.910 Y0011.650 E32.772
G1  X0021.311 Y0011.650 E33.713
G1  X0020.263 Y0012.050 E33.765
G1  X0041.393 Y0012.050 E34.731
G1  X0040.899 Y0012.450 E34.760
G1  X0019.215 Y0012.450 E35.751
G1  X0018.167 Y0012.850 E35.803
G1  X0040.444 Y0012.850 E36.821
G1  X0040.045 Y0013.206 E36.846
G1  X0040.000 Y0013.250 E36.848
G1  X0017.119 Y0013.250 E37.895
G1  X0016.071 Y0013.650 E37.946
G1  X0039.591 Y0013.650 E39.021
G1  X0039.286 Y0013.949 E39.041
G1  X0039.191 Y0014.050 E39.047
G1  X0015.023 Y0014.050 E40.152
G1  X0013.975 Y0014.450 E40.203
G1  X0038.819 Y0014.450 E41.339
G1  X0038.562 Y0014.726 E41.356
G1  X0038.457 Y0014.850 E41.364
G1  X0012.927 Y0014.850 E42.531
G1  X0011.879 Y0015.250 E42.582
G1  X0038.118 Y0015.250 E43.782
G1  X0037.876 Y0015.536 E43.799
G1  X0037.789 Y0015.650 E43.806
G1  X0010.832 Y0015.650 E45.038
G1  X0010.206 Y0015.889 E45.069
G1  X0009.817 Y0016.050 E45.088
G1  X0037.481 Y0016.050 E46.353
G1  X0037.229 Y0016.378 E46.372
G1  X0037.178 Y0016.450 E46.376
G1  X0008.934 Y0016.450 E47.667
G1  X0008.659 Y0016.584 E47.681
G1  X0008.179 Y0016.850 E47.706
G1  X0036.899 Y0016.850 E49.019
G1  X0036.621 Y0017.249 E49.041
G1  X0036.621 Y0017.250 E49.041
G1  X0007.515 Y0017.250 E50.372
G1  X0007.193 Y0017.455 E50.390
G1  X0006.920 Y0017.650 E50.405
G1  X0036.369 Y0017.650 E51.751
G1  X0036.117 Y0018.050 E51.773
G1  X0006.378 Y0018.050 E53.133
G1  X0005.883 Y0018.450 E53.162
G1  X0035.884 Y0018.450 E54.533
G1  X0035.658 Y0018.850 E54.554
G1  X0005.438 Y0018.850 E55.936
G1  X0005.206 Y0019.061 E55.950
G1  X0005.020 Y0019.250 E55.962
G1  X0035.442 Y0019.250 E57.353
G1  X0035.240 Y0019.650 E57.374
G1  X0004.627 Y0019.650 E58.773
G1  X0004.608 Y0019.670 E58.775
G1  X0004.275 Y0020.050 E58.798
G1  X0035.040 Y0020.050 E60.204
G1  X0034.860 Y0020.450 E60.224
G1  X0003.939 Y0020.450 E61.638
G1  X0003.628 Y0020.850 E61.661
G1  X0034.681 Y0020.850 E63.081
G1  X0034.619 Y0020.989 E63.088
G1  X0034.516 Y0021.250 E63.101
G1  X0003.340 Y0021.250 E64.526
G1  X0003.064 Y0021.650 E64.548
G1  X0034.359 Y0021.650 E65.979
G1  X0034.231 Y0021.977 E65.995
G1  X0034.206 Y0022.050 E65.999
G1  X0002.818 Y0022.050 E67.434
G1  X0002.596 Y0022.415 E67.453
G1  X0002.577 Y0022.450 E67.455
G1  X0013.276 Y0022.450 E67.944
G1  X0013.038 Y0022.521 E67.956
G1  X0012.456 Y0022.746 E67.984
G1  X0012.239 Y0022.850 E67.995
G1  X0002.364 Y0022.850 E68.447
G1  X0002.195 Y0023.168 E68.463
G1  X0002.157 Y0023.250 E68.467
G1  X0011.497 Y0023.250 E68.894
G1  X0011.356 Y0023.333 E68.902
G1  X0010.906 Y0023.650 E68.927
G1  X0001.973 Y0023.650 E69.335
G1  X0001.839 Y0023.943 E69.350
G1  X0001.796 Y0024.050 E69.355
G1  X0010.416 Y0024.050 E69.750
G1  X0010.366 Y0024.092 E69.753
G1  X0010.002 Y0024.450 E69.776
G1  X0001.639 Y0024.450 E70.158
G1  X0001.527 Y0024.737 E70.172
G1  X0001.490 Y0024.850 E70.178
G1  X0009.644 Y0024.850 E70.551
G1  X0009.513 Y0025.002 E70.560
G1  X0009.331 Y0025.250 E70.574
G1  X0001.359 Y0025.250 E70.938
G1  X0001.261 Y0025.547 E70.953
G1  X0001.234 Y0025.650 E70.957
G1  X0009.056 Y0025.650 E71.315
G1  X0008.819 Y0026.038 E71.336
G1  X0008.812 Y0026.050 E71.336
G1  X0001.128 Y0026.050 E71.688
G1  X0001.043 Y0026.371 E71.703
G1  X0001.027 Y0026.450 E71.707
G1  X0008.610 Y0026.450 E72.053
G1  X0008.537 Y0026.595 E72.061
G1  X0008.433 Y0026.850 E72.073
G1  X0000.945 Y0026.850 E72.416
G1  X0000.872 Y0027.207 E72.432
G1  X0000.866 Y0027.250 E72.434
G1  X0008.278 Y0027.250 E72.773
G1  X0008.152 Y0027.650 E72.792
G1  X0000.808 Y0027.650 E73.128
G1  X0000.749 Y0028.050 E73.147
G1  X0008.051 Y0028.050 E73.481
G1  X0007.977 Y0028.377 E73.496
G1  X0007.966 Y0028.450 E73.499
G1  X0000.715 Y0028.450 E73.831
G1  X0000.680 Y0028.850 E73.849
G1  X0007.909 Y0028.850 E74.180
G1  X0007.889 Y0028.995 E74.186
G1  X0007.874 Y0029.250 E74.198
G1  X0000.665 Y0029.250 E74.528
G1  X0000.653 Y0029.650 E74.546
G1  X0007.852 Y0029.650 E74.875
G1  X0007.861 Y0030.050 E74.893
G1  X0000.659 Y0030.050 E75.223
G1  X0000.670 Y0030.450 E75.241
G1  X0007.887 Y0030.450 E75.571
G1  X0007.928 Y0030.850 E75.589
G1  X0000.695 Y0030.850 E75.920
G1  X0000.729 Y0031.250 E75.938
G1  X0008.002 Y0031.250 E76.271
G1  X0008.044 Y0031.475 E76.281
G1  X0008.092 Y0031.650 E76.290
G1  X0000.775 Y0031.650 E76.624
G1  X0000.833 Y0032.050 E76.643
G1  X0008.201 Y0032.050 E76.979
G1  X0008.209 Y0032.078 E76.981
G1  X0008.344 Y0032.450 E76.999
G1  X0000.899 Y0032.450 E77.339
G1  X0000.980 Y0032.850 E77.358
G1  X0008.507 Y0032.850 E77.702
G1  X0008.681 Y0033.231 E77.721
G1  X0008.692 Y0033.250 E77.722
G1  X0001.069 Y0033.250 E78.071
G1  X0001.174 Y0033.650 E78.090
G1  X0008.916 Y0033.650 E78.444
G1  X0008.987 Y0033.776 E78.450
G1  X0009.172 Y0034.050 E78.465
G1  X0001.285 Y0034.050 E78.826
G1  X0001.416 Y0034.450 E78.845
G1  X0009.461 Y0034.450 E79.213
G1  X0009.725 Y0034.781 E79.232
G1  X0009.791 Y0034.850 E79.237
G1  X0001.551 Y0034.850 E79.613
G1  X0001.707 Y0035.250 E79.633
G1  X0010.171 Y0035.250 E80.020
G1  X0010.615 Y0035.650 E80.047
G1  X0001.870 Y0035.650 E80.447
G1  X0002.053 Y0036.050 E80.467
G1  X0011.144 Y0036.050 E80.883
G1  X0011.639 Y0036.367 E80.910
G1  X0011.795 Y0036.450 E80.918
G1  X0002.245 Y0036.450 E81.355
G1  X0002.457 Y0036.850 E81.375
G1  X0012.631 Y0036.850 E81.840
G1  X0012.756 Y0036.904 E81.847
G1  X0013.354 Y0037.106 E81.876
G1  X0013.935 Y0037.250 E81.903
G1  X0002.681 Y0037.250 E82.417
G1  X0002.923 Y0037.650 E82.439
G1  X0034.270 Y0037.650 E83.872
G1  X0034.427 Y0038.050 E83.892
G1  X0003.184 Y0038.050 E85.320
G1  X0003.459 Y0038.450 E85.342
G1  X0034.585 Y0038.450 E86.765
G1  X0034.632 Y0038.569 E86.771
G1  X0034.759 Y0038.850 E86.785
G1  X0003.763 Y0038.850 E88.202
G1  X0004.033 Y0039.199 E88.223
G1  X0004.078 Y0039.250 E88.226
G1  X0034.939 Y0039.250 E89.637
G1  X0035.068 Y0039.538 E89.651
G1  X0035.125 Y0039.650 E89.657
G1  X0004.427 Y0039.650 E91.060
G1  X0004.594 Y0039.842 E91.072
G1  X0004.798 Y0040.050 E91.085
G1  X0035.328 Y0040.050 E92.481
G1  X0035.531 Y0040.450 E92.502
G1  X0005.190 Y0040.450 E93.889
G1  X0005.190 Y0040.451 E93.889
G1  X0005.629 Y0040.850 E93.916
G1  X0035.756 Y0040.850 E95.293
G1  X0035.983 Y0041.250 E95.314
G1  X0006.099 Y0041.250 E96.681
G1  X0006.483 Y0041.562 E96.703
G1  X0006.606 Y0041.650 E96.710
G1  X0036.226 Y0041.650 E98.065
G1  X0036.479 Y0042.050 E98.086
G1  X0007.162 Y0042.050 E99.427
G1  X0007.175 Y0042.060 E99.427
G1  X0007.789 Y0042.450 E99.461
G1  X0036.741 Y0042.450 E100.784
G1  X0037.021 Y0042.850 E100.807
G1  X0008.491 Y0042.850 E102.111
G1  X0008.640 Y0042.934 E102.119
G1  X0009.293 Y0043.250 E102.152
G1  X0037.306 Y0043.250 E103.433
G1  X0037.615 Y0043.650 E103.456
G1  X0010.240 Y0043.650 E104.707
G1  X0011.288 Y0044.050 E104.759
G1  X0037.926 Y0044.050 E105.977
G1  X0038.266 Y0044.450 E106.001
G1  X0012.336 Y0044.450 E107.186
G1  X0013.384 Y0044.850 E107.237
G1  X0038.608 Y0044.850 E108.391
G1  X0038.981 Y0045.250 E108.416
G1  X0014.432 Y0045.250 E109.538
G1  X0015.480 Y0045.650 E109.589
G1  X0039.359 Y0045.650 E110.681
G1  X0039.769 Y0046.050 E110.707
G1  X0016.527 Y0046.050 E111.770
G1  X0017.575 Y0046.450 E111.821
G1  X0040.190 Y0046.450 E112.855
G1  X0040.640 Y0046.850 E112.883
G1  X0018.623 Y0046.850 E113.889
G1  X0019.671 Y0047.250 E113.941
G1  X0041.113 Y0047.250 E114.921
G1  X0041.609 Y0047.650 E114.950
G1  X0020.719 Y0047.650 E115.905
G1  X0021.767 Y0048.050 E115.956
G1  X0042.147 Y0048.050 E116.888
G1  X0042.547 Y0048.344 E116.911
G1  X0042.708 Y0048.450 E116.920
G1  X0022.815 Y0048.450 E117.829
G1  X0023.863 Y0048.850 E117.880
G1  X0043.311 Y0048.850 E118.770
G1  X0043.432 Y0048.930 E118.776
G1  X0043.968 Y0049.250 E118.805
G1  X0024.911 Y0049.250 E119.676
G1  X0025.959 Y0049.650 E119.727
G1  X0044.671 Y0049.650 E120.583
G1  X0045.280 Y0049.976 E120.614
G1  X0045.436 Y0050.050 E120.622
G1  X0027.007 Y0050.050 E121.465
G1  X0028.055 Y0050.450 E121.516
G1  X0046.280 Y0050.450 E122.349
G1  X0047.217 Y0050.844 E122.396
G1  X0047.234 Y0050.850 E122.397
G1  X0029.102 Y0050.850 E123.226
G1  X0030.150 Y0051.250 E123.277
G1  X0048.345 Y0051.250 E124.109
G1  X0049.228 Y0051.527 E124.151
G1  X0049.696 Y0051.650 E124.173
G1  X0031.198 Y0051.650 E125.019
G1  X0032.246 Y0052.050 E125.070
G1  X0051.484 Y0052.050 E125.950
G1  E123.950 F2400

(Raster 2)
G92 E0
G1  X0057.935 Y0007.250 F2400
G1  E2.00000 F2400
G1  X0078.156 Y0007.250 E2.925 F2400
G1  X0079.204 Y0007.650 E2.976
G1  X0060.374 Y0007.650 E3.837
G1  X0060.745 Y0007.730 E3.854
G1  X0061.772 Y0008.000 E3.903
G1  X0061.934 Y0008.050 E3.910
G1  X0080.252 Y0008.050 E4.748
G1  X0081.301 Y0008.450 E4.799
G1  X0063.148 Y0008.450 E5.629
G1  X0063.783 Y0008.683 E5.660
G1  X0064.182 Y0008.850 E5.680
G1  X0082.349 Y0008.850 E6.510
G1  X0083.397 Y0009.250 E6.562
G1  X0065.090 Y0009.250 E7.399
G1  X0065.720 Y0009.551 E7.431
G1  X0065.906 Y0009.650 E7.440
G1  X0084.445 Y0009.650 E8.288
G1  X0085.493 Y0010.050 E8.339
G1  X0066.653 Y0010.050 E9.200
G1  X0066.657 Y0010.052 E9.201
G1  X0067.323 Y0010.450 E9.236
G1  X0086.541 Y0010.450 E10.115
G1  X0087.589 Y0010.850 E10.166
G1  X0067.951 Y0010.850 E11.064
G1  X0068.453 Y0011.183 E11.092
G1  X0068.545 Y0011.250 E11.097
G1  X0088.638 Y0011.250 E12.015
G1  X0089.686 Y0011.650 E12.067
G1  X0069.091 Y0011.650 E13.008
G1  X0069.310 Y0011.811 E13.021
G1  X0069.607 Y0012.050 E13.038
G1  X0090.734 Y0012.050 E14.004
G1  X0091.782 Y0012.450 E14.055
G1  X0070.102 Y0012.450 E15.047
G1  X0070.136 Y0012.478 E15.049
G1  X0070.556 Y0012.850 E15.074
G1  X0092.830 Y0012.850 E16.093
G1  X0093.878 Y0013.250 E16.144
G1  X0070.999 Y0013.250 E17.190
G1  X0071.409 Y0013.650 E17.216
G1  X0094.927 Y0013.650 E18.291
G1  X0095.975 Y0014.050 E18.343
G1  X0071.808 Y0014.050 E19.448
G1  X0072.181 Y0014.450 E19.473
G1  X0097.023 Y0014.450 E20.608
G1  X0098.071 Y0014.850 E20.660
G1  X0072.542 Y0014.850 E21.827
G1  X0072.882 Y0015.250 E21.851
G1  X0099.119 Y0015.250 E23.050
G1  X0100.167 Y0015.650 E23.102
G1  X0073.211 Y0015.650 E24.334
G1  X0073.519 Y0016.050 E24.357
G1  X0101.182 Y0016.050 E25.622
G1  X0101.589 Y0016.220 E25.642
G1  X0102.065 Y0016.450 E25.666
G1  X0073.821 Y0016.450 E26.958
G1  X0074.101 Y0016.850 E26.980
G1  X0102.821 Y0016.850 E28.293
G1  X0103.102 Y0017.007 E28.308
G1  X0103.484 Y0017.250 E28.328
G1  X0074.378 Y0017.250 E29.659
G1  X0074.631 Y0017.650 E29.681
G1  X0104.080 Y0017.650 E31.027
G1  X0104.514 Y0017.963 E31.052
G1  X0104.622 Y0018.050 E31.058
G1  X0074.884 Y0018.050 E32.418
G1  X0074.927 Y0018.119 E32.421
G1  X0075.115 Y0018.450 E32.439
G1  X0105.116 Y0018.450 E33.810
G1  X0105.177 Y0018.500 E33.814
G1  X0105.562 Y0018.850 E33.838
G1  X0075.342 Y0018.850 E35.219
G1  X0075.452 Y0019.042 E35.230
G1  X0075.557 Y0019.250 E35.240
G1  X0105.980 Y0019.250 E36.631
G1  X0106.372 Y0019.650 E36.657
G1  X0075.760 Y0019.650 E38.056
G1  X0075.932 Y0019.989 E38.074
G1  X0075.960 Y0020.050 E38.077
G1  X0106.724 Y0020.050 E39.483
G1  X0106.965 Y0020.326 E39.500
G1  X0107.061 Y0020.450 E39.507
G1  X0076.140 Y0020.450 E40.921
G1  X0076.319 Y0020.850 E40.941
G1  X0107.372 Y0020.850 E42.361
G1  X0107.488 Y0021.000 E42.369
G1  X0107.660 Y0021.250 E42.383
G1  X0076.483 Y0021.250 E43.809
G1  X0076.641 Y0021.650 E43.828
G1  X0107.935 Y0021.650 E45.259
G1  X0107.971 Y0021.702 E45.262
G1  X0108.182 Y0022.050 E45.281
G1  X0076.793 Y0022.050 E46.716
G1  X0076.930 Y0022.450 E46.735
G1  X0093.265 Y0022.450 E47.482
G1  X0092.748 Y0022.626 E47.507
G1  X0092.229 Y0022.850 E47.533
G1  X0077.066 Y0022.850 E48.226
G1  X0077.101 Y0022.951 E48.231
G1  X0077.188 Y0023.250 E48.245
G1  X0091.496 Y0023.250 E48.899
G1  X0091.100 Y0023.506 E48.921
G1  X0090.911 Y0023.650 E48.932
G1  X0077.303 Y0023.650 E49.554
G1  X0077.396 Y0023.971 E49.569
G1  X0077.415 Y0024.050 E49.573
G1  X0090.422 Y0024.050 E50.168
G1  X0090.142 Y0024.304 E50.185
G1  X0090.004 Y0024.450 E50.194
G1  X0077.511 Y0024.450 E50.765
G1  X0077.607 Y0024.850 E50.784
G1  X0089.641 Y0024.850 E51.334
G1  X0089.326 Y0025.247 E51.357
G1  X0089.323 Y0025.250 E51.358
G1  X0077.691 Y0025.250 E51.889
G1  X0077.767 Y0025.650 E51.908
G1  X0089.055 Y0025.650 E52.424
G1  X0088.978 Y0025.765 E52.430
G1  X0088.819 Y0026.050 E52.445
G1  X0077.843 Y0026.050 E52.947
G1  X0077.900 Y0026.450 E52.966
G1  X0088.610 Y0026.450 E53.455
G1  X0088.428 Y0026.850 E53.475
G1  X0077.957 Y0026.850 E53.954
G1  X0077.992 Y0027.098 E53.966
G1  X0078.007 Y0027.250 E53.973
G1  X0088.281 Y0027.250 E54.442
G1  X0088.204 Y0027.465 E54.453
G1  X0088.153 Y0027.650 E54.461
G1  X0078.045 Y0027.650 E54.924
G1  X0078.083 Y0028.050 E54.942
G1  X0088.045 Y0028.050 E55.398
G1  X0088.041 Y0028.067 E55.398
G1  X0087.970 Y0028.450 E55.416
G1  X0078.106 Y0028.450 E55.867
G1  X0078.126 Y0028.850 E55.885
G1  X0087.910 Y0028.850 E56.333
G1  X0087.869 Y0029.250 E56.351
G1  X0078.143 Y0029.250 E56.796
G1  X0078.143 Y0029.650 E56.814
G1  X0087.857 Y0029.650 E57.258
G1  X0087.852 Y0029.926 E57.271
G1  X0087.860 Y0030.050 E57.276
G1  X0078.144 Y0030.050 E57.721
G1  X0078.144 Y0030.278 E57.731
G1  X0078.136 Y0030.450 E57.739
G1  X0087.884 Y0030.450 E58.185
G1  X0087.890 Y0030.549 E58.189
G1  X0087.934 Y0030.850 E58.203
G1  X0078.117 Y0030.850 E58.652
G1  X0078.099 Y0031.250 E58.670
G1  X0087.999 Y0031.250 E59.123
G1  X0088.091 Y0031.650 E59.142
G1  X0078.066 Y0031.650 E59.600
G1  X0078.028 Y0032.050 E59.618
G1  X0088.206 Y0032.050 E60.084
G1  X0088.308 Y0032.369 E60.099
G1  X0088.341 Y0032.450 E60.103
G1  X0077.988 Y0032.450 E60.576
G1  X0077.932 Y0032.850 E60.595
G1  X0088.504 Y0032.850 E61.078
