; generated by Slic3r 1.3.1-dev (Build 8c69278) on 2021-12-10 at 13:24:53

; external perimeters extrusion width = 0.45mm (3.99mm^3/s)
; perimeters extrusion width = 0.45mm (3.99mm^3/s)
; infill extrusion width = 0.45mm (3.99mm^3/s)
; solid infill extrusion width = 0.45mm (4.99mm^3/s)
; top infill extrusion width = 0.45mm (3.00mm^3/s)
; support material extrusion width = 0.45mm (4.99mm^3/s)

M107
G92 E0
M104 S205 ; set temperature
G28 ; home all axes
G1 Z5 F5000 ; lift nozzle

; Filament gcode

M109 S205 ; set temperature and wait for it to be reached
G21 ; set units to millimeters
G90 ; use absolute coordinates
M82 ; use absolute distances for extrusion
G92 E0
G1 Z0.250 F7800.000
G1 E-2.00000 F2400.00000
G92 E0
G1 X107.949 Y142.584 F7800.000
G1 E2.00000 F2400.00000
G1 F2400.000
G1 X108.757 Y142.401 E2.03542
G1 X109.380 Y142.325 E2.06227
G1 X109.994 Y142.300 E2.08852
G1 X110.620 Y142.325 E2.11531
G1 X111.253 Y142.402 E2.14256
G1 X112.051 Y142.584 E2.17758
G1 X128.552 Y142.584 E2.88304
G1 X128.416 Y142.985 E2.90114
G1 X113.165 Y142.985 E3.55316
G1 X113.615 Y143.202 E3.57455
G1 X113.930 Y143.385 E3.59012
G1 X128.289 Y143.385 E4.20403
G1 X128.173 Y143.786 E4.22187
G1 X114.539 Y143.786 E4.80477
G1 X115.043 Y144.187 E4.83229
G1 X128.058 Y144.187 E5.38870
G1 X127.961 Y144.588 E5.40633
G1 X115.470 Y144.588 E5.94035
G1 X115.838 Y144.989 E5.96363
G1 X127.865 Y144.989 E6.47781
G1 X127.776 Y145.390 E6.49536
G1 X116.160 Y145.390 E6.99199
G1 X116.444 Y145.791 E7.01298
G1 X127.700 Y145.791 E7.49423
G1 X127.624 Y146.192 E7.51168
G1 X116.690 Y146.192 E7.97915
G1 X116.898 Y146.592 E7.99847
G1 X127.563 Y146.592 E8.45439
G1 X127.506 Y146.993 E8.47170
G1 X117.083 Y146.993 E8.91732
G1 X117.245 Y147.394 E8.93582
G1 X127.451 Y147.394 E9.37216
G1 X127.414 Y147.795 E9.38937
G1 X117.372 Y147.795 E9.81869
G1 X117.480 Y148.196 E9.83644
G1 X127.376 Y148.196 E10.25953
G1 X127.347 Y148.597 E10.27672
G1 X117.571 Y148.597 E10.69469
G1 X117.629 Y148.998 E10.71201
G1 X127.329 Y148.998 E11.12671
G1 X127.310 Y149.399 E11.14387
G1 X117.671 Y149.399 E11.55595
G1 X117.696 Y149.800 E11.57312
G1 X127.307 Y149.800 E11.98401
G1 X127.307 Y150.200 E12.00115
G1 X117.691 Y150.200 E12.41224
G1 X117.672 Y150.601 E12.42940
G1 X127.310 Y150.601 E12.84143
G1 X127.329 Y151.002 E12.85859
G1 X117.631 Y151.002 E13.27319
G1 X117.564 Y151.403 E13.29056
G1 X127.347 Y151.403 E13.70881
G1 X127.376 Y151.804 E13.72600
G1 X117.482 Y151.804 E14.14899
G1 X117.373 Y152.205 E14.16675
G1 X127.414 Y152.205 E14.59601
G1 X127.451 Y152.606 E14.61322
G1 X117.239 Y152.606 E15.04985
G1 X117.085 Y153.007 E15.06821
G1 X127.506 Y153.007 E15.51375
G1 X127.563 Y153.408 E15.53106
G1 X116.901 Y153.408 E15.98686
G1 X116.685 Y153.808 E16.00634
G1 X127.624 Y153.808 E16.47403
G1 X127.700 Y154.209 E16.49148
G1 X116.440 Y154.209 E16.97287
G1 X116.164 Y154.610 E16.99370
G1 X127.776 Y154.610 E17.49018
G1 X127.865 Y155.011 E17.50774
G1 X115.844 Y155.011 E18.02168
G1 X115.471 Y155.412 E18.04508
G1 X127.961 Y155.412 E18.57905
G1 X128.058 Y155.813 E18.59668
G1 X115.042 Y155.813 E19.15315
G1 X114.539 Y156.214 E19.18064
G1 X128.174 Y156.214 E19.76355
G1 X128.290 Y156.615 E19.78140
G1 X113.937 Y156.615 E20.39500
G1 X113.348 Y156.933 E20.42364
G1 X113.159 Y157.015 E20.43243
G1 X128.416 Y157.015 E21.08470
G1 X128.552 Y157.416 E21.10280
G1 X112.054 Y157.416 E21.80814
G1 E19.80814 F2400.00000
G92 E0
G1 X151.411 Y172.650 F7800.000
G1 E2.00000 F2400.00000
G1 F2400.000
G1 X172.163 Y172.650 E2.88720
G1 X173.213 Y172.249 E2.93526
G1 X154.476 Y172.249 E3.73632
G1 X155.273 Y172.078 E3.77116
G1 X156.146 Y171.848 E3.80975
G1 X174.263 Y171.848 E4.58432
G1 X175.314 Y171.447 E4.63238
G1 X157.427 Y171.447 E5.39707
G1 X158.494 Y171.046 E5.44578
G1 X176.364 Y171.046 E6.20978
G1 X177.414 Y170.646 E6.25784
G1 X159.428 Y170.646 E7.02679
G1 X160.267 Y170.245 E7.06653
G1 X178.464 Y170.245 E7.84453
G1 X179.515 Y169.844 E7.89259
G1 X161.014 Y169.844 E8.68354
G1 X161.703 Y169.443 E8.71761
G1 X180.565 Y169.443 E9.52402
G1 X181.615 Y169.042 E9.57208
G1 X162.347 Y169.042 E10.39586
G1 X162.951 Y168.641 E10.42684
G1 X182.665 Y168.641 E11.26971
G1 X183.716 Y168.240 E11.31777
G1 X163.501 Y168.240 E12.18199
G1 X164.030 Y167.839 E12.21035
G1 X184.766 Y167.839 E13.09688
G1 X185.816 Y167.438 E13.14494
G1 X164.526 Y167.438 E14.05518
G1 X164.991 Y167.038 E14.08143
G1 X186.866 Y167.038 E15.01668
G1 X187.917 Y166.637 E15.06474
G1 X165.441 Y166.637 E16.02562
G1 X165.855 Y166.236 E16.05025
G1 X188.967 Y166.236 E17.03835
G1 X190.017 Y165.835 E17.08641
G1 X166.263 Y165.835 E18.10197
G1 X166.637 Y165.434 E18.12540
G1 X191.067 Y165.434 E19.16989
G1 X192.118 Y165.033 E19.21795
G1 X167.006 Y165.033 E20.29155
G1 X167.346 Y164.632 E20.31402
G1 X193.168 Y164.632 E21.41798
G1 X194.218 Y164.231 E21.46604
G1 X167.683 Y164.231 E22.60051
G1 X167.992 Y163.831 E22.62214
G1 X195.268 Y163.831 E23.78830
G1 X196.211 Y163.430 E23.83207
G1 X168.301 Y163.430 E25.02530
G1 X168.581 Y163.029 E25.04620
G1 X197.011 Y163.029 E26.26169
G1 X197.711 Y162.628 E26.29618
G1 X168.861 Y162.628 E27.52962
G1 X169.118 Y162.227 E27.55000
G1 X198.336 Y162.227 E28.79915
G1 X198.894 Y161.826 E28.82852
G1 X169.371 Y161.826 E30.09071
G1 X169.609 Y161.425 E30.11064
G1 X199.399 Y161.425 E31.38423
G1 X199.866 Y161.024 E31.41055
G1 X169.837 Y161.024 E32.69439
G1 X170.057 Y160.623 E32.71396
G1 X200.303 Y160.623 E34.00702
G1 X200.695 Y160.223 E34.03102
G1 X170.260 Y160.223 E35.33220
G1 X170.464 Y159.822 E35.35141
G1 X201.064 Y159.822 E36.65966
G1 X201.414 Y159.421 E36.68242
G1 X170.646 Y159.421 E37.99783
G1 X170.826 Y159.020 E38.01662
G1 X201.726 Y159.020 E39.33770
G1 X202.027 Y158.619 E39.35912
G1 X170.995 Y158.619 E40.68581
G1 X171.153 Y158.218 E40.70423
G1 X202.303 Y158.218 E42.03598
G1 X202.561 Y157.817 E42.05635
G1 X171.311 Y157.817 E43.39238
G1 X171.448 Y157.416 E43.41048
G1 X187.951 Y157.416 E44.11607
G1 X187.531 Y157.293 E44.13480
G1 X186.837 Y157.015 E44.16676
G1 X171.584 Y157.015 E44.81887
G1 X171.710 Y156.615 E44.83684
G1 X186.072 Y156.615 E45.45081
G1 X185.837 Y156.477 E45.46243
G1 X185.462 Y156.214 E45.48203
G1 X171.826 Y156.214 E46.06499
G1 X171.942 Y155.813 E46.08283
G1 X184.958 Y155.813 E46.63929
G1 X184.531 Y155.412 E46.66433
G1 X172.039 Y155.412 E47.19840
G1 X172.135 Y155.011 E47.21602
G1 X184.163 Y155.011 E47.73024
G1 X183.841 Y154.610 E47.75222
G1 X172.224 Y154.610 E48.24888
G1 X172.300 Y154.209 E48.26633
G1 X183.557 Y154.209 E48.74760
G1 X183.311 Y153.808 E48.76772
G1 X172.376 Y153.808 E49.23522
G1 X172.437 Y153.408 E49.25256
G1 X183.102 Y153.408 E49.70851
G1 X182.918 Y153.007 E49.72737
G1 X172.494 Y153.007 E50.17301
G1 X172.549 Y152.606 E50.19031
G1 X182.755 Y152.606 E50.62667
G1 X182.628 Y152.205 E50.64464
G1 X172.586 Y152.205 E51.07397
G1 X172.624 Y151.804 E51.09119
G1 X182.521 Y151.804 E51.51430
G1 X182.429 Y151.403 E51.53187
G1 X172.653 Y151.403 E51.94985
G1 X172.671 Y151.002 E51.96701
G1 X182.372 Y151.002 E52.38172
G1 X182.329 Y150.601 E52.39896
G1 X172.690 Y150.601 E52.81104
G1 X172.693 Y150.200 E52.82818
G1 X182.304 Y150.200 E53.23908
G1 X182.309 Y149.800 E53.25622
G1 X172.693 Y149.800 E53.66731
G1 X172.690 Y149.399 E53.68445
G1 X182.328 Y149.399 E54.09648
G1 X182.369 Y148.998 E54.11371
G1 X172.671 Y148.998 E54.52831
G1 X172.653 Y148.597 E54.54546
G1 X182.436 Y148.597 E54.96371
G1 X182.518 Y148.196 E54.98120
G1 X172.624 Y148.196 E55.40419
G1 X172.586 Y147.795 E55.42140
G1 X182.627 Y147.795 E55.85065
G1 X182.761 Y147.394 E55.86873
G1 X172.549 Y147.394 E56.30535
G1 X172.494 Y146.993 E56.32264
G1 X182.915 Y146.993 E56.76817
G1 X183.098 Y146.592 E56.78701
G1 X172.437 Y146.592 E57.24279
G1 X172.376 Y146.192 E57.26013
G1 X183.315 Y146.192 E57.72781
G1 X183.559 Y145.791 E57.74788
G1 X172.300 Y145.791 E58.22925
G1 X172.224 Y145.390 E58.24670
G1 X183.836 Y145.390 E58.74315
G1 X184.156 Y144.989 E58.76507
G1 X172.135 Y144.989 E59.27899
G1 X172.039 Y144.588 E59.29661
G1 X184.528 Y144.588 E59.83054
G1 X184.957 Y144.187 E59.85565
G1 X171.942 Y144.187 E60.41209
G1 X171.827 Y143.786 E60.42993
G1 X185.460 Y143.786 E61.01280
G1 X186.062 Y143.385 E61.04371
G1 X171.711 Y143.385 E61.65726
G1 X171.584 Y142.985 E61.67523
G1 X186.839 Y142.985 E62.32741
G1 X187.236 Y142.813 E62.34588
G1 X187.943 Y142.584 E62.37767
G1 X171.448 Y142.584 E63.08289
G1 X171.311 Y142.183 E63.10099
G1 X202.561 Y142.183 E64.43702
G1 X202.304 Y141.782 E64.45740
G1 X171.154 Y141.782 E65.78915
G1 X170.996 Y141.381 E65.80757
G1 X202.027 Y141.381 E67.13427
G1 X201.727 Y140.980 E67.15569
G1 X170.826 Y140.980 E68.47678
G1 X170.646 Y140.579 E68.49556
G1 X201.415 Y140.579 E69.81100
G1 X201.064 Y140.178 E69.83376
G1 X170.464 Y140.178 E71.14202
G1 X170.261 Y139.777 E71.16123
G1 X200.696 Y139.777 E72.46243
G1 X200.303 Y139.377 E72.48643
G1 X170.058 Y139.377 E73.77951
G1 X169.837 Y138.976 E73.79907
G1 X199.867 Y138.976 E75.08293
G1 X199.400 Y138.575 E75.10924
G1 X169.610 Y138.575 E76.38285
G1 X169.372 Y138.174 E76.40279
G1 X198.895 Y138.174 E77.66501
G1 X198.337 Y137.773 E77.69439
G1 X169.119 Y137.773 E78.94355
G1 X168.861 Y137.372 E78.96393
G1 X197.712 Y137.372 E80.19739
G1 X197.012 Y136.971 E80.23188
G1 X168.581 Y136.971 E81.44739
G1 X168.301 Y136.570 E81.46829
G1 X196.212 Y136.570 E82.66156
G1 X195.270 Y136.170 E82.70530
G1 X167.992 Y136.170 E83.87152
G1 X167.683 Y135.769 E83.89315
G1 X194.219 Y135.769 E85.02764
G1 X193.168 Y135.368 E85.07573
G1 X167.347 Y135.368 E86.17968
G1 X167.007 Y134.967 E86.20215
G1 X192.117 Y134.967 E87.27570
G1 X191.066 Y134.566 E87.32379
G1 X166.637 Y134.566 E88.36819
G1 X166.264 Y134.165 E88.39162
G1 X190.015 Y134.165 E89.40706
G1 X188.964 Y133.764 E89.45515
G1 X165.856 Y133.764 E90.44309
G1 X165.442 Y133.363 E90.46771
G1 X187.913 Y133.363 E91.42839
G1 X186.862 Y132.962 E91.47649
G1 X164.991 Y132.962 E92.41151
G1 X164.526 Y132.562 E92.43776
G1 X185.811 Y132.562 E93.34772
G1 X184.760 Y132.161 E93.39581
G1 X164.031 Y132.161 E94.28203
G1 X163.502 Y131.760 E94.31039
G1 X183.709 Y131.760 E95.17426
G1 X182.657 Y131.359 E95.22236
G1 X162.952 Y131.359 E96.06484
G1 X162.348 Y130.958 E96.09582
G1 X181.606 Y130.958 E96.91918
G1 X180.555 Y130.557 E96.96727
G1 X161.704 Y130.557 E97.77321
G1 X161.015 Y130.156 E97.80728
G1 X179.504 Y130.156 E98.59772
G1 X178.453 Y129.755 E98.64582
G1 X160.268 Y129.755 E99.42328
G1 X159.430 Y129.354 E99.46301
G1 X177.402 Y129.354 E100.23138
G1 X176.351 Y128.954 E100.27947
G1 X158.495 Y128.954 E101.04285
G1 X157.429 Y128.553 E101.09154
G1 X175.300 Y128.553 E101.85556
G1 X174.249 Y128.152 E101.90366
G1 X156.149 Y128.152 E102.67749
G1 X155.273 Y127.921 E102.71620
G1 X154.480 Y127.751 E102.75089
G1 X173.198 Y127.751 E103.55114
G1 X172.147 Y127.350 E103.59924
G1 X151.421 Y127.350 E104.48530
G1 X151.064 Y127.325 E104.50062
G1 X150.000 Y127.300 E104.54612
G1 X148.936 Y127.325 E104.59162
G1 X148.579 Y127.350 E104.60694
G1 E102.60694 F2400.00000
G92 E0
G1 X149.804 Y120.936 F7800.000
G1 E2.00000 F2400.00000
G1 F2400.000
G1 X149.790 Y120.936 E2.00060
G1 X150.949 Y120.951 E2.05015
G1 X152.102 Y121.011 E2.09951
G1 X153.252 Y121.118 E2.14888
G1 X154.784 Y121.337 E2.21508
G1 X145.186 Y121.337 E2.62545
G1 X144.063 Y121.548 E2.67430
G1 X143.236 Y121.738 E2.71057
G1 X156.774 Y121.738 E3.28937
G1 X157.781 Y121.996 E3.33381
G1 X158.257 Y122.139 E3.35506
G1 X141.729 Y122.139 E4.06168
G1 X140.489 Y122.539 E4.11741
G1 X159.506 Y122.539 E4.93044
G1 X160.593 Y122.940 E4.97999
G1 X139.388 Y122.940 E5.88658
G1 X138.338 Y123.341 E5.93464
G1 X161.636 Y123.341 E6.93071
G1 X162.687 Y123.742 E6.97880
G1 X137.287 Y123.742 E8.06470
G1 X136.237 Y124.143 E8.11277
G1 X163.738 Y124.143 E9.28851
G1 X164.789 Y124.544 E9.33660
G1 X135.187 Y124.544 E10.60218
G1 X134.137 Y124.945 E10.65024
G1 X165.840 Y124.945 E12.00566
G1 X166.891 Y125.346 E12.05375
G1 X133.086 Y125.346 E13.49900
G1 X132.036 Y125.747 E13.54707
G1 X167.942 Y125.747 E15.08216
G1 X168.993 Y126.147 E15.13025
G1 X130.986 Y126.147 E16.75518
G1 X129.936 Y126.548 E16.80324
G1 X170.045 Y126.548 E18.51801
G1 X171.096 Y126.949 E18.56610
G1 X128.885 Y126.949 E20.37071
G1 X127.835 Y127.350 E20.41877
G1 X148.579 Y127.350 E21.30561
G1 X147.874 Y127.400 E21.33579
G1 X146.817 Y127.524 E21.38129
G1 X145.520 Y127.751 E21.43758
G1 X126.785 Y127.751 E22.23857
G1 X125.735 Y128.152 E22.28663
G1 X143.851 Y128.152 E23.06117
G1 X142.571 Y128.553 E23.11854
G1 X124.684 Y128.553 E23.88323
G1 X123.634 Y128.954 E23.93129
G1 X141.505 Y128.954 E24.69530
G1 X140.570 Y129.354 E24.73877
G1 X122.584 Y129.354 E25.50774
G1 X121.534 Y129.755 E25.55580
G1 X139.732 Y129.755 E26.33383
G1 X138.985 Y130.156 E26.37008
G1 X120.483 Y130.156 E27.16106
G1 X119.433 Y130.557 E27.20912
G1 X138.296 Y130.557 E28.01556
G1 X137.652 Y130.958 E28.04798
G1 X118.383 Y130.958 E28.87179
G1 X117.333 Y131.359 E28.91985
G1 X137.048 Y131.359 E29.76276
G1 X136.498 Y131.760 E29.79187
G1 X116.282 Y131.760 E30.65614
G1 X115.232 Y132.161 E30.70420
G1 X135.969 Y132.161 E31.59077
G1 X135.474 Y132.562 E31.61803
G1 X114.182 Y132.562 E32.52831
G1 X113.132 Y132.962 E32.57638
G1 X135.009 Y132.962 E33.51168
G1 X134.558 Y133.363 E33.53747
G1 X112.081 Y133.363 E34.49840
G1 X111.031 Y133.764 E34.54646
G1 X134.144 Y133.764 E35.53462
G1 X133.736 Y134.165 E35.55907
G1 X109.981 Y134.165 E36.57468
G1 X108.931 Y134.566 E36.62274
G1 X133.363 Y134.566 E37.66729
G1 X132.993 Y134.967 E37.69059
G1 X107.880 Y134.967 E38.76424
G1 X106.830 Y135.368 E38.81230
G1 X132.653 Y135.368 E39.91632
G1 X132.317 Y135.769 E39.93871
G1 X105.780 Y135.769 E41.07323
G1 X104.730 Y136.170 E41.12129
G1 X132.008 Y136.170 E42.28751
G1 X131.699 Y136.570 E42.30914
G1 X103.788 Y136.570 E43.50241
G1 X102.988 Y136.971 E43.54068
G1 X131.419 Y136.971 E44.75620
G1 X131.139 Y137.372 E44.77710
G1 X102.288 Y137.372 E46.01058
G1 X101.663 Y137.773 E46.04232
G1 X130.881 Y137.773 E47.29150
G1 X130.628 Y138.174 E47.31176
G1 X101.105 Y138.174 E48.57397
G1 X100.600 Y138.575 E48.60153
G1 X130.390 Y138.575 E49.87513
G1 X130.163 Y138.976 E49.89483
G1 X100.133 Y138.976 E51.17869
G1 X99.697 Y139.377 E51.20403
G1 X129.942 Y139.377 E52.49711
G1 X129.739 Y139.777 E52.51632
G1 X99.304 Y139.777 E53.81752
G1 X98.936 Y140.178 E53.84079
G1 X129.536 Y140.178 E55.14905
G1 X129.354 Y140.579 E55.16788
G1 X98.585 Y140.579 E56.48331
G1 X98.273 Y140.980 E56.50504
G1 X129.174 Y140.980 E57.82613
G1 X129.004 Y141.381 E57.84473
G1 X97.972 Y141.381 E59.17143
G1 X97.696 Y141.782 E59.19224
G1 X128.846 Y141.782 E60.52399
G1 X128.689 Y142.183 E60.54241
G1 X97.439 Y142.183 E61.87844
G1 X97.195 Y142.584 E61.89849
G1 X107.949 Y142.584 E62.35824
G1 X107.531 Y142.706 E62.37684
G1 X106.835 Y142.985 E62.40888
G1 X96.975 Y142.985 E62.83046
G1 X96.762 Y143.385 E62.84986
G1 X106.070 Y143.385 E63.24783
G1 X105.834 Y143.524 E63.25953
G1 X105.461 Y143.786 E63.27904
G1 X96.574 Y143.786 E63.65897
G1 X96.390 Y144.187 E63.67784
G1 X104.957 Y144.187 E64.04412
G1 X104.530 Y144.588 E64.06916
G1 X96.231 Y144.588 E64.42396
G1 X96.074 Y144.989 E64.44237
G1 X104.162 Y144.989 E64.78814
G1 X103.840 Y145.390 E64.81012
G1 X95.942 Y145.390 E65.14777
G1 X95.811 Y145.791 E65.16580
G1 X103.556 Y145.791 E65.49692
G1 X103.310 Y146.192 E65.51703
G1 X95.704 Y146.192 E65.84220
G1 X95.598 Y146.592 E65.85993
G1 X103.102 Y146.592 E66.18071
G1 X102.917 Y146.993 E66.19958
G1 X95.514 Y146.993 E66.51607
G1 X95.433 Y147.394 E66.53356
G1 X102.755 Y147.394 E66.84660
G1 X102.628 Y147.795 E66.86458
G1 X95.371 Y147.795 E67.17485
G1 X95.313 Y148.196 E67.19217
G1 X102.520 Y148.196 E67.50031
G1 X102.429 Y148.597 E67.51788
G1 X95.272 Y148.597 E67.82388
G1 X95.237 Y148.998 E67.84108
G1 X102.371 Y148.998 E68.14609
G1 X102.329 Y149.399 E68.16332
G1 X95.217 Y149.399 E68.46738
G1 X95.206 Y149.800 E68.48452
G1 X102.304 Y149.800 E68.78802
G1 X102.309 Y150.200 E68.80516
G1 X95.206 Y150.200 E69.10885
G1 X95.217 Y150.601 E69.12600
G1 X102.328 Y150.601 E69.43001
G1 X102.369 Y151.002 E69.44723
G1 X95.237 Y151.002 E69.75213
G1 X95.272 Y151.403 E69.76933
G1 X102.436 Y151.403 E70.07559
G1 X102.518 Y151.804 E70.09309
G1 X95.313 Y151.804 E70.40112
G1 X95.371 Y152.205 E70.41844
G1 X102.627 Y152.205 E70.72865
G1 X102.761 Y152.606 E70.74673
G1 X95.433 Y152.606 E71.06004
