; Generated by RP3 on 2021-07-8
; Job 0 - 3D Cloner

G21 ; set units to millimeters
M107 ;fan off
G28 ;home all axes
G90 ;absolute coordinates
G28 E0 ;home all axes
G1 E20.0 F100.0 ;extrude 20mm material with 100 mm/min speed
G28 E0 ;home all axes
G90 ;use absolute coordinates
M82 ; use absolute distances for extrusion
G92 E0 ;home of axes
M104 S90
G1 E-2.00000 F24000 ;retracts 2mm of material
M106 S102

(Layer 1)
G1  Z0.250 F2400

(Raster 1)
G92 E0
G1  X0109.950 Y0033.182 F2400
G1  E2.00000 F2400
G1  X0109.950 Y0026.347 E2.313 F2400
G1  X0109.744 Y0025.565 E2.349
G1  X0109.550 Y0024.971 E2.378
G1  X0109.550 Y0034.555 E2.816
G1  X0109.473 Y0034.789 E2.828
G1  X0109.162 Y0035.583 E2.866
G1  X0109.150 Y0035.609 E2.868
G1  X0109.150 Y0023.919 E3.402
G1  X0108.813 Y0023.185 E3.439
G1  X0108.750 Y0023.066 E3.445
G1  X0108.750 Y0036.462 E4.058
G1  X0108.405 Y0037.111 E4.091
G1  X0108.350 Y0037.201 E4.096
G1  X0108.350 Y0022.327 E4.776
G1  X0107.971 Y0021.702 E4.810
G1  X0107.950 Y0021.672 E4.811
G1  X0107.950 Y0037.856 E5.551
G1  X0107.550 Y0038.436 E5.584
G1  X0107.550 Y0021.090 E6.377
G1  X0107.488 Y0021.000 E6.382
G1  X0107.150 Y0020.564 E6.407
G1  X0107.150 Y0038.963 E7.248
G1  X0106.954 Y0039.215 E7.263
G1  X0106.750 Y0039.448 E7.277
G1  X0106.750 Y0020.079 E8.162
G1  X0106.404 Y0019.683 E8.186
G1  X0106.350 Y0019.628 E8.190
G1  X0106.350 Y0039.900 E9.117
G1  X0105.950 Y0040.307 E9.143
G1  X0105.950 Y0019.219 E10.107
G1  X0105.807 Y0019.074 E10.116
G1  X0105.550 Y0018.839 E10.132
G1  X0105.550 Y0040.688 E11.131
G1  X0105.163 Y0041.039 E11.155
G1  X0105.150 Y0041.050 E11.156
G1  X0105.150 Y0018.478 E12.188
G1  X0104.750 Y0018.154 E12.211
G1  X0104.750 Y0041.373 E13.273
G1  X0104.500 Y0041.575 E13.288
G1  X0104.350 Y0041.683 E13.296
G1  X0104.350 Y0017.845 E14.386
G1  X0103.950 Y0017.557 E14.408
G1  X0103.950 Y0041.970 E15.525
G1  X0103.807 Y0042.072 E15.533
G1  X0103.550 Y0042.235 E15.547
G1  X0103.550 Y0017.292 E16.687
G1  X0103.150 Y0017.038 E16.709
G1  X0103.150 Y0042.489 E17.872
G1  X0103.087 Y0042.529 E17.876
G1  X0102.750 Y0042.716 E17.893
G1  X0102.750 Y0032.188 E18.375
G1  X0102.696 Y0032.358 E18.383
G1  X0102.461 Y0032.936 E18.411
G1  X0102.350 Y0033.156 E18.422
G1  X0102.350 Y0042.939 E18.870
G1  X0102.341 Y0042.943 E18.870
G1  X0101.950 Y0043.132 E18.890
G1  X0101.950 Y0033.867 E19.314
G1  X0101.853 Y0034.025 E19.322
G1  X0101.550 Y0034.439 E19.346
G1  X0101.550 Y0043.324 E19.752
G1  X0101.150 Y0043.490 E19.772
G1  X0101.150 Y0034.915 E20.164
G1  X0101.076 Y0035.000 E20.169
G1  X0100.750 Y0035.321 E20.190
G1  X0100.750 Y0043.655 E20.571
G1  X0100.350 Y0043.807 E20.590
G1  X0100.350 Y0035.672 E20.962
G1  X0100.151 Y0035.837 E20.974
G1  X0099.950 Y0035.978 E20.985
G1  X0099.950 Y0043.960 E21.350
G1  X0099.550 Y0044.113 E21.370
G1  X0099.550 Y0036.249 E21.729
G1  X0099.150 Y0036.484 E21.751
G1  X0099.150 Y0044.265 E22.106
G1  X0098.750 Y0044.418 E22.126
G1  X0098.750 Y0036.682 E22.480
G1  X0098.541 Y0036.783 E22.490
G1  X0098.350 Y0036.857 E22.500
G1  X0098.350 Y0044.571 E22.852
G1  X0097.950 Y0044.723 E22.872
G1  X0097.950 Y0037.010 E23.224
G1  X0097.550 Y0037.128 E23.244
G1  X0097.550 Y0044.876 E23.598
G1  X0097.150 Y0045.029 E23.617
G1  X0097.150 Y0037.227 E23.974
G1  X0096.750 Y0037.311 E23.993
G1  X0096.750 Y0045.181 E24.353
G1  X0096.350 Y0045.334 E24.372
G1  X0096.350 Y0037.360 E24.737
G1  X0096.130 Y0037.387 E24.747
G1  X0095.950 Y0037.395 E24.755
G1  X0095.950 Y0045.487 E25.125
G1  X0095.550 Y0045.639 E25.145
G1  X0095.550 Y0037.412 E25.521
G1  X0095.506 Y0037.413 E25.523
G1  X0095.150 Y0037.399 E25.539
G1  X0095.150 Y0045.792 E25.923
G1  X0094.750 Y0045.945 E25.942
G1  X0094.750 Y0037.372 E26.334
G1  X0094.350 Y0037.323 E26.353
G1  X0094.350 Y0046.097 E26.754
G1  X0093.950 Y0046.250 E26.774
G1  X0093.950 Y0037.248 E27.185
G1  X0093.644 Y0037.185 E27.199
G1  X0093.550 Y0037.157 E27.204
G1  X0093.550 Y0046.403 E27.627
G1  X0093.150 Y0046.555 E27.646
G1  X0093.150 Y0037.040 E28.081
G1  X0093.053 Y0037.011 E28.086
G1  X0092.750 Y0036.895 E28.101
G1  X0092.750 Y0046.708 E28.549
G1  X0092.350 Y0046.861 E28.569
G1  X0092.350 Y0036.730 E29.032
G1  X0091.950 Y0036.538 E29.052
G1  X0091.950 Y0047.014 E29.531
G1  X0091.550 Y0047.166 E29.551
G1  X0091.550 Y0036.308 E30.047
G1  X0091.369 Y0036.202 E30.057
G1  X0091.150 Y0036.049 E30.069
G1  X0091.150 Y0047.319 E30.584
G1  X0090.750 Y0047.472 E30.604
G1  X0090.750 Y0035.754 E31.140
G1  X0090.378 Y0035.446 E31.162
G1  X0090.350 Y0035.418 E31.164
G1  X0090.350 Y0047.624 E31.722
G1  X0089.950 Y0047.777 E31.741
G1  X0089.950 Y0035.027 E32.324
G1  X0089.932 Y0035.009 E32.325
G1  X0089.550 Y0034.569 E32.352
G1  X0089.550 Y0047.930 E32.963
G1  X0089.150 Y0048.082 E32.982
G1  X0089.150 Y0034.029 E33.625
G1  X0088.826 Y0033.503 E33.653
G1  X0088.750 Y0033.352 E33.661
G1  X0088.750 Y0048.235 E34.341
G1  X0088.350 Y0048.388 E34.361
G1  X0088.350 Y0032.473 E35.089
G1  X0088.308 Y0032.369 E35.094
G1  X0088.119 Y0031.774 E35.122
G1  X0087.980 Y0031.166 E35.151
G1  X0087.950 Y0030.959 E35.160
G1  X0087.950 Y0048.540 E35.964
G1  X0087.550 Y0048.693 E35.984
G1  X0087.550 Y0010.835 E37.715
G1  X0087.150 Y0010.683 E37.734
G1  X0087.150 Y0048.846 E39.479
G1  X0086.750 Y0048.998 E39.499
G1  X0086.750 Y0010.530 E41.257
G1  X0086.350 Y0010.377 E41.277
G1  X0086.350 Y0049.151 E43.050
G1  X0085.950 Y0049.304 E43.069
G1  X0085.950 Y0010.225 E44.856
G1  X0085.550 Y0010.072 E44.875
G1  X0085.550 Y0049.456 E46.676
G1  X0085.150 Y0049.609 E46.696
G1  X0085.150 Y0009.919 E48.510
G1  X0084.750 Y0009.767 E48.530
G1  X0084.750 Y0049.762 E50.358
G1  X0084.350 Y0049.914 E50.378
G1  X0084.350 Y0009.614 E52.221
G1  X0083.950 Y0009.461 E52.240
G1  X0083.950 Y0050.067 E54.097
G1  X0083.550 Y0050.220 E54.116
G1  X0083.550 Y0009.309 E55.987
G1  X0083.150 Y0009.156 E56.006
G1  X0083.150 Y0050.372 E57.891
G1  X0082.750 Y0050.525 E57.910
G1  X0082.750 Y0009.003 E59.809
G1  X0082.350 Y0008.851 E59.828
G1  X0082.350 Y0050.678 E61.740
G1  X0081.950 Y0050.830 E61.760
G1  X0081.950 Y0008.698 E63.686
G1  X0081.550 Y0008.546 E63.706
G1  X0081.550 Y0050.983 E65.646
G1  X0081.150 Y0051.136 E65.666
G1  X0081.150 Y0008.393 E67.620
G1  X0080.750 Y0008.240 E67.640
G1  X0080.750 Y0051.288 E69.608
G1  X0080.350 Y0051.441 E69.627
G1  X0080.350 Y0008.088 E71.609
G1  X0079.950 Y0007.935 E71.629
G1  X0079.950 Y0051.594 E73.625
G1  X0079.550 Y0051.747 E73.645
G1  X0079.550 Y0007.782 E75.655
G1  X0079.150 Y0007.630 E75.674
G1  X0079.150 Y0051.899 E77.698
G1  X0078.750 Y0052.052 E77.718
G1  X0078.750 Y0007.477 E79.756
G1  X0078.350 Y0007.324 E79.775
G1  X0078.350 Y0052.205 E81.827
G1  X0077.950 Y0052.357 E81.847
G1  X0077.950 Y0032.726 E82.744
G1  X0077.848 Y0033.447 E82.778
G1  X0077.651 Y0034.491 E82.826
G1  X0077.550 Y0034.915 E82.846
G1  X0077.550 Y0052.510 E83.651
G1  X0077.150 Y0052.663 E83.670
G1  X0077.150 Y0036.409 E84.413
G1  X0077.111 Y0036.544 E84.420
G1  X0076.769 Y0037.550 E84.468
G1  X0076.750 Y0037.599 E84.471
G1  X0076.750 Y0052.815 E85.167
G1  X0076.350 Y0052.968 E85.186
G1  X0076.350 Y0038.608 E85.843
G1  X0075.950 Y0039.500 E85.887
G1  X0075.950 Y0053.121 E86.510
G1  X0075.550 Y0053.273 E86.530
G1  X0075.550 Y0040.292 E87.123
G1  X0075.467 Y0040.455 E87.132
G1  X0075.150 Y0041.016 E87.161
G1  X0075.150 Y0053.426 E87.728
G1  X0074.750 Y0053.579 E87.748
G1  X0074.750 Y0041.688 E88.292
G1  X0074.379 Y0042.278 E88.323
G1  X0074.350 Y0042.319 E88.326
G1  X0074.350 Y0053.731 E88.848
G1  X0073.950 Y0053.884 E88.867
G1  X0073.950 Y0042.893 E89.370
G1  X0073.771 Y0043.149 E89.384
G1  X0073.550 Y0043.437 E89.400
G1  X0073.550 Y0054.037 E89.885
G1  X0073.150 Y0054.189 E89.905
G1  X0073.150 Y0043.957 E90.373
G1  X0073.124 Y0043.991 E90.374
G1  X0072.750 Y0044.432 E90.401
G1  X0072.750 Y0054.342 E90.854
G1  X0072.350 Y0054.495 E90.874
G1  X0072.350 Y0044.895 E91.312
G1  X0071.950 Y0045.325 E91.339
G1  X0071.950 Y0054.647 E91.766
G1  X0071.550 Y0054.800 E91.785
G1  X0071.550 Y0045.739 E92.199
G1  X0071.150 Y0046.130 E92.225
G1  X0071.150 Y0054.953 E92.628
G1  X0070.750 Y0055.105 E92.648
G1  X0070.750 Y0046.504 E93.041
G1  X0070.350 Y0046.860 E93.066
G1  X0070.350 Y0055.258 E93.450
G1  X0069.950 Y0055.411 E93.469
G1  X0069.950 Y0047.199 E93.845
G1  X0069.550 Y0047.523 E93.868
G1  X0069.550 Y0055.563 E94.236
G1  X0069.150 Y0055.716 E94.255
G1  X0069.150 Y0047.833 E94.616
G1  X0068.750 Y0048.127 E94.639
G1  X0068.750 Y0055.869 E94.992
G1  X0068.350 Y0056.021 E95.012
G1  X0068.350 Y0048.411 E95.360
G1  X0067.950 Y0048.677 E95.382
G1  X0067.950 Y0056.174 E95.725
G1  X0067.550 Y0056.327 E95.744
G1  X0067.550 Y0048.940 E96.082
G1  X0067.150 Y0049.180 E96.103
G1  X0067.150 Y0056.480 E96.437
G1  X0066.750 Y0056.632 E96.457
G1  X0066.750 Y0049.420 E96.786
G1  X0066.686 Y0049.458 E96.790
G1  X0066.350 Y0049.639 E96.807
G1  X0066.350 Y0056.785 E97.134
G1  X0065.950 Y0056.938 E97.154
G1  X0065.950 Y0049.854 E97.477
G1  X0065.750 Y0049.961 E97.488
G1  X0065.550 Y0050.057 E97.498
G1  X0065.550 Y0057.082 E97.819
G1  X0065.150 Y0057.226 E97.839
G1  X0065.150 Y0050.248 E98.158
G1  X0064.792 Y0050.419 E98.176
G1  X0064.750 Y0050.437 E98.178
G1  X0064.750 Y0057.368 E98.495
G1  X0064.350 Y0057.494 E98.514
G1  X0064.350 Y0050.606 E98.829
G1  X0063.950 Y0050.775 E98.849
G1  X0063.950 Y0057.620 E99.162
G1  X0063.666 Y0057.709 E99.175
G1  X0063.550 Y0057.740 E99.181
G1  X0063.550 Y0050.929 E99.492
G1  X0063.150 Y0051.076 E99.512
G1  X0063.150 Y0057.848 E99.821
G1  X0062.750 Y0057.956 E99.840
G1  X0062.750 Y0051.220 E100.148
G1  X0062.350 Y0051.346 E100.167
G1  X0062.350 Y0058.057 E100.474
G1  X0061.950 Y0058.148 E100.493
G1  X0061.950 Y0051.472 E100.798
G1  X0061.804 Y0051.518 E100.805
G1  X0061.550 Y0051.585 E100.817
G1  X0061.550 Y0058.239 E101.121
G1  X0061.373 Y0058.279 E101.130
G1  X0061.150 Y0058.320 E101.140
G1  X0061.150 Y0051.691 E101.443
G1  X0060.778 Y0051.790 E101.461
G1  X0060.750 Y0051.796 E101.462
G1  X0060.750 Y0058.394 E101.764
G1  X0060.350 Y0058.468 E101.782
G1  X0060.350 Y0051.882 E102.083
G1  X0059.950 Y0051.968 E102.102
G1  X0059.950 Y0058.531 E102.402
G1  X0059.550 Y0058.588 E102.421
G1  X0059.550 Y0052.044 E102.720
G1  X0059.150 Y0052.111 E102.738
G1  X0059.150 Y0058.646 E103.037
G1  X0059.041 Y0058.661 E103.042
G1  X0058.750 Y0058.691 E103.055
G1  X0058.750 Y0052.178 E103.353
G1  X0058.692 Y0052.187 E103.356
G1  X0058.350 Y0052.228 E103.372
G1  X0058.350 Y0058.732 E103.669
G1  X0057.950 Y0058.773 E103.687
G1  X0057.950 Y0052.275 E103.985
G1  X0057.638 Y0052.312 E103.999
G1  X0057.550 Y0052.318 E104.003
G1  X0057.550 Y0058.800 E104.299
G1  X0057.150 Y0058.825 E104.318
G1  X0057.150 Y0052.347 E104.614
G1  X0056.750 Y0052.375 E104.632
G1  X0056.750 Y0058.849 E104.928
G1  X0056.686 Y0058.853 E104.931
G1  X0056.350 Y0058.860 E104.946
G1  X0056.350 Y0052.393 E105.242
G1  X0055.950 Y0052.403 E105.260
G1  X0055.950 Y0058.868 E105.556
G1  X0055.550 Y0058.877 E105.574
G1  X0055.550 Y0052.412 E105.870
G1  X0055.517 Y0052.413 E105.871
G1  X0055.150 Y0052.405 E105.888
G1  X0055.150 Y0058.870 E106.184
G1  X0054.750 Y0058.862 E106.202
G1  X0054.750 Y0052.396 E106.498
G1  X0054.455 Y0052.389 E106.511
G1  X0054.350 Y0052.382 E106.516
G1  X0054.350 Y0058.854 E106.812
G1  X0054.323 Y0058.854 E106.813
G1  X0053.950 Y0058.831 E106.830
G1  X0053.950 Y0052.354 E107.126
G1  X0053.550 Y0052.326 E107.145
G1  X0053.550 Y0058.807 E107.441
G1  X0053.150 Y0058.782 E107.459
G1  X0053.150 Y0052.286 E107.756
G1  X0052.750 Y0052.240 E107.775
G1  X0052.750 Y0058.742 E108.072
G1  X0052.350 Y0058.702 E108.090
G1  X0052.350 Y0052.193 E108.388
G1  X0052.341 Y0052.192 E108.388
G1  X0051.950 Y0052.127 E108.407
G1  X0051.950 Y0058.660 E108.705
G1  X0051.550 Y0058.603 E108.724
G1  X0051.550 Y0052.061 E109.023
G1  X0051.293 Y0052.019 E109.035
G1  X0051.150 Y0051.988 E109.041
G1  X0051.150 Y0058.545 E109.341
G1  X0050.799 Y0058.495 E109.357
G1  X0050.750 Y0058.486 E109.360
G1  X0050.750 Y0051.903 E109.661
G1  X0050.350 Y0051.818 E109.679
G1  X0050.350 Y0058.413 E109.981
G1  X0049.950 Y0058.339 E109.999
G1  X0049.950 Y0051.717 E110.302
G1  X0049.550 Y0051.612 E110.321
G1  X0049.550 Y0058.261 E110.625
G1  X0049.150 Y0058.170 E110.644
G1  X0049.150 Y0051.503 E110.949
G1  X0048.750 Y0051.377 E110.968
G1  X0048.750 Y0058.080 E111.274
G1  X0048.484 Y0058.019 E111.287
G1  X0048.350 Y0057.983 E111.293
G1  X0048.350 Y0051.252 E111.601
G1  X0048.214 Y0051.209 E111.607
G1  X0047.950 Y0051.112 E111.620
G1  X0047.950 Y0057.875 E111.929
G1  X0047.550 Y0057.767 E111.948
G1  X0047.550 Y0050.966 E112.259
G1  X0047.217 Y0050.844 E112.275
G1  X0047.150 Y0050.816 E112.279
G1  X0047.150 Y0057.651 E112.591
G1  X0046.750 Y0057.525 E112.610
G1  X0046.750 Y0050.648 E112.925
G1  X0046.350 Y0050.480 E112.945
G1  X0046.350 Y0057.399 E113.261
G1  X0046.216 Y0057.357 E113.268
G1  X0045.950 Y0057.262 E113.280
G1  X0045.950 Y0050.295 E113.599
G1  X0045.550 Y0050.105 E113.619
G1  X0045.550 Y0057.119 E113.940
G1  X0045.150 Y0056.975 E113.959
G1  X0045.150 Y0049.907 E114.282
G1  X0044.750 Y0049.692 E114.303
G1  X0044.750 Y0056.823 E114.629
G1  X0044.350 Y0056.671 E114.649
G1  X0044.350 Y0049.478 E114.978
G1  X0044.343 Y0049.475 E114.978
G1  X0043.950 Y0049.240 E114.999
G1  X0043.950 Y0056.518 E115.332
G1  X0043.550 Y0056.365 E115.351
G1  X0043.550 Y0049.001 E115.688
G1  X0043.432 Y0048.930 E115.694
G1  X0043.150 Y0048.743 E115.710
G1  X0043.150 Y0056.212 E116.051
G1  X0042.750 Y0056.060 E116.071
G1  X0042.750 Y0048.478 E116.417
G1  X0042.547 Y0048.344 E116.429
G1  X0042.350 Y0048.199 E116.440
G1  X0042.350 Y0055.907 E116.792
G1  X0041.950 Y0055.754 E116.812
G1  X0041.950 Y0047.906 E117.171
G1  X0041.690 Y0047.716 E117.185
G1  X0041.550 Y0047.603 E117.194
G1  X0041.550 Y0055.602 E117.559
G1  X0041.150 Y0055.449 E117.579
G1  X0041.150 Y0047.280 E117.952
G1  X0040.864 Y0047.049 E117.969
G1  X0040.750 Y0046.948 E117.976
G1  X0040.750 Y0055.296 E118.358
G1  X0040.350 Y0055.144 E118.377
G1  X0040.350 Y0046.593 E118.768
G1  X0040.069 Y0046.344 E118.785
G1  X0039.950 Y0046.227 E118.793
G1  X0039.950 Y0054.991 E119.194
G1  X0039.550 Y0054.838 E119.213
G1  X0039.550 Y0045.837 E119.625
G1  X0039.309 Y0045.602 E119.640
G1  X0039.150 Y0045.431 E119.651
G1  X0039.150 Y0054.686 E120.074
G1  X0038.750 Y0054.533 E120.094
G1  X0038.750 Y0045.003 E120.529
G1  X0038.585 Y0044.826 E120.540
G1  X0038.350 Y0044.549 E120.557
G1  X0038.350 Y0054.380 E121.007
G1  X0037.950 Y0054.228 E121.026
G1  X0037.950 Y0044.078 E121.490
G1  X0037.897 Y0044.017 E121.494
G1  X0037.550 Y0043.566 E121.520
G1  X0037.550 Y0054.075 E122.000
G1  X0037.150 Y0053.922 E122.020
G1  X0037.150 Y0043.034 E122.518
G1  X0036.750 Y0042.462 E122.550
G1  X0036.750 Y0053.769 E123.067
G1  X0036.350 Y0053.617 E123.086
G1  X0036.350 Y0041.846 E123.624
G1  X0036.073 Y0041.408 E123.648
G1  X0035.950 Y0041.191 E123.659
G1  X0035.950 Y0053.464 E124.221
G1  X0035.550 Y0053.311 E124.240
G1  X0035.550 Y0040.487 E124.826
G1  X0035.548 Y0040.485 E124.827
G1  X0035.150 Y0039.699 E124.867
G1  X0035.150 Y0053.159 E125.482
G1  X0034.750 Y0053.006 E125.502
G1  X0034.750 Y0038.830 E126.150
G1  X0034.632 Y0038.569 E126.163
G1  X0034.350 Y0037.853 E126.198
G1  X0034.350 Y0052.853 E126.884
G1  X0033.950 Y0052.701 E126.904
G1  X0033.950 Y0036.724 E127.634
G1  X0033.899 Y0036.576 E127.641
G1  X0033.604 Y0035.556 E127.690
G1  X0033.550 Y0035.331 E127.700
G1  X0033.550 Y0052.548 E128.488
G1  X0033.150 Y0052.395 E128.507
G1  X0033.150 Y0033.426 E129.374
G1  E127.374 F2400

(Raster 2)
G92 E0
G1  X0102.750 Y0027.335 F2400
G1  E2.00000 F2400
G1  X0102.750 Y0016.811 E2.481 F2400
G1  X0102.357 Y0016.592 E2.502
G1  X0102.350 Y0016.588 E2.502
G1  X0102.350 Y0026.363 E2.949
G1  X0102.320 Y0026.299 E2.952
G1  X0102.015 Y0025.755 E2.981
G1  X0101.950 Y0025.657 E2.986
G1  X0101.950 Y0016.395 E3.410
G1  X0101.589 Y0016.220 E3.428
G1  X0101.550 Y0016.203 E3.430
G1  X0101.550 Y0025.090 E3.836
G1  X0101.277 Y0024.749 E3.856
G1  X0101.150 Y0024.614 E3.865
G1  X0101.150 Y0016.037 E4.257
G1  X0100.800 Y0015.892 E4.274
G1  X0100.750 Y0015.873 E4.277
G1  X0100.750 Y0024.205 E4.658
