; generated by Slic3r 1.3.1-dev (Build 8c69278) on 2021-12-11 at 10:08:16

; external perimeters extrusion width = 0.45mm (3.99mm^3/s)
; perimeters extrusion width = 0.45mm (3.99mm^3/s)
; infill extrusion width = 0.45mm (3.99mm^3/s)
; solid infill extrusion width = 0.45mm (4.99mm^3/s)
; top infill extrusion width = 0.45mm (3.00mm^3/s)
; support material extrusion width = 0.45mm (4.99mm^3/s)

M107
G92 E0
M104 S205 ; set temperature
G28 ; home all axes
G1 Z5 F5000 ; lift nozzle

; Filament gcode

M109 S205 ; set temperature and wait for it to be reached
G21 ; set units to millimeters
G90 ; use absolute coordinates
M82 ; use absolute distances for extrusion
G92 E0
G1 Z0.250 F7800.000
G1 E-2.00000 F2400.00000
G92 E0
G1 X134.031 Y145.133 F7800.000
G1 E2.00000 F2400.00000
G1 F2400.000
G1 X134.031 Y145.539 E2.01734
G1 X136.573 Y145.539 E2.12603
G1 X136.573 Y145.944 E2.14337
G1 X134.031 Y145.944 E2.25205
G1 X134.031 Y146.350 E2.26939
G1 X136.573 Y146.350 E2.37808
G1 X136.573 Y146.755 E2.39542
G1 X134.031 Y146.755 E2.50410
G1 X134.031 Y147.161 E2.52144
G1 X136.573 Y147.161 E2.63013
G1 X136.573 Y147.566 E2.64747
G1 X134.031 Y147.566 E2.75615
G1 X134.031 Y147.972 E2.77349
G1 X136.573 Y147.972 E2.88218
G1 X136.573 Y148.378 E2.89952
G1 X134.031 Y148.378 E3.00820
G1 X134.031 Y148.783 E3.02554
G1 X136.573 Y148.783 E3.13423
G1 X136.573 Y149.189 E3.15157
G1 X134.031 Y149.189 E3.26025
G1 X134.031 Y149.594 E3.27759
G1 X136.573 Y149.594 E3.38628
G1 X136.573 Y150.000 E3.40362
G1 X134.031 Y150.000 E3.51230
G1 X134.031 Y150.406 E3.52964
G1 X136.573 Y150.406 E3.63833
G1 X136.573 Y150.811 E3.65567
G1 X134.031 Y150.811 E3.76435
G1 X134.031 Y151.217 E3.78169
G1 X136.573 Y151.217 E3.89038
G1 X136.573 Y151.622 E3.90772
G1 X134.031 Y151.622 E4.01640
G1 X134.031 Y152.028 E4.03374
G1 X136.573 Y152.028 E4.14243
G1 X136.573 Y152.434 E4.15977
G1 X134.031 Y152.434 E4.26846
G1 X134.031 Y152.839 E4.28580
G1 X136.573 Y152.839 E4.39448
G1 X136.573 Y153.245 E4.41182
G1 X134.031 Y153.245 E4.52051
G1 X134.031 Y153.650 E4.53785
G1 X136.573 Y153.650 E4.64653
G1 X136.573 Y154.056 E4.66387
G1 X134.031 Y154.056 E4.77256
G1 X134.031 Y154.461 E4.78990
G1 X136.573 Y154.461 E4.89858
G1 X136.573 Y154.867 E4.91592
G1 X134.031 Y154.867 E5.02461
G1 E3.02461 F2400.00000
G92 E0
G1 X134.031 Y156.895 F7800.000
G1 E2.00000 F2400.00000
G1 F2400.000
G1 X165.969 Y156.895 E3.36546
G1 X165.969 Y156.489 E3.38280
G1 X134.031 Y156.489 E4.74825
G1 X134.031 Y156.084 E4.76559
G1 X165.969 Y156.084 E6.13105
G1 X165.969 Y155.678 E6.14839
G1 X134.031 Y155.678 E7.51385
G1 X134.031 Y155.273 E7.53119
G1 X165.969 Y155.273 E8.89664
G1 X165.969 Y154.867 E8.91398
G1 X163.470 Y154.867 E9.02083
G1 X163.470 Y154.461 E9.03817
G1 X165.969 Y154.461 E9.14501
G1 X165.969 Y154.056 E9.16235
G1 X163.470 Y154.056 E9.26919
G1 X163.470 Y153.650 E9.28653
G1 X165.969 Y153.650 E9.39338
G1 X165.969 Y153.245 E9.41072
G1 X163.470 Y153.245 E9.51756
G1 X163.470 Y152.839 E9.53490
G1 X165.969 Y152.839 E9.64175
G1 X165.969 Y152.434 E9.65909
G1 X163.470 Y152.434 E9.76593
G1 X163.470 Y152.028 E9.78327
G1 X165.969 Y152.028 E9.89012
G1 X165.969 Y151.622 E9.90746
G1 X163.470 Y151.622 E10.01430
G1 X163.470 Y151.217 E10.03164
G1 X165.969 Y151.217 E10.13849
G1 X165.969 Y150.811 E10.15583
G1 X163.470 Y150.811 E10.26267
G1 X163.470 Y150.406 E10.28001
G1 X165.969 Y150.406 E10.38685
G1 X165.969 Y150.000 E10.40419
G1 X163.470 Y150.000 E10.51104
G1 X163.470 Y149.594 E10.52838
G1 X165.969 Y149.594 E10.63522
G1 X165.969 Y149.189 E10.65256
G1 X163.470 Y149.189 E10.75941
G1 X163.470 Y148.783 E10.77675
G1 X165.969 Y148.783 E10.88359
G1 X165.969 Y148.378 E10.90093
G1 X163.470 Y148.378 E11.00778
G1 X163.470 Y147.972 E11.02512
G1 X165.969 Y147.972 E11.13196
G1 X165.969 Y147.566 E11.14930
G1 X163.470 Y147.566 E11.25614
G1 X163.470 Y147.161 E11.27348
G1 X165.969 Y147.161 E11.38033
G1 X165.969 Y146.755 E11.39767
G1 X163.470 Y146.755 E11.50451
G1 X163.470 Y146.350 E11.52185
G1 X165.969 Y146.350 E11.62870
G1 X165.969 Y145.944 E11.64604
G1 X163.470 Y145.944 E11.75288
G1 X163.470 Y145.539 E11.77022
G1 X165.969 Y145.539 E11.87707
G1 X165.969 Y145.133 E11.89441
G1 X163.470 Y145.133 E12.00125
G1 X163.470 Y144.882 E12.01196
G1 X159.980 Y144.882 E12.16116
G1 X159.980 Y145.133 E12.17188
G1 X157.450 Y145.133 E12.28004
G1 X157.450 Y144.882 E12.29075
G1 X154.310 Y144.882 E12.42502
G1 X154.310 Y145.133 E12.43573
G1 X151.780 Y145.133 E12.54389
G1 X151.780 Y144.882 E12.55461
G1 X148.290 Y144.882 E12.70381
G1 X148.290 Y145.133 E12.71452
G1 X145.760 Y145.133 E12.82268
G1 X145.760 Y144.882 E12.83340
G1 X142.593 Y144.882 E12.96881
G1 X142.593 Y145.133 E12.97952
G1 X140.063 Y145.133 E13.08768
G1 X140.063 Y144.882 E13.09840
G1 X136.573 Y144.882 E13.24760
G1 X136.573 Y145.133 E13.25831
G1 X134.031 Y145.133 E13.36700
G1 X134.031 Y144.727 E13.38434
G1 X165.969 Y144.727 E14.74979
G1 X165.969 Y144.322 E14.76713
G1 X134.031 Y144.322 E16.13259
G1 X134.031 Y143.916 E16.14993
G1 X165.969 Y143.916 E17.51539
G1 X165.969 Y143.511 E17.53273
G1 X134.031 Y143.511 E18.89818
G1 X134.031 Y143.105 E18.91552
G1 X165.969 Y143.105 E20.28098
G1 E18.28098 F2400.00000
G92 E0
G1 X157.450 Y145.133 F7800.000
G1 E2.00000 F2400.00000
G1 F2400.000
G1 X157.450 Y145.539 E2.01734
G1 X159.980 Y145.539 E2.12550
G1 X159.980 Y145.944 E2.14284
G1 X157.450 Y145.944 E2.25100
G1 X157.450 Y146.350 E2.26834
G1 X159.980 Y146.350 E2.37651
G1 X159.980 Y146.755 E2.39385
G1 X157.450 Y146.755 E2.50201
G1 X157.450 Y147.161 E2.51935
G1 X159.980 Y147.161 E2.62751
G1 X159.980 Y147.566 E2.64485
G1 X157.450 Y147.566 E2.75301
G1 X157.450 Y147.972 E2.77035
G1 X159.980 Y147.972 E2.87851
G1 X159.980 Y148.378 E2.89585
G1 X157.450 Y148.378 E3.00402
G1 X157.450 Y148.783 E3.02136
G1 X159.980 Y148.783 E3.12952
G1 X159.980 Y149.189 E3.14686
G1 X157.450 Y149.189 E3.25502
G1 X157.450 Y149.594 E3.27236
G1 X159.980 Y149.594 E3.38052
G1 X159.980 Y150.000 E3.39786
G1 X157.450 Y150.000 E3.50602
G1 X157.450 Y150.406 E3.52336
G1 X159.980 Y150.406 E3.63153
G1 X159.980 Y150.811 E3.64886
G1 X157.450 Y150.811 E3.75703
G1 X157.450 Y151.217 E3.77437
G1 X159.980 Y151.217 E3.88253
G1 X159.980 Y151.622 E3.89987
G1 X157.450 Y151.622 E4.00803
G1 X157.450 Y152.028 E4.02537
G1 X159.980 Y152.028 E4.13353
G1 X159.980 Y152.434 E4.15087
G1 X157.450 Y152.434 E4.25903
G1 X157.450 Y152.839 E4.27637
G1 X159.980 Y152.839 E4.38454
G1 X159.980 Y153.245 E4.40188
G1 X157.450 Y153.245 E4.51004
G1 X157.450 Y153.650 E4.52738
G1 X159.980 Y153.650 E4.63554
G1 X159.980 Y154.056 E4.65288
G1 X157.450 Y154.056 E4.76104
G1 X157.450 Y154.461 E4.77838
G1 X159.980 Y154.461 E4.88654
G1 X159.980 Y154.867 E4.90388
G1 X157.450 Y154.867 E5.01205
G1 E3.01205 F2400.00000
G92 E0
G1 X151.780 Y154.867 F7800.000
G1 E2.00000 F2400.00000
G1 F2400.000
G1 X154.310 Y154.867 E2.10816
G1 X154.310 Y154.461 E2.12550
G1 X151.780 Y154.461 E2.23366
G1 X151.780 Y154.056 E2.25100
G1 X154.310 Y154.056 E2.35917
G1 X154.310 Y153.650 E2.37651
G1 X151.780 Y153.650 E2.48467
G1 X151.780 Y153.245 E2.50201
G1 X154.310 Y153.245 E2.61017
G1 X154.310 Y152.839 E2.62751
G1 X151.780 Y152.839 E2.73567
G1 X151.780 Y152.434 E2.75301
G1 X154.310 Y152.434 E2.86117
G1 X154.310 Y152.028 E2.87851
G1 X151.780 Y152.028 E2.98667
G1 X151.780 Y151.622 E3.00401
G1 X154.310 Y151.622 E3.11218
G1 X154.310 Y151.217 E3.12952
G1 X151.780 Y151.217 E3.23768
G1 X151.780 Y150.811 E3.25502
G1 X154.310 Y150.811 E3.36318
G1 X154.310 Y150.406 E3.38052
G1 X151.780 Y150.406 E3.48868
G1 X151.780 Y150.000 E3.50602
G1 X154.310 Y150.000 E3.61418
G1 X154.310 Y149.594 E3.63152
G1 X151.780 Y149.594 E3.73969
G1 X151.780 Y149.189 E3.75703
G1 X154.310 Y149.189 E3.86519
G1 X154.310 Y148.783 E3.88253
G1 X151.780 Y148.783 E3.99069
G1 X151.780 Y148.378 E4.00803
G1 X154.310 Y148.378 E4.11619
G1 X154.310 Y147.972 E4.13353
G1 X151.780 Y147.972 E4.24169
G1 X151.780 Y147.566 E4.25903
G1 X154.310 Y147.566 E4.36720
G1 X154.310 Y147.161 E4.38453
G1 X151.780 Y147.161 E4.49270
G1 X151.780 Y146.755 E4.51004
G1 X154.310 Y146.755 E4.61820
G1 X154.310 Y146.350 E4.63554
G1 X151.780 Y146.350 E4.74370
G1 X151.780 Y145.944 E4.76104
G1 X154.310 Y145.944 E4.86920
G1 X154.310 Y145.539 E4.88654
G1 X151.780 Y145.539 E4.99470
G1 X151.780 Y145.133 E5.01204
G1 E3.01204 F2400.00000
G92 E0
G1 X145.760 Y145.133 F7800.000
G1 E2.00000 F2400.00000
G1 F2400.000
G1 X145.760 Y145.539 E2.01734
G1 X148.290 Y145.539 E2.12550
G1 X148.290 Y145.944 E2.14284
G1 X145.760 Y145.944 E2.25100
G1 X145.760 Y146.350 E2.26834
G1 X148.290 Y146.350 E2.37651
G1 X148.290 Y146.755 E2.39385
G1 X145.760 Y146.755 E2.50201
G1 X145.760 Y147.161 E2.51935
G1 X148.290 Y147.161 E2.62751
G1 X148.290 Y147.566 E2.64485
G1 X145.760 Y147.566 E2.75301
G1 X145.760 Y147.972 E2.77035
G1 X148.290 Y147.972 E2.87851
G1 X148.290 Y148.378 E2.89585
G1 X145.760 Y148.378 E3.00401
G1 X145.760 Y148.783 E3.02135
G1 X148.290 Y148.783 E3.12952
G1 X148.290 Y149.189 E3.14686
G1 X145.760 Y149.189 E3.25502
G1 X145.760 Y149.594 E3.27236
G1 X148.290 Y149.594 E3.38052
G1 X148.290 Y150.000 E3.39786
G1 X145.760 Y150.000 E3.50602
G1 X145.760 Y150.406 E3.52336
G1 X148.290 Y150.406 E3.63152
G1 X148.290 Y150.811 E3.64886
G1 X145.760 Y150.811 E3.75703
G1 X145.760 Y151.217 E3.77437
G1 X148.290 Y151.217 E3.88253
G1 X148.290 Y151.622 E3.89987
G1 X145.760 Y151.622 E4.00803
G1 X145.760 Y152.028 E4.02537
G1 X148.290 Y152.028 E4.13353
G1 X148.290 Y152.434 E4.15087
G1 X145.760 Y152.434 E4.25903
G1 X145.760 Y152.839 E4.27637
G1 X148.290 Y152.839 E4.38453
G1 X148.290 Y153.245 E4.40187
G1 X145.760 Y153.245 E4.51004
G1 X145.760 Y153.650 E4.52738
G1 X148.290 Y153.650 E4.63554
G1 X148.290 Y154.056 E4.65288
G1 X145.760 Y154.056 E4.76104
G1 X145.760 Y154.461 E4.77838
G1 X148.290 Y154.461 E4.88654
G1 X148.290 Y154.867 E4.90388
G1 X145.760 Y154.867 E5.01204
G1 E3.01204 F2400.00000
G92 E0
G1 X140.063 Y154.867 F7800.000
G1 E2.00000 F2400.00000
G1 F2400.000
G1 X142.593 Y154.867 E2.10816
G1 X142.593 Y154.461 E2.12550
G1 X140.063 Y154.461 E2.23366
G1 X140.063 Y154.056 E2.25100
G1 X142.593 Y154.056 E2.35917
G1 X142.593 Y153.650 E2.37651
G1 X140.063 Y153.650 E2.48467
G1 X140.063 Y153.245 E2.50201
G1 X142.593 Y153.245 E2.61017
G1 X142.593 Y152.839 E2.62751
G1 X140.063 Y152.839 E2.73567
G1 X140.063 Y152.434 E2.75301
G1 X142.593 Y152.434 E2.86117
G1 X142.593 Y152.028 E2.87851
G1 X140.063 Y152.028 E2.98667
G1 X140.063 Y151.622 E3.00401
G1 X142.593 Y151.622 E3.11218
G1 X142.593 Y151.217 E3.12952
G1 X140.063 Y151.217 E3.23768
G1 X140.063 Y150.811 E3.25502
G1 X142.593 Y150.811 E3.36318
G1 X142.593 Y150.406 E3.38052
G1 X140.063 Y150.406 E3.48868
G1 X140.063 Y150.000 E3.50602
G1 X142.593 Y150.000 E3.61418
G1 X142.593 Y149.594 E3.63152
G1 X140.063 Y149.594 E3.73969
G1 X140.063 Y149.189 E3.75703
G1 X142.593 Y149.189 E3.86519
G1 X142.593 Y148.783 E3.88253
G1 X140.063 Y148.783 E3.99069
G1 X140.063 Y148.378 E4.00803
G1 X142.593 Y148.378 E4.11619
G1 X142.593 Y147.972 E4.13353
G1 X140.063 Y147.972 E4.24169
G1 X140.063 Y147.566 E4.25903
G1 X142.593 Y147.566 E4.36720
G1 X142.593 Y147.161 E4.38453
G1 X140.063 Y147.161 E4.49270
G1 X140.063 Y146.755 E4.51004
G1 X142.593 Y146.755 E4.61820
G1 X142.593 Y146.350 E4.63554
G1 X140.063 Y146.350 E4.74370
G1 X140.063 Y145.944 E4.76104
G1 X142.593 Y145.944 E4.86920
G1 X142.593 Y145.539 E4.88654
G1 X140.063 Y145.539 E4.99470
G1 X140.063 Y145.133 E5.01204
G1 Z0.250 F7800.000
G1 Z0.500 F7800.000
G1 X145.755 Y144.882 F7800.000
G1 F2400.000
G1 X145.755 Y143.105 E5.08804
G1 X145.351 Y143.105 E5.10532
G1 X145.351 Y144.882 E5.18131
G1 X144.946 Y144.882 E5.19860
G1 X144.946 Y143.105 E5.27459
G1 X144.542 Y143.105 E5.29187
G1 X144.542 Y144.882 E5.36786
G1 X144.138 Y144.882 E5.38515
G1 X144.138 Y143.105 E5.46114
G1 X143.734 Y143.105 E5.47842
G1 X143.734 Y144.882 E5.55442
G1 X143.329 Y144.882 E5.57170
G1 X143.329 Y143.105 E5.64769
G1 X142.925 Y143.105 E5.66498
G1 X142.925 Y144.882 E5.74097
G1 X142.593 Y144.882 E5.75518
G1 X142.593 Y155.091 E6.19161
G1 X142.925 Y155.091 E6.20582
G1 X139.691 Y156.895 F7800.000
G1 F2400.000
G1 X139.691 Y155.091 E6.28296
G1 X139.287 Y155.091 E6.30024
G1 X139.287 Y156.895 E6.37738
G1 X138.882 Y156.895 E6.39467
G1 X138.882 Y155.091 E6.47181
G1 X138.478 Y155.091 E6.48909
G1 X138.478 Y156.895 E6.56623
G1 X138.074 Y156.895 E6.58352
G1 X138.074 Y155.091 E6.66066
G1 X137.669 Y155.091 E6.67794
G1 X137.669 Y156.895 E6.75508
G1 X137.265 Y156.895 E6.77237
G1 X137.265 Y155.091 E6.84951
G1 X136.861 Y155.091 E6.86679
G1 X136.861 Y156.895 E6.94393
G1 X136.457 Y156.895 E6.96122
G1 X148.585 Y155.091 F7800.000
G1 F2400.000
G1 X148.290 Y155.091 E6.97383
G1 X148.290 Y144.882 E7.41026
G1 X148.585 Y144.882 E7.42287
G1 X148.585 Y143.105 E7.49887
G1 X148.989 Y143.105 E7.51615
G1 X148.989 Y144.882 E7.59214
G1 X149.394 Y144.882 E7.60943
G1 X149.394 Y143.105 E7.68542
G1 X149.798 Y143.105 E7.70270
G1 X149.798 Y144.882 E7.77869
G1 X150.202 Y144.882 E7.79598
G1 X150.202 Y143.105 E7.87197
G1 X150.606 Y143.105 E7.88925
G1 X150.606 Y144.882 E7.96525
G1 X151.011 Y144.882 E7.98253
G1 X151.011 Y143.105 E8.05852
G1 X151.415 Y143.105 E8.07581
G1 X151.415 Y144.882 E8.15180
G1 X157.075 Y144.882 F7800.000
G1 F2400.000
G1 X157.075 Y143.105 E8.22779
G1 X156.671 Y143.105 E8.24507
G1 X156.671 Y144.882 E8.32107
G1 X156.266 Y144.882 E8.33835
G1 X156.266 Y143.105 E8.41434
G1 X155.862 Y143.105 E8.43163
G1 X155.862 Y144.882 E8.50762
G1 X155.458 Y144.882 E8.52490
G1 X155.458 Y143.105 E8.60089
G1 X155.054 Y143.105 E8.61818
G1 X155.054 Y144.882 E8.69417
G1 X154.649 Y144.882 E8.71145
G1 X154.649 Y143.105 E8.78744
G1 X154.245 Y143.105 E8.80473
G1 X154.245 Y156.895 E9.39430
G1 X153.841 Y156.895 E9.41158
G1 X153.841 Y143.105 E10.00115
G1 X153.436 Y143.105 E10.01843
G1 X153.436 Y156.895 E10.60800
G1 X153.032 Y156.895 E10.62528
G1 X153.032 Y143.105 E11.21485
G1 X152.628 Y143.105 E11.23214
G1 X152.628 Y156.895 E11.82170
G1 X152.224 Y156.895 E11.83899
G1 X152.224 Y143.105 E12.42855
G1 X151.819 Y143.105 E12.44584
G1 X151.819 Y156.895 E13.03541
G1 X151.415 Y156.895 E13.05269
G1 X151.415 Y155.091 E13.12983
G1 X151.011 Y155.091 E13.14712
G1 X151.011 Y156.895 E13.22426
G1 X150.606 Y156.895 E13.24154
G1 X150.606 Y155.091 E13.31868
G1 X150.202 Y155.091 E13.33596
G1 X150.202 Y156.895 E13.41311
G1 X149.798 Y156.895 E13.43039
G1 X149.798 Y155.091 E13.50753
G1 X149.394 Y155.091 E13.52481
G1 X149.394 Y156.895 E13.60195
G1 X148.989 Y156.895 E13.61924
G1 X148.989 Y155.091 E13.69638
G1 X148.585 Y155.091 E13.71366
G1 X148.585 Y156.895 E13.79080
G1 X148.181 Y156.895 E13.80809
G1 X148.181 Y143.105 E14.39766
G1 X147.776 Y143.105 E14.41494
G1 X147.776 Y156.895 E15.00451
G1 X147.372 Y156.895 E15.02179
G1 X147.372 Y143.105 E15.61136
G1 X146.968 Y143.105 E15.62864
G1 X146.968 Y156.895 E16.21821
G1 X146.564 Y156.895 E16.23550
G1 X146.564 Y143.105 E16.82506
G1 X146.159 Y143.105 E16.84235
G1 X146.159 Y156.895 E17.43191
G1 X145.755 Y156.895 E17.44920
G1 X145.755 Y155.091 E17.52634
G1 X145.351 Y155.091 E17.54362
G1 X145.351 Y156.895 E17.62076
G1 X144.946 Y156.895 E17.63805
G1 X144.946 Y155.091 E17.71519
G1 X144.542 Y155.091 E17.73247
G1 X144.542 Y156.895 E17.80961
G1 X144.138 Y156.895 E17.82690
G1 X144.138 Y155.091 E17.90404
G1 X143.734 Y155.091 E17.92132
G1 X143.734 Y156.895 E17.99846
G1 X143.329 Y156.895 E18.01575
G1 X143.329 Y155.091 E18.09289
G1 X142.925 Y155.091 E18.11017
G1 X142.925 Y156.895 E18.18731
G1 X142.521 Y156.895 E18.20460
G1 X142.521 Y143.105 E18.79416
G1 X142.117 Y143.105 E18.81145
G1 X142.117 Y156.895 E19.40102
G1 X141.712 Y156.895 E19.41830
G1 X141.712 Y143.105 E20.00787
G1 X141.308 Y143.105 E20.02515
G1 X141.308 Y156.895 E20.61472
G1 X140.904 Y156.895 E20.63200
G1 X140.904 Y143.105 E21.22157
G1 X140.499 Y143.105 E21.23886
G1 X140.499 Y156.895 E21.82842
G1 X140.095 Y156.895 E21.84571
G1 X140.095 Y143.105 E22.43527
G1 X139.691 Y143.105 E22.45256
G1 X139.691 Y144.882 E22.52855
G1 X139.287 Y144.882 E22.54583
G1 X139.287 Y143.105 E22.62183
G1 X138.882 Y143.105 E22.63911
G1 X138.882 Y144.882 E22.71510
G1 X138.478 Y144.882 E22.73239
G1 X138.478 Y143.105 E22.80838
G1 X138.074 Y143.105 E22.82566
G1 X138.074 Y144.882 E22.90165
G1 X137.669 Y144.882 E22.91894
G1 X137.669 Y143.105 E22.99493
