; generated by Slic3r 1.3.1-dev (Build 8c69278) on 2021-12-11 at 10:08:16

; external perimeters extrusion width = 0.45mm (3.99mm^3/s)
; perimeters extrusion width = 0.45mm (3.99mm^3/s)
; infill extrusion width = 0.45mm (3.99mm^3/s)
; solid infill extrusion width = 0.45mm (4.99mm^3/s)
; top infill extrusion width = 0.45mm (3.00mm^3/s)
; support material extrusion width = 0.45mm (4.99mm^3/s)

M107
G92 E0
M104 S205 ; set temperature
G28 ; home all axes
G1 Z5 F5000 ; lift nozzle

; Filament gcode

M109 S205 ; set temperature and wait for it to be reached
G21 ; set units to millimeters
G90 ; use absolute coordinates
M82 ; use absolute distances for extrusion
G92 E0
G1 Z0.250 F7800.000
G1 E-2.00000 F2400.00000
G92 E0
G1 X134.031 Y143.105 F7800.000
G1 E2.00000 F2400.00000
G1 F2400.000
G1 X134.031 Y156.895 E2.58957
G1 X134.031 Y143.105 E3.17914
G1 X134.435 Y143.105 E3.19642
G1 X134.435 Y156.895 E3.78599
G1 X134.839 Y156.895 E3.80327
G1 X134.839 Y143.105 E4.39284
G1 X135.244 Y143.105 E4.41012
G1 X135.244 Y156.895 E4.99969
G1 X135.648 Y156.895 E5.01697
G1 X135.648 Y143.105 E5.60654
G1 X136.052 Y143.105 E5.62383
G1 X136.052 Y156.895 E6.21339
G1 X136.457 Y156.895 E6.23068
G1 X136.457 Y143.105 E6.82025
G1 X136.861 Y143.105 E6.83753
G1 X136.861 Y144.882 E6.91352
G1 X137.265 Y144.882 E6.93081
G1 X137.265 Y143.105 E7.00680
G1 X137.669 Y143.105 E7.02408
G1 X137.669 Y144.882 E7.10007
G1 X138.074 Y144.882 E7.11736
G1 X138.074 Y143.105 E7.19335
G1 X138.478 Y143.105 E7.21063
G1 X138.478 Y144.882 E7.28662
G1 X138.882 Y144.882 E7.30391
G1 X138.882 Y143.105 E7.37990
G1 X139.287 Y143.105 E7.39718
G1 X139.287 Y144.882 E7.47318
G1 X139.691 Y144.882 E7.49046
G1 X139.691 Y143.105 E7.56645
G1 X140.095 Y143.105 E7.58374
G1 X140.095 Y156.895 E8.17330
G1 X140.499 Y156.895 E8.19059
G1 X140.499 Y143.105 E8.78016
G1 X140.904 Y143.105 E8.79744
G1 X140.904 Y156.895 E9.38701
G1 X141.308 Y156.895 E9.40429
G1 X141.308 Y143.105 E9.99386
G1 X141.712 Y143.105 E10.01114
G1 X141.712 Y156.895 E10.60071
G1 X142.117 Y156.895 E10.61799
G1 X142.117 Y143.105 E11.20756
G1 X142.521 Y143.105 E11.22485
G1 X142.521 Y156.895 E11.81441
G1 X142.925 Y156.895 E11.83170
G1 X142.925 Y155.091 E11.90884
G1 X143.329 Y155.091 E11.92612
G1 X143.329 Y156.895 E12.00326
G1 X143.734 Y156.895 E12.02055
G1 X143.734 Y155.091 E12.09769
G1 X144.138 Y155.091 E12.11497
G1 X144.138 Y156.895 E12.19211
G1 X144.542 Y156.895 E12.20940
G1 X144.542 Y155.091 E12.28654
G1 X144.946 Y155.091 E12.30382
G1 X144.946 Y156.895 E12.38096
G1 X145.351 Y156.895 E12.39825
G1 X145.351 Y155.091 E12.47539
G1 X145.755 Y155.091 E12.49267
G1 X145.755 Y156.895 E12.56981
G1 X146.159 Y156.895 E12.58710
G1 X146.159 Y143.105 E13.17666
G1 X146.564 Y143.105 E13.19395
G1 X146.564 Y156.895 E13.78352
G1 X146.968 Y156.895 E13.80080
G1 X146.968 Y143.105 E14.39037
G1 X147.372 Y143.105 E14.40765
G1 X147.372 Y156.895 E14.99722
G1 X147.776 Y156.895 E15.01450
G1 X147.776 Y143.105 E15.60407
G1 X148.181 Y143.105 E15.62135
G1 X148.181 Y156.895 E16.21092
G1 X148.585 Y156.895 E16.22821
G1 X148.585 Y155.091 E16.30535
G1 X148.989 Y155.091 E16.32263
G1 X148.989 Y156.895 E16.39977
G1 X149.394 Y156.895 E16.41706
G1 X149.394 Y155.091 E16.49420
G1 X149.798 Y155.091 E16.51148
G1 X149.798 Y156.895 E16.58862
G1 X150.202 Y156.895 E16.60591
G1 X150.202 Y155.091 E16.68305
G1 X150.606 Y155.091 E16.70033
G1 X150.606 Y156.895 E16.77747
G1 X151.011 Y156.895 E16.79475
G1 X151.011 Y155.091 E16.87190
G1 X151.415 Y155.091 E16.88918
G1 X151.415 Y156.895 E16.96632
G1 X151.819 Y156.895 E16.98360
G1 X151.819 Y143.105 E17.57317
G1 X152.224 Y143.105 E17.59046
G1 X152.224 Y156.895 E18.18002
G1 X152.628 Y156.895 E18.19731
G1 X152.628 Y143.105 E18.78688
G1 X153.032 Y143.105 E18.80416
G1 X153.032 Y156.895 E19.39373
G1 X153.436 Y156.895 E19.41101
G1 X153.436 Y143.105 E20.00058
G1 X153.841 Y143.105 E20.01786
G1 X153.841 Y156.895 E20.60743
G1 X154.245 Y156.895 E20.62471
G1 X154.245 Y143.105 E21.21428
G1 X154.649 Y143.105 E21.23157
G1 X154.649 Y144.882 E21.30756
G1 X155.054 Y144.882 E21.32484
G1 X155.054 Y143.105 E21.40083
G1 X155.458 Y143.105 E21.41812
G1 X155.458 Y144.882 E21.49411
G1 X155.862 Y144.882 E21.51139
G1 X155.862 Y143.105 E21.58739
G1 X156.266 Y143.105 E21.60467
G1 X156.266 Y144.882 E21.68066
G1 X156.671 Y144.882 E21.69795
G1 X156.671 Y143.105 E21.77394
G1 X157.075 Y143.105 E21.79122
G1 X157.075 Y144.882 E21.86721
G1 E19.86721 F2400.00000
G92 E0
G1 X151.415 Y144.882 F7800.000
G1 E2.00000 F2400.00000
G1 F2400.000
G1 X151.415 Y143.105 E2.07599
G1 X151.011 Y143.105 E2.09328
G1 X151.011 Y144.882 E2.16927
G1 X150.606 Y144.882 E2.18655
G1 X150.606 Y143.105 E2.26254
G1 X150.202 Y143.105 E2.27983
G1 X150.202 Y144.882 E2.35582
G1 X149.798 Y144.882 E2.37310
G1 X149.798 Y143.105 E2.44910
G1 X149.394 Y143.105 E2.46638
G1 X149.394 Y144.882 E2.54237
G1 X148.989 Y144.882 E2.55966
G1 X148.989 Y143.105 E2.63565
G1 X148.585 Y143.105 E2.65293
G1 X148.585 Y144.882 E2.72892
G1 X148.290 Y144.882 E2.74153
G1 X148.290 Y155.091 E3.17797
G1 X148.585 Y155.091 E3.19058
G1 E1.19058 F2400.00000
G92 E0
G1 X142.925 Y155.091 F7800.000
G1 E2.00000 F2400.00000
G1 F2400.000
G1 X142.593 Y155.091 E2.01421
G1 X142.593 Y144.882 E2.45064
G1 X142.925 Y144.882 E2.46485
G1 X142.925 Y143.105 E2.54084
G1 X143.329 Y143.105 E2.55813
G1 X143.329 Y144.882 E2.63412
G1 X143.734 Y144.882 E2.65140
G1 X143.734 Y143.105 E2.72740
G1 X144.138 Y143.105 E2.74468
G1 X144.138 Y144.882 E2.82067
G1 X144.542 Y144.882 E2.83796
G1 X144.542 Y143.105 E2.91395
G1 X144.946 Y143.105 E2.93123
G1 X144.946 Y144.882 E3.00722
G1 X145.351 Y144.882 E3.02451
G1 X145.351 Y143.105 E3.10050
G1 X145.755 Y143.105 E3.11778
G1 X145.755 Y144.882 E3.19377
G1 E1.19377 F2400.00000
G92 E0
G1 X139.691 Y156.895 F7800.000
G1 E2.00000 F2400.00000
G1 F2400.000
G1 X139.691 Y155.091 E2.07714
G1 X139.287 Y155.091 E2.09442
G1 X139.287 Y156.895 E2.17157
G1 X138.882 Y156.895 E2.18885
G1 X138.882 Y155.091 E2.26599
G1 X138.478 Y155.091 E2.28327
G1 X138.478 Y156.895 E2.36041
G1 X138.074 Y156.895 E2.37770
G1 X138.074 Y155.091 E2.45484
G1 X137.669 Y155.091 E2.47212
G1 X137.669 Y156.895 E2.54926
G1 X137.265 Y156.895 E2.56655
G1 X137.265 Y155.091 E2.64369
G1 X136.861 Y155.091 E2.66097
G1 X136.861 Y156.895 E2.73811
G1 X136.457 Y156.895 E2.75540
G1 E0.75540 F2400.00000
G92 E0
G1 X154.649 Y155.091 F7800.000
G1 E2.00000 F2400.00000
G1 F2400.000
G1 X154.649 Y156.895 E2.07714
G1 X155.054 Y156.895 E2.09442
G1 X155.054 Y155.091 E2.17157
G1 X155.458 Y155.091 E2.18885
G1 X155.458 Y156.895 E2.26599
G1 X155.862 Y156.895 E2.28327
G1 X155.862 Y155.091 E2.36041
G1 X156.266 Y155.091 E2.37770
G1 X156.266 Y156.895 E2.45484
G1 X156.671 Y156.895 E2.47212
G1 X156.671 Y155.091 E2.54926
G1 X157.075 Y155.091 E2.56655
G1 X157.075 Y156.895 E2.64369
G1 X157.479 Y156.895 E2.66097
G1 X157.479 Y143.105 E3.25054
G1 X157.883 Y143.105 E3.26782
G1 X157.883 Y156.895 E3.85739
G1 X158.288 Y156.895 E3.87468
G1 X158.288 Y143.105 E4.46424
G1 X158.692 Y143.105 E4.48153
G1 X158.692 Y156.895 E5.07110
G1 X159.096 Y156.895 E5.08838
G1 X159.096 Y143.105 E5.67795
G1 X159.501 Y143.105 E5.69523
G1 X159.501 Y156.895 E6.28480
G1 X159.905 Y156.895 E6.30208
G1 X159.905 Y143.105 E6.89165
G1 X160.309 Y143.105 E6.90893
G1 X160.309 Y144.882 E6.98493
G1 X160.713 Y144.882 E7.00221
G1 X160.713 Y143.105 E7.07820
G1 X161.118 Y143.105 E7.09549
G1 X161.118 Y144.882 E7.17148
G1 X161.522 Y144.882 E7.18876
G1 X161.522 Y143.105 E7.26475
G1 X161.926 Y143.105 E7.28204
G1 X161.926 Y144.882 E7.35803
G1 X162.331 Y144.882 E7.37531
G1 X162.331 Y143.105 E7.45131
G1 X162.735 Y143.105 E7.46859
G1 X162.735 Y144.882 E7.54458
G1 X163.139 Y144.882 E7.56187
G1 X163.139 Y143.105 E7.63786
G1 X163.543 Y143.105 E7.65514
G1 X163.543 Y156.895 E8.24471
G1 X163.948 Y156.895 E8.26199
G1 X163.948 Y143.105 E8.85156
G1 X164.352 Y143.105 E8.86885
G1 X164.352 Y156.895 E9.45841
G1 X164.756 Y156.895 E9.47570
G1 X164.756 Y143.105 E10.06526
G1 X165.161 Y143.105 E10.08255
G1 X165.161 Y156.895 E10.67212
G1 X165.565 Y156.895 E10.68940
G1 X165.565 Y143.105 E11.27897
G1 X165.969 Y143.105 E11.29625
G1 X165.969 Y156.895 E11.88582
G1 E9.88582 F2400.00000
G92 E0
G1 X163.139 Y156.895 F7800.000
G1 E2.00000 F2400.00000
G1 F2400.000
G1 X163.139 Y155.091 E2.07714
G1 X162.735 Y155.091 E2.09442
G1 X162.735 Y156.895 E2.17157
G1 X162.331 Y156.895 E2.18885
G1 X162.331 Y155.091 E2.26599
G1 X161.926 Y155.091 E2.28327
G1 X161.926 Y156.895 E2.36041
G1 X161.522 Y156.895 E2.37770
G1 X161.522 Y155.091 E2.45484
G1 X161.118 Y155.091 E2.47212
G1 X161.118 Y156.895 E2.54926
G1 X160.713 Y156.895 E2.56655
G1 X160.713 Y155.091 E2.64369
G1 X160.309 Y155.091 E2.66097
G1 X160.309 Y156.895 E2.73811
G1 X159.905 Y156.895 E2.75540
G1 Z0.250 F7800.000
G1 Z0.500 F7800.000
G1 X159.980 Y154.867 F7800.000
G1 F2400.000
G1 X159.980 Y154.461 E2.77274
G1 X157.450 Y154.461 E2.88090
G1 X157.450 Y154.056 E2.89824
G1 X159.980 Y154.056 E3.00640
G1 X159.980 Y153.650 E3.02374
G1 X157.450 Y153.650 E3.13190
G1 X157.450 Y153.245 E3.14924
G1 X159.980 Y153.245 E3.25741
G1 X159.980 Y152.839 E3.27475
G1 X157.450 Y152.839 E3.38291
G1 X157.450 Y152.434 E3.40025
G1 X159.980 Y152.434 E3.50841
G1 X159.980 Y152.028 E3.52575
G1 X157.450 Y152.028 E3.63391
G1 X157.450 Y151.622 E3.65125
G1 X159.980 Y151.622 E3.75941
G1 X159.980 Y151.217 E3.77675
G1 X157.450 Y151.217 E3.88492
G1 X157.450 Y150.811 E3.90226
G1 X159.980 Y150.811 E4.01042
G1 X159.980 Y150.406 E4.02776
G1 X157.450 Y150.406 E4.13592
G1 X157.450 Y150.000 E4.15326
G1 X159.980 Y150.000 E4.26142
G1 X159.980 Y149.594 E4.27876
G1 X157.450 Y149.594 E4.38692
G1 X157.450 Y149.189 E4.40426
G1 X159.980 Y149.189 E4.51242
G1 X159.980 Y148.783 E4.52976
G1 X157.450 Y148.783 E4.63793
G1 X157.450 Y148.378 E4.65527
G1 X159.980 Y148.378 E4.76343
G1 X159.980 Y147.972 E4.78077
G1 X157.450 Y147.972 E4.88893
G1 X157.450 Y147.566 E4.90627
G1 X159.980 Y147.566 E5.01443
G1 X159.980 Y147.161 E5.03177
G1 X157.450 Y147.161 E5.13993
G1 X157.450 Y146.755 E5.15727
G1 X159.980 Y146.755 E5.26544
G1 X159.980 Y146.350 E5.28278
G1 X157.450 Y146.350 E5.39094
G1 X157.450 Y145.944 E5.40828
G1 X159.980 Y145.944 E5.51644
G1 X159.980 Y145.539 E5.53378
G1 X157.450 Y145.539 E5.64194
G1 X157.450 Y145.133 E5.65928
G1 X159.980 Y145.133 E5.76744
G1 E3.76744 F2400.00000
G92 E0
G1 X154.310 Y145.133 F7800.000
G1 E2.00000 F2400.00000
G1 F2400.000
G1 X151.780 Y145.133 E2.10816
G1 X151.780 Y145.539 E2.12550
G1 X154.310 Y145.539 E2.23366
G1 X154.310 Y145.944 E2.25100
G1 X151.780 Y145.944 E2.35917
G1 X151.780 Y146.350 E2.37651
G1 X154.310 Y146.350 E2.48467
G1 X154.310 Y146.755 E2.50201
G1 X151.780 Y146.755 E2.61017
G1 X151.780 Y147.161 E2.62751
G1 X154.310 Y147.161 E2.73567
G1 X154.310 Y147.566 E2.75301
G1 X151.780 Y147.566 E2.86117
G1 X151.780 Y147.972 E2.87851
G1 X154.310 Y147.972 E2.98667
G1 X154.310 Y148.378 E3.00401
G1 X151.780 Y148.378 E3.11218
G1 X151.780 Y148.783 E3.12952
G1 X154.310 Y148.783 E3.23768
G1 X154.310 Y149.189 E3.25502
G1 X151.780 Y149.189 E3.36318
G1 X151.780 Y149.594 E3.38052
G1 X154.310 Y149.594 E3.48868
G1 X154.310 Y150.000 E3.50602
G1 X151.780 Y150.000 E3.61418
G1 X151.780 Y150.406 E3.63152
G1 X154.310 Y150.406 E3.73969
G1 X154.310 Y150.811 E3.75703
G1 X151.780 Y150.811 E3.86519
G1 X151.780 Y151.217 E3.88253
G1 X154.310 Y151.217 E3.99069
G1 X154.310 Y151.622 E4.00803
G1 X151.780 Y151.622 E4.11619
G1 X151.780 Y152.028 E4.13353
G1 X154.310 Y152.028 E4.24169
G1 X154.310 Y152.434 E4.25903
G1 X151.780 Y152.434 E4.36720
G1 X151.780 Y152.839 E4.38453
G1 X154.310 Y152.839 E4.49270
G1 X154.310 Y153.245 E4.51004
G1 X151.780 Y153.245 E4.61820
G1 X151.780 Y153.650 E4.63554
G1 X154.310 Y153.650 E4.74370
G1 X154.310 Y154.056 E4.76104
G1 X151.780 Y154.056 E4.86920
G1 X151.780 Y154.461 E4.88654
G1 X154.310 Y154.461 E4.99470
G1 X154.310 Y154.867 E5.01204
G1 E3.01204 F2400.00000
G92 E0
G1 X148.290 Y154.867 F7800.000
G1 E2.00000 F2400.00000
G1 F2400.000
G1 X148.290 Y154.461 E2.01734
G1 X145.760 Y154.461 E2.12550
G1 X145.760 Y154.056 E2.14284
G1 X148.290 Y154.056 E2.25100
G1 X148.290 Y153.650 E2.26834
G1 X145.760 Y153.650 E2.37651
G1 X145.760 Y153.245 E2.39385
G1 X148.290 Y153.245 E2.50201
G1 X148.290 Y152.839 E2.51935
G1 X145.760 Y152.839 E2.62751
G1 X145.760 Y152.434 E2.64485
G1 X148.290 Y152.434 E2.75301
G1 X148.290 Y152.028 E2.77035
G1 X145.760 Y152.028 E2.87851
G1 X145.760 Y151.622 E2.89585
G1 X148.290 Y151.622 E3.00401
G1 X148.290 Y151.217 E3.02135
G1 X145.760 Y151.217 E3.12952
G1 X145.760 Y150.811 E3.14686
G1 X148.290 Y150.811 E3.25502
G1 X148.290 Y150.406 E3.27236
G1 X145.760 Y150.406 E3.38052
G1 X145.760 Y150.000 E3.39786
G1 X148.290 Y150.000 E3.50602
G1 X148.290 Y149.594 E3.52336
G1 X145.760 Y149.594 E3.63152
G1 X145.760 Y149.189 E3.64886
G1 X148.290 Y149.189 E3.75703
G1 X148.290 Y148.783 E3.77437
G1 X145.760 Y148.783 E3.88253
G1 X145.760 Y148.378 E3.89987
G1 X148.290 Y148.378 E4.00803
G1 X148.290 Y147.972 E4.02537
G1 X145.760 Y147.972 E4.13353
G1 X145.760 Y147.566 E4.15087
G1 X148.290 Y147.566 E4.25903
G1 X148.290 Y147.161 E4.27637
G1 X145.760 Y147.161 E4.38453
G1 X145.760 Y146.755 E4.40187
G1 X148.290 Y146.755 E4.51004
G1 X148.290 Y146.350 E4.52738
G1 X145.760 Y146.350 E4.63554
G1 X145.760 Y145.944 E4.65288
G1 X148.290 Y145.944 E4.76104
G1 X148.290 Y145.539 E4.77838
G1 X145.760 Y145.539 E4.88654
G1 X145.760 Y145.133 E4.90388
G1 X148.290 Y145.133 E5.01204
G1 E3.01204 F2400.00000
G92 E0
G1 X142.593 Y145.133 F7800.000
G1 E2.00000 F2400.00000
G1 F2400.000
G1 X140.063 Y145.133 E2.10816
G1 X140.063 Y145.539 E2.12550
G1 X142.593 Y145.539 E2.23366
G1 X142.593 Y145.944 E2.25100
G1 X140.063 Y145.944 E2.35917
G1 X140.063 Y146.350 E2.37651
G1 X142.593 Y146.350 E2.48467
G1 X142.593 Y146.755 E2.50201
G1 X140.063 Y146.755 E2.61017
G1 X140.063 Y147.161 E2.62751
G1 X142.593 Y147.161 E2.73567
G1 X142.593 Y147.566 E2.75301
G1 X140.063 Y147.566 E2.86117
G1 X140.063 Y147.972 E2.87851
G1 X142.593 Y147.972 E2.98667
G1 X142.593 Y148.378 E3.00401
G1 X140.063 Y148.378 E3.11218
G1 X140.063 Y148.783 E3.12952
G1 X142.593 Y148.783 E3.23768
G1 X142.593 Y149.189 E3.25502
G1 X140.063 Y149.189 E3.36318
G1 X140.063 Y149.594 E3.38052
G1 X142.593 Y149.594 E3.48868
G1 X142.593 Y150.000 E3.50602
G1 X140.063 Y150.000 E3.61418
G1 X140.063 Y150.406 E3.63152
G1 X142.593 Y150.406 E3.73969
G1 X142.593 Y150.811 E3.75703
G1 X140.063 Y150.811 E3.86519
G1 X140.063 Y151.217 E3.88253
G1 X142.593 Y151.217 E3.99069
G1 X142.593 Y151.622 E4.00803
G1 X140.063 Y151.622 E4.11619
G1 X140.063 Y152.028 E4.13353
G1 X142.593 Y152.028 E4.24169
G1 X142.593 Y152.433 E4.25903
G1 X140.063 Y152.433 E4.36720
G1 X140.063 Y152.839 E4.38453
G1 X142.593 Y152.839 E4.49270
G1 X142.593 Y153.245 E4.51004
G1 X140.063 Y153.245 E4.61820
G1 X140.063 Y153.650 E4.63554
G1 X142.593 Y153.650 E4.74370
G1 X142.593 Y154.056 E4.76104
G1 X140.063 Y154.056 E4.86920
G1 X140.063 Y154.461 E4.88654
G1 X142.593 Y154.461 E4.99470
G1 X142.593 Y154.867 E5.01204
G1 X134.031 Y156.895 F7800.000
G1 F2400.000
G1 X165.969 Y156.895 E6.37750
G1 X165.969 Y156.489 E6.39484
G1 X134.031 Y156.489 E7.76030
G1 X134.031 Y156.084 E7.77764
G1 X165.969 Y156.084 E9.14309
G1 X165.969 Y155.678 E9.16043
G1 X134.031 Y155.678 E10.52589
G1 X134.031 Y155.273 E10.54323
G1 X165.969 Y155.273 E11.90869
G1 X165.969 Y154.867 E11.92603
G1 X163.470 Y154.867 E12.03287
G1 X163.470 Y155.091 E12.04243
G1 X159.980 Y155.091 E12.19164
G1 X159.980 Y154.867 E12.20120
G1 X157.450 Y154.867 E12.30936
G1 X157.450 Y155.091 E12.31893
G1 X154.310 Y155.091 E12.45319
G1 X154.310 Y154.867 E12.46276
G1 X151.780 Y154.867 E12.57092
G1 X151.780 Y155.091 E12.58048
G1 X148.290 Y155.091 E12.72968
G1 X148.290 Y154.867 E12.73925
G1 X145.760 Y154.867 E12.84741
G1 X145.760 Y155.091 E12.85697
G1 X142.593 Y155.091 E12.99239
G1 X142.593 Y154.867 E13.00195
G1 X140.063 Y154.867 E13.11011
G1 X140.063 Y155.091 E13.11968
G1 X136.573 Y155.091 E13.26888
G1 X136.573 Y154.867 E13.27844
G1 X134.031 Y154.867 E13.38713
G1 X134.031 Y154.461 E13.40447
G1 X136.573 Y154.461 E13.51315
G1 X136.573 Y154.056 E13.53049
G1 X134.031 Y154.056 E13.63918
G1 X134.031 Y153.650 E13.65652
G1 X136.573 Y153.650 E13.76520
G1 X136.573 Y153.245 E13.78254
G1 X134.031 Y153.245 E13.89123
