; generated by Slic3r 1.3.1-dev (Build 8c69278) on 2021-12-10 at 13:24:54

; external perimeters extrusion width = 0.45mm (3.99mm^3/s)
; perimeters extrusion width = 0.45mm (3.99mm^3/s)
; infill extrusion width = 0.45mm (3.99mm^3/s)
; solid infill extrusion width = 0.45mm (4.99mm^3/s)
; top infill extrusion width = 0.45mm (3.00mm^3/s)
; support material extrusion width = 0.45mm (4.99mm^3/s)

M107
G92 E0
M104 S205 ; set temperature
G28 ; home all axes
G1 Z5 F5000 ; lift nozzle

; Filament gcode

M109 S205 ; set temperature and wait for it to be reached
G21 ; set units to millimeters
G90 ; use absolute coordinates
M82 ; use absolute distances for extrusion
G92 E0
G1 Z0.250 F7800.000
G1 E-2.00000 F2400.00000
G92 E0
G1 X123.689 Y143.940 F7800.000
G1 E2.00000 F2400.00000
G1 F2400.000
G1 X123.689 Y144.099 E2.00677
G1 X123.827 Y141.897 E2.10110
G1 X124.090 Y139.962 E2.18459
G1 X124.090 Y149.916 E2.61016
G1 X124.492 Y151.897 E2.69659
G1 X124.492 Y137.984 E3.29143
G1 X124.894 Y136.510 E3.35675
G1 X124.894 Y153.376 E4.07783
G1 X125.082 Y154.049 E4.10770
G1 X125.296 Y154.648 E4.13491
G1 X125.296 Y135.241 E4.96462
G1 X125.697 Y134.105 E5.01613
G1 X125.697 Y155.779 E5.94273
G1 X126.099 Y156.740 E5.98730
G1 X126.099 Y133.148 E6.99595
G1 X126.501 Y132.219 E7.03923
G1 X126.501 Y157.666 E8.12716
G1 X126.902 Y158.473 E8.16571
G1 X126.902 Y131.416 E9.32249
G1 X127.304 Y130.637 E9.35996
G1 X127.304 Y159.249 E10.58321
G1 X127.534 Y159.693 E10.60459
G1 X127.706 Y160.087 E10.62298
G1 X127.706 Y129.916 E11.91292
G1 X128.107 Y129.252 E11.94608
G1 X128.107 Y161.010 E13.30382
G1 X128.509 Y161.932 E13.34683
G1 X128.509 Y128.588 E14.77238
G1 X128.911 Y128.003 E14.80271
G1 X128.911 Y162.855 E16.29270
G1 X129.313 Y163.777 E16.33571
G1 X129.313 Y127.432 E17.88957
G1 X129.714 Y126.860 E17.91944
G1 X129.714 Y164.699 E19.53718
G1 X130.116 Y165.622 E19.58020
G1 X130.116 Y126.358 E21.25883
G1 X130.518 Y125.862 E21.28612
G1 X130.518 Y166.544 E23.02540
G1 X130.919 Y167.467 E23.06841
G1 X130.919 Y125.366 E24.86834
G1 X131.321 Y124.915 E24.89415
G1 X131.321 Y168.389 E26.75278
G1 X131.723 Y169.311 E26.79579
G1 X131.723 Y124.483 E28.71234
G1 X132.124 Y124.051 E28.73756
G1 X132.124 Y141.808 E29.49675
G1 X132.234 Y141.099 E29.52744
G1 X132.526 Y139.942 E29.57847
G1 X132.526 Y123.631 E30.27578
G1 X132.928 Y123.254 E30.29933
G1 X132.928 Y138.718 E30.96046
G1 X133.113 Y138.195 E30.98416
G1 X133.330 Y137.729 E31.00614
G1 X133.330 Y122.877 E31.64111
G1 X133.731 Y122.500 E31.66467
G1 X133.731 Y136.864 E32.27876
G1 X134.133 Y136.166 E32.31318
G1 X134.133 Y122.148 E32.91249
G1 X134.535 Y121.819 E32.93468
G1 X134.535 Y135.483 E33.51884
G1 X134.936 Y134.922 E33.54832
G1 X134.936 Y121.490 E34.12258
G1 X135.338 Y121.162 E34.14477
G1 X135.338 Y134.362 E34.70911
G1 X135.740 Y133.884 E34.73580
G1 X135.740 Y120.858 E35.29271
G1 X136.141 Y120.572 E35.31378
G1 X136.141 Y133.422 E35.86314
G1 X136.543 Y132.988 E35.88841
G1 X136.543 Y120.287 E36.43142
G1 X136.945 Y120.002 E36.45249
G1 X136.945 Y132.605 E36.99133
G1 X137.346 Y132.222 E37.01505
G1 X137.346 Y119.724 E37.54938
G1 X137.748 Y119.459 E37.56995
G1 X137.748 Y131.880 E38.10100
G1 X138.150 Y131.564 E38.12288
G1 X138.150 Y119.194 E38.65172
G1 X138.552 Y118.929 E38.67230
G1 X138.552 Y131.247 E39.19893
G1 X138.953 Y130.967 E39.21985
G1 X138.953 Y118.663 E39.74588
G1 X139.355 Y118.398 E39.76646
G1 X139.355 Y130.707 E40.29271
G1 X139.757 Y130.447 E40.31317
G1 X139.757 Y118.133 E40.83965
G1 X140.158 Y117.868 E40.86023
G1 X140.158 Y130.212 E41.38798
G1 X140.560 Y130.003 E41.40735
G1 X140.560 Y117.602 E41.93749
G1 X140.962 Y117.337 E41.95807
G1 X140.962 Y129.793 E42.49059
G1 X141.363 Y129.590 E42.50985
G1 X141.363 Y117.072 E43.04501
G1 X141.765 Y116.807 E43.06559
G1 X141.765 Y129.426 E43.60510
G1 X142.167 Y129.262 E43.62365
G1 X142.167 Y116.542 E44.16750
G1 X142.569 Y116.276 E44.18808
G1 X142.569 Y129.099 E44.73627
G1 X142.970 Y128.962 E44.75442
G1 X142.970 Y116.011 E45.30810
G1 X143.372 Y115.746 E45.32868
G1 X143.372 Y128.840 E45.88851
G1 X143.774 Y128.719 E45.90645
G1 X143.774 Y115.481 E46.47244
G1 X144.175 Y115.215 E46.49302
G1 X144.175 Y128.598 E47.06518
G1 X144.577 Y128.517 E47.08270
G1 X144.577 Y114.950 E47.66273
G1 X144.979 Y114.685 E47.68331
G1 X144.979 Y128.436 E48.27121
G1 X145.380 Y128.355 E48.28873
G1 X145.380 Y114.420 E48.88449
G1 X145.782 Y114.154 E48.90507
G1 X145.782 Y128.285 E49.50920
G1 X146.184 Y128.243 E49.52647
G1 X146.184 Y113.889 E50.14012
G1 X146.586 Y113.624 E50.16070
G1 X146.586 Y128.200 E50.78386
G1 X146.987 Y128.157 E50.80113
G1 X146.987 Y113.359 E51.43381
G1 X147.389 Y113.094 E51.45439
G1 X147.389 Y128.135 E52.09746
G1 X147.791 Y128.130 E52.11464
G1 X147.791 Y112.828 E52.76884
G1 X148.192 Y112.563 E52.78942
G1 X148.192 Y128.125 E53.45476
G1 X148.594 Y128.121 E53.47193
G1 X148.594 Y112.298 E54.14840
G1 X148.996 Y112.033 E54.16898
G1 X148.996 Y128.145 E54.85781
G1 X149.397 Y128.177 E54.87504
G1 X149.397 Y111.767 E55.57662
G1 X149.799 Y111.502 E55.59720
G1 X149.799 Y128.210 E56.31152
G1 X150.201 Y128.243 E56.32875
G1 X150.201 Y111.237 E57.05581
G1 X150.602 Y110.972 E57.07639
G1 X150.602 Y128.313 E57.81778
G1 X151.004 Y128.416 E57.83551
G1 X151.004 Y110.706 E58.59263
G1 X151.406 Y110.441 E58.61320
G1 X151.406 Y128.553 E59.38753
G1 X151.808 Y128.714 E59.40603
G1 X151.808 Y110.176 E60.19856
G1 X152.209 Y109.911 E60.21914
G1 X152.209 Y128.881 E61.03017
G1 X152.611 Y129.048 E61.04877
G1 X152.611 Y109.646 E61.87827
G1 X153.013 Y109.380 E61.89885
G1 X153.013 Y129.215 E62.74684
G1 X153.414 Y129.382 E62.76544
G1 X153.414 Y109.115 E63.63192
G1 X153.816 Y108.850 E63.65250
G1 X153.816 Y129.549 E64.53746
G1 X154.218 Y129.716 E64.55606
G1 X154.218 Y108.585 E65.45950
G1 X154.619 Y108.319 E65.48008
G1 X154.619 Y129.884 E66.40200
G1 X155.021 Y130.051 E66.42060
G1 X155.021 Y108.054 E67.36101
G1 X155.423 Y107.789 E67.38159
G1 X155.423 Y130.218 E68.34049
G1 X155.825 Y130.385 E68.35909
G1 X155.825 Y107.524 E69.33647
G1 X156.226 Y107.259 E69.35705
G1 X156.226 Y130.552 E70.35291
G1 X156.628 Y130.719 E70.37151
G1 X156.628 Y106.993 E71.38586
G1 X157.030 Y106.728 E71.40644
G1 X157.030 Y130.878 E72.43889
G1 X157.431 Y131.015 E72.45704
G1 X157.431 Y106.463 E73.50671
G1 X157.833 Y106.198 E73.52729
G1 X157.833 Y131.152 E74.59416
G1 X158.235 Y131.236 E74.61170
G1 X158.235 Y105.932 E75.69349
G1 X158.636 Y105.667 E75.71407
G1 X158.636 Y131.317 E76.81066
G1 X158.819 Y131.354 E76.81862
G1 X159.038 Y131.369 E76.82802
G1 X159.038 Y105.402 E77.93817
G1 X159.440 Y105.137 E77.95875
G1 X159.440 Y131.396 E79.08143
G1 X159.842 Y131.419 E79.09863
G1 X159.842 Y104.871 E80.23362
G1 X160.243 Y104.606 E80.25420
G1 X160.243 Y131.395 E81.39948
G1 X160.645 Y131.370 E81.41668
G1 X160.645 Y104.341 E82.57225
G1 X161.047 Y104.076 E82.59283
G1 X161.047 Y131.311 E83.75721
G1 X161.448 Y131.233 E83.77471
G1 X161.448 Y103.811 E84.94710
G1 X161.850 Y103.545 E84.96768
G1 X161.850 Y131.142 E86.14753
G1 X162.252 Y131.009 E86.16563
G1 X162.252 Y103.280 E87.35110
G1 X162.653 Y103.015 E87.37168
G1 X162.653 Y130.875 E88.56277
G1 X163.055 Y130.686 E88.58175
G1 X163.055 Y102.750 E89.77609
G1 X163.457 Y102.484 E89.79667
G1 X163.457 Y130.491 E90.99402
G1 X163.703 Y130.371 E91.00570
G1 X163.858 Y130.269 E91.01368
G1 X163.858 Y102.219 E92.21287
G1 X164.260 Y101.954 E92.23345
G1 X164.260 Y130.004 E93.43268
G1 X164.662 Y129.735 E93.45334
G1 X164.662 Y115.309 E94.07009
G1 X164.519 Y114.856 E94.09041
G1 X164.428 Y114.097 E94.12311
G1 X164.482 Y113.333 E94.15582
G1 X164.662 Y112.649 E94.18610
G1 X164.662 Y101.689 E94.65466
G1 X165.064 Y101.423 E94.67524
G1 X165.064 Y111.824 E95.11991
G1 X165.465 Y111.280 E95.14884
G1 X165.465 Y101.158 E95.58157
G1 X165.867 Y100.893 E95.60215
G1 X165.867 Y110.906 E96.03023
G1 X166.018 Y110.765 E96.03906
G1 X166.269 Y110.607 E96.05172
G1 X166.269 Y100.628 E96.47837
G1 X166.670 Y100.363 E96.49895
G1 X166.670 Y110.347 E96.92582
G1 X167.072 Y110.009 E96.94827
G1 X167.072 Y100.097 E97.37202
G1 X167.474 Y99.832 E97.39260
G1 X167.474 Y109.670 E97.81321
G1 X167.875 Y109.332 E97.83567
G1 X167.875 Y99.567 E98.25316
G1 X168.277 Y99.302 E98.27374
G1 X168.277 Y108.994 E98.68810
G1 X168.679 Y108.655 E98.71055
G1 X168.679 Y99.036 E99.12178
G1 X169.081 Y98.771 E99.14236
G1 X169.081 Y108.317 E99.55047
G1 X169.482 Y107.979 E99.57292
G1 X169.482 Y98.506 E99.97790
G1 X169.884 Y98.241 E99.99848
G1 X169.884 Y107.640 E100.40033
G1 X170.286 Y107.302 E100.42278
G1 X170.286 Y97.976 E100.82151
G1 X170.687 Y97.710 E100.84208
G1 X170.687 Y106.963 E101.23768
G1 X171.089 Y106.625 E101.26013
G1 X171.089 Y97.445 E101.65260
G1 X171.491 Y97.180 E101.67318
G1 X171.491 Y106.287 E102.06252
G1 X171.892 Y105.948 E102.08497
G1 X171.892 Y96.950 E102.46965
G1 X172.294 Y96.892 E102.48701
G1 X172.294 Y105.610 E102.85973
G1 X172.696 Y105.271 E102.88219
G1 X172.696 Y96.873 E103.24126
G1 X173.098 Y96.891 E103.25845
G1 X173.098 Y104.933 E103.60226
G1 X173.499 Y104.595 E103.62472
G1 X173.499 Y96.971 E103.95066
G1 X173.901 Y97.075 E103.96840
G1 X173.901 Y104.256 E104.27540
G1 X174.303 Y103.918 E104.29786
G1 X174.303 Y97.259 E104.58253
G1 X174.503 Y97.351 E104.59196
G1 X174.704 Y97.495 E104.60253
G1 X174.704 Y103.579 E104.86265
G1 X175.106 Y103.225 E104.88555
G1 X175.106 Y97.794 E105.11774
G1 X175.508 Y98.218 E105.14272
G1 X175.508 Y102.815 E105.33925
G1 X175.909 Y102.201 E105.37063
G1 X175.909 Y98.827 E105.51487
G1 X176.184 Y99.507 E105.54621
G1 X176.311 Y100.206 E105.57660
G1 E103.57660 F2400.00000
G92 E0
G1 X167.875 Y124.557 F7800.000
G1 E2.00000 F2400.00000
G1 F2400.000
G1 X167.875 Y121.211 E2.14309
G1 X167.784 Y120.728 E2.16408
G1 X167.474 Y119.787 E2.20644
G1 X167.474 Y125.963 E2.47047
G1 X167.377 Y126.241 E2.48307
G1 X167.072 Y126.848 E2.51209
G1 X167.072 Y118.913 E2.85131
G1 X166.944 Y118.647 E2.86395
G1 X166.670 Y118.229 E2.88528
G1 X166.670 Y127.543 E3.28347
G1 X166.269 Y128.135 E3.31404
G1 X166.269 Y117.637 E3.76284
G1 X165.867 Y117.170 E3.78918
G1 X165.867 Y128.596 E4.27767
G1 X165.465 Y129.041 E4.30328
G1 X165.465 Y116.695 E4.83110
G1 X165.112 Y116.259 E4.85507
G1 X165.064 Y116.170 E4.85943
G1 X165.064 Y129.388 E5.42455
G1 X164.662 Y129.735 E5.44726
G1 E3.44726 F2400.00000
G92 E0
G1 X166.670 Y160.689 F7800.000
G1 E2.00000 F2400.00000
G1 F2400.000
G1 X166.670 Y149.180 E2.49204
G1 X166.597 Y148.484 E2.52197
G1 X166.269 Y146.445 E2.61026
G1 X166.269 Y163.765 E3.35073
G1 X165.867 Y166.632 E3.47453
G1 X165.867 Y144.444 E4.42316
G1 X165.610 Y143.260 E4.47496
G1 X165.465 Y142.734 E4.49827
G1 X165.465 Y169.500 E5.64261
G1 X165.064 Y172.368 E5.76640
G1 X165.064 Y141.272 E7.09583
G1 X164.905 Y140.695 E7.12141
G1 X164.662 Y139.968 E7.15420
G1 X164.662 Y175.235 E8.66200
G1 X164.260 Y178.103 E8.78580
G1 X164.260 Y138.766 E10.46758
G1 X164.065 Y138.181 E10.49393
G1 X163.858 Y137.766 E10.51373
G1 X163.858 Y180.971 E12.36084
G1 X163.457 Y183.838 E12.48464
G1 X163.457 Y137.265 E14.47578
G1 X163.055 Y136.959 E14.49737
G1 X163.055 Y186.706 E16.62421
G1 X162.653 Y189.574 E16.74801
G1 X162.653 Y136.771 E19.00546
G1 X162.252 Y136.670 E19.02317
G1 X162.252 Y192.441 E21.40755
G1 X161.850 Y195.309 E21.53134
G1 X161.850 Y136.635 E24.03980
G1 X161.551 Y136.639 E24.05256
G1 X161.448 Y136.664 E24.05710
G1 X161.448 Y197.615 E26.66295
G1 X161.047 Y198.403 E26.70073
G1 X161.047 Y136.760 E29.33612
G1 X160.645 Y136.957 E29.35524
G1 X160.645 Y199.004 E32.00792
G1 X160.377 Y199.400 E32.02836
G1 X160.243 Y199.554 E32.03710
G1 X160.243 Y137.259 E34.70041
G1 X160.155 Y137.330 E34.70526
G1 X159.842 Y137.732 E34.72706
G1 X159.842 Y200.016 E37.38987
G1 X159.608 Y200.285 E37.40510
G1 X159.440 Y200.436 E37.41475
G1 X159.440 Y138.669 E40.05544
G1 X159.038 Y139.752 E40.10483
G1 X159.038 Y200.797 E42.71466
G1 X158.636 Y201.139 E42.73720
G1 X158.636 Y140.815 E45.31620
G1 X158.235 Y141.734 E45.35908
G1 X158.235 Y201.420 E47.91082
G1 X157.833 Y201.701 E47.93178
G1 X157.833 Y194.610 E48.23491
G1 X157.784 Y194.876 E48.24646
G1 X157.503 Y195.672 E48.28254
G1 X157.431 Y195.807 E48.28908
G1 X157.431 Y201.924 E48.55060
G1 X157.030 Y202.137 E48.57005
G1 X157.030 Y196.506 E48.81083
G1 X156.628 Y197.003 E48.83816
G1 X156.628 Y202.334 E49.06609
G1 X156.226 Y202.488 E49.08448
G1 X156.226 Y197.398 E49.30211
G1 X155.825 Y197.745 E49.32480
G1 X155.825 Y202.643 E49.53419
G1 X155.645 Y202.711 E49.54239
G1 X155.423 Y202.767 E49.55220
G1 X155.423 Y197.992 E49.75632
G1 X155.021 Y198.223 E49.77613
G1 X155.021 Y202.867 E49.97467
G1 X154.619 Y202.967 E49.99237
G1 X154.619 Y198.384 E50.18829
G1 X154.218 Y198.534 E50.20662
G1 X154.218 Y203.030 E50.39885
G1 X153.816 Y203.080 E50.41616
G1 X153.816 Y198.621 E50.60680
G1 X153.414 Y198.705 E50.62435
G1 X153.414 Y203.129 E50.81348
G1 X153.013 Y203.138 E50.83065
G1 X153.013 Y198.724 E51.01937
G1 X152.611 Y198.741 E51.03656
G1 X152.611 Y203.138 E51.22454
G1 X152.209 Y203.138 E51.24172
G1 X152.209 Y198.702 E51.43136
G1 X151.808 Y198.650 E51.44868
G1 X151.808 Y203.093 E51.63861
G1 X151.406 Y203.044 E51.65591
G1 X151.406 Y198.553 E51.84789
G1 X151.004 Y198.430 E51.86585
G1 X151.004 Y202.994 E52.06096
G1 X150.602 Y202.894 E52.07866
G1 X150.602 Y198.265 E52.27658
G1 X150.201 Y198.062 E52.29581
G1 X150.201 Y202.794 E52.49810
G1 X149.799 Y202.684 E52.51591
G1 X149.799 Y197.805 E52.72451
G1 X149.397 Y197.508 E52.74587
G1 X149.397 Y202.530 E52.96058
G1 X148.996 Y202.376 E52.97897
G1 X148.996 Y197.112 E53.20403
G1 X148.724 Y196.829 E53.22079
G1 X148.594 Y196.642 E53.23054
G1 X148.594 Y202.195 E53.46797
G1 X148.192 Y201.982 E53.48742
G1 X148.192 Y196.029 E53.74190
G1 X147.862 Y195.298 E53.77622
G1 X147.791 Y195.038 E53.78775
G1 X147.791 Y201.768 E54.07550
G1 X147.389 Y201.496 E54.09625
G1 X147.389 Y156.993 E55.99886
G1 X146.987 Y157.266 E56.01962
G1 X146.987 Y201.215 E57.89853
G1 X146.779 Y201.069 E57.90940
G1 X146.586 Y200.895 E57.92052
G1 X146.586 Y157.480 E59.77661
G1 X146.184 Y157.684 E59.79587
G1 X146.184 Y200.533 E61.62779
G1 X145.907 Y200.285 E61.64369
G1 X145.782 Y200.141 E61.65185
G1 X145.782 Y157.856 E63.45963
G1 X145.380 Y157.999 E63.47786
G1 X145.380 Y199.679 E65.25978
G1 X145.138 Y199.400 E65.27559
G1 X144.979 Y199.165 E65.28773
G1 X144.979 Y158.139 E67.04170
G1 X144.577 Y158.226 E67.05928
G1 X144.577 Y198.570 E68.78406
G1 X144.482 Y198.428 E68.79135
G1 X144.175 Y197.828 E68.82016
G1 X144.175 Y158.314 E70.50949
G1 X143.981 Y158.356 E70.51797
G1 X143.774 Y158.375 E70.52690
G1 X143.774 Y196.983 E72.17750
G1 X143.372 Y196.060 E72.22051
G1 X143.372 Y158.410 E73.83018
G1 X142.970 Y158.445 E73.84741
G1 X142.970 Y195.138 E75.41614
G1 X142.569 Y194.216 E75.45915
G1 X142.569 Y158.433 E76.98894
G1 X142.167 Y158.417 E77.00613
G1 X142.167 Y193.293 E78.49717
G1 X141.765 Y192.371 E78.54018
G1 X141.765 Y158.385 E79.99316
G1 X141.363 Y158.317 E80.01058
G1 X141.363 Y191.448 E81.42702
G1 X140.962 Y190.526 E81.47003
G1 X140.962 Y158.250 E82.84994
G1 X140.560 Y158.142 E82.86772
G1 X140.560 Y189.604 E84.21279
G1 X140.158 Y188.681 E84.25580
G1 X140.158 Y158.020 E85.56666
G1 X139.757 Y157.884 E85.58479
G1 X139.757 Y187.759 E86.86201
G1 X139.355 Y186.837 E86.90502
G1 X139.355 Y157.704 E88.15053
G1 X138.953 Y157.524 E88.16935
G1 X138.953 Y185.914 E89.38313
G1 X138.552 Y184.992 E89.42614
G1 X138.552 Y157.287 E90.61061
G1 X138.150 Y157.041 E90.63074
G1 X138.150 Y184.069 E91.78629
G1 X137.748 Y183.147 E91.82930
G1 X137.748 Y156.747 E92.95800
G1 X137.346 Y156.424 E92.98003
G1 X137.346 Y182.225 E94.08309
G1 X136.945 Y181.302 E94.12610
G1 X136.945 Y156.053 E95.20559
G1 X136.543 Y155.649 E95.22993
G1 X136.543 Y180.380 E96.28723
G1 X136.141 Y179.458 E96.33024
G1 X136.141 Y155.246 E97.36535
G1 X135.740 Y154.765 E97.39214
G1 X135.740 Y178.535 E98.40838
G1 X135.338 Y177.613 E98.45140
G1 X135.338 Y154.278 E99.44903
G1 X135.146 Y154.046 E99.46190
G1 X134.936 Y153.736 E99.47790
G1 X134.936 Y176.690 E100.45927
G1 X134.535 Y175.768 E100.50228
G1 X134.535 Y153.144 E101.46954
G1 X134.265 Y152.746 E101.49009
G1 X134.133 Y152.496 E101.50218
G1 X134.133 Y174.846 E102.45771
G1 X133.731 Y173.923 E102.50072
G1 X133.731 Y151.764 E103.44808
G1 X133.563 Y151.458 E103.46302
G1 X133.330 Y150.919 E103.48814
G1 X133.330 Y173.001 E104.43221
