; Generated by RP3 on 2021-07-8
; Job 0 - 3D Cloner

G21 ; set units to millimeters
M107 ;fan off
G28 ;home all axes
G90 ;absolute coordinates
G28 E0 ;home all axes
G1 E20.0 F100.0 ;extrude 20mm material with 100 mm/min speed
G28 E0 ;home all axes
G90 ;use absolute coordinates
M82 ; use absolute distances for extrusion
G92 E0 ;home of axes
M104 S90
G1 E-2.00000 F24000 ;retracts 2mm of material
M106 S102

(Layer 1)
G1  Z0.250 F2400

(Raster 1)
G92 E0
G1  X0048.409 Y0001.028 F2400
G1  E2.00000 F2400
G1  X0051.283 Y0001.028 E2.131 F2400
G1  X0051.539 Y0001.145 E2.144
G1  X0051.934 Y0001.428 E2.167
G1  X0047.803 Y0001.428 E2.355
G1  X0047.197 Y0001.828 E2.389
G1  X0052.372 Y0001.828 E2.625
G1  X0052.603 Y0002.072 E2.641
G1  X0052.702 Y0002.228 E2.649
G1  X0046.591 Y0002.228 E2.928
G1  X0045.985 Y0002.628 E2.962
G1  X0052.956 Y0002.628 E3.280
G1  X0052.983 Y0002.671 E3.283
G1  X0053.124 Y0003.028 E3.300
G1  X0045.378 Y0003.028 E3.654
G1  X0044.772 Y0003.428 E3.688
G1  X0053.261 Y0003.428 E4.076
G1  X0053.335 Y0003.828 E4.094
G1  X0044.166 Y0003.828 E4.513
G1  X0043.560 Y0004.228 E4.547
G1  X0053.370 Y0004.228 E4.995
G1  X0053.367 Y0004.628 E5.013
G1  X0042.954 Y0004.628 E5.490
G1  X0042.348 Y0005.028 E5.523
G1  X0053.307 Y0005.028 E6.024
G1  X0053.226 Y0005.428 E6.042
G1  X0041.742 Y0005.428 E6.567
G1  X0041.136 Y0005.828 E6.601
G1  X0053.061 Y0005.828 E7.146
G1  X0052.954 Y0006.085 E7.159
G1  X0052.860 Y0006.228 E7.166
G1  X0040.530 Y0006.228 E7.730
G1  X0039.924 Y0006.628 E7.763
G1  X0052.596 Y0006.628 E8.343
G1  X0052.564 Y0006.677 E8.345
G1  X0052.220 Y0007.028 E8.368
G1  X0039.318 Y0007.028 E8.958
G1  X0038.712 Y0007.428 E8.991
G1  X0051.779 Y0007.428 E9.588
G1  X0051.304 Y0007.828 E9.617
G1  X0038.106 Y0007.828 E10.220
G1  X0037.500 Y0008.228 E10.253
G1  X0050.829 Y0008.228 E10.863
G1  X0050.354 Y0008.628 E10.891
G1  X0036.894 Y0008.628 E11.507
G1  X0036.288 Y0009.028 E11.540
G1  X0049.879 Y0009.028 E12.161
G1  X0049.405 Y0009.428 E12.190
G1  X0035.681 Y0009.428 E12.817
G1  X0035.075 Y0009.828 E12.850
G1  X0048.930 Y0009.828 E13.484
G1  X0048.455 Y0010.228 E13.512
G1  X0034.469 Y0010.228 E14.151
G1  X0033.863 Y0010.628 E14.185
G1  X0047.980 Y0010.628 E14.830
G1  X0047.505 Y0011.028 E14.858
G1  X0033.257 Y0011.028 E15.510
G1  X0032.651 Y0011.428 E15.543
G1  X0047.030 Y0011.428 E16.201
G1  X0046.556 Y0011.828 E16.229
G1  X0032.045 Y0011.828 E16.892
G1  X0031.439 Y0012.228 E16.926
G1  X0046.081 Y0012.228 E17.595
G1  X0045.606 Y0012.628 E17.623
G1  X0030.833 Y0012.628 E18.299
G1  X0030.227 Y0013.028 E18.332
G1  X0045.131 Y0013.028 E19.013
G1  X0044.656 Y0013.428 E19.042
G1  X0029.621 Y0013.428 E19.729
G1  X0029.015 Y0013.828 E19.762
G1  X0044.181 Y0013.828 E20.456
G1  X0043.707 Y0014.228 E20.484
G1  X0028.409 Y0014.228 E21.184
G1  X0027.803 Y0014.628 E21.217
G1  X0043.086 Y0014.628 E21.916
G1  X0043.049 Y0014.651 E21.918
G1  X0042.648 Y0015.028 E21.943
G1  X0027.197 Y0015.028 E22.649
G1  X0026.591 Y0015.428 E22.682
G1  X0042.309 Y0015.428 E23.401
G1  X0042.053 Y0015.779 E23.421
G1  X0042.030 Y0015.828 E23.423
G1  X0025.985 Y0015.828 E24.157
G1  X0025.378 Y0016.228 E24.190
G1  X0041.841 Y0016.228 E24.943
G1  X0041.731 Y0016.462 E24.955
G1  X0041.687 Y0016.628 E24.962
G1  X0024.772 Y0016.628 E25.736
G1  X0024.166 Y0017.028 E25.769
G1  X0041.584 Y0017.028 E26.565
G1  X0041.541 Y0017.193 E26.573
G1  X0041.525 Y0017.428 E26.584
G1  X0023.560 Y0017.428 E27.405
G1  X0022.954 Y0017.828 E27.438
G1  X0041.499 Y0017.828 E28.286
G1  X0041.491 Y0017.947 E28.292
G1  X0041.525 Y0018.228 E28.305
G1  X0022.348 Y0018.228 E29.181
G1  X0021.742 Y0018.628 E29.215
G1  X0041.574 Y0018.628 E30.121
G1  X0041.583 Y0018.697 E30.125
G1  X0041.689 Y0019.028 E30.140
G1  X0021.136 Y0019.028 E31.080
G1  X0020.530 Y0019.428 E31.113
G1  X0041.819 Y0019.428 E32.087
G1  X0042.039 Y0019.828 E32.108
G1  X0019.924 Y0019.828 E33.119
G1  X0019.318 Y0020.228 E33.152
G1  X0042.294 Y0020.228 E34.202
G1  X0042.619 Y0020.628 E34.226
G1  X0018.712 Y0020.628 E35.319
G1  X0018.106 Y0021.028 E35.352
G1  X0042.959 Y0021.028 E36.488
G1  X0043.301 Y0021.428 E36.512
G1  X0017.500 Y0021.428 E37.692
G1  X0016.894 Y0021.828 E37.725
G1  X0043.583 Y0021.828 E38.946
G1  X0043.843 Y0022.228 E38.967
G1  X0016.288 Y0022.228 E40.227
G1  X0015.682 Y0022.628 E40.260
G1  X0044.079 Y0022.628 E41.559
G1  X0044.270 Y0023.028 E41.579
G1  X0015.075 Y0023.028 E42.914
G1  X0014.469 Y0023.428 E42.947
G1  X0044.461 Y0023.428 E44.318
G1  X0044.498 Y0023.506 E44.322
G1  X0044.603 Y0023.828 E44.338
G1  X0013.885 Y0023.828 E45.742
G1  X0013.322 Y0024.228 E45.774
G1  X0044.733 Y0024.228 E47.210
G1  X0044.848 Y0024.581 E47.227
G1  X0044.857 Y0024.628 E47.229
G1  X0012.759 Y0024.628 E48.696
G1  X0012.493 Y0024.817 E48.711
G1  X0012.235 Y0025.028 E48.727
G1  X0044.932 Y0025.028 E50.222
G1  X0045.006 Y0025.428 E50.240
G1  X0011.746 Y0025.428 E51.761
G1  X0011.257 Y0025.828 E51.790
G1  X0045.063 Y0025.828 E53.335
G1  X0045.086 Y0026.228 E53.354
G1  X0010.786 Y0026.228 E54.922
G1  X0010.360 Y0026.628 E54.949
G1  X0045.109 Y0026.628 E56.537
G1  X0045.118 Y0026.794 E56.545
G1  X0045.101 Y0027.028 E56.556
G1  X0009.934 Y0027.028 E58.164
G1  X0009.508 Y0027.428 E58.190
G1  X0045.072 Y0027.428 E59.816
G1  X0045.042 Y0027.828 E59.835
G1  X0009.123 Y0027.828 E61.477
G1  X0008.751 Y0028.228 E61.502
G1  X0044.972 Y0028.228 E63.158
G1  X0044.889 Y0028.628 E63.176
G1  X0008.380 Y0028.628 E64.846
G1  X0008.009 Y0029.027 E64.871
G1  X0008.008 Y0029.028 E64.871
G1  X0044.806 Y0029.028 E66.553
G1  X0044.806 Y0029.029 E66.553
G1  X0044.667 Y0029.428 E66.572
G1  X0007.684 Y0029.428 E68.263
G1  X0007.360 Y0029.828 E68.287
G1  X0044.528 Y0029.828 E69.986
G1  X0044.434 Y0030.098 E69.999
G1  X0044.368 Y0030.228 E70.006
G1  X0007.036 Y0030.228 E71.713
G1  X0006.717 Y0030.623 E71.736
G1  X0006.713 Y0030.628 E71.736
G1  X0044.167 Y0030.628 E73.448
G1  X0043.966 Y0031.028 E73.469
G1  X0006.432 Y0031.028 E75.185
G1  X0006.151 Y0031.428 E75.207
G1  X0043.709 Y0031.428 E76.924
G1  X0043.437 Y0031.828 E76.947
G1  X0005.870 Y0031.828 E78.664
G1  X0005.589 Y0032.228 E78.687
G1  X0022.463 Y0032.228 E79.458
G1  X0021.188 Y0032.487 E79.518
G1  X0020.720 Y0032.628 E79.540
G1  X0005.339 Y0032.628 E80.243
G1  X0005.097 Y0033.028 E80.264
G1  X0019.485 Y0033.028 E80.922
G1  X0018.505 Y0033.428 E80.971
G1  X0004.855 Y0033.428 E81.595
G1  X0004.613 Y0033.828 E81.616
G1  X0017.701 Y0033.828 E82.215
G1  X0016.995 Y0034.197 E82.251
G1  X0016.947 Y0034.228 E82.254
G1  X0004.386 Y0034.228 E82.828
G1  X0004.180 Y0034.628 E82.848
G1  X0016.329 Y0034.628 E83.404
G1  X0015.724 Y0035.020 E83.437
G1  X0015.714 Y0035.028 E83.438
G1  X0003.973 Y0035.028 E83.974
G1  X0003.767 Y0035.428 E83.995
G1  X0015.207 Y0035.428 E84.518
G1  X0014.700 Y0035.828 E84.547
G1  X0003.561 Y0035.828 E85.057
G1  X0003.555 Y0035.839 E85.057
G1  X0003.386 Y0036.228 E85.077
G1  X0014.254 Y0036.228 E85.574
G1  X0013.837 Y0036.628 E85.600
G1  X0003.212 Y0036.628 E86.086
G1  X0003.039 Y0037.028 E86.106
G1  X0013.419 Y0037.028 E86.580
G1  X0013.416 Y0037.032 E86.580
G1  X0013.073 Y0037.428 E86.604
G1  X0002.865 Y0037.428 E87.071
G1  X0002.717 Y0037.770 E87.088
G1  X0002.696 Y0037.828 E87.091
G1  X0012.727 Y0037.828 E87.550
G1  X0012.426 Y0038.176 E87.571
G1  X0012.389 Y0038.228 E87.574
G1  X0002.554 Y0038.228 E88.023
G1  X0002.413 Y0038.628 E88.043
G1  X0012.103 Y0038.628 E88.486
G1  X0011.816 Y0039.028 E88.508
G1  X0002.272 Y0039.028 E88.945
G1  X0002.130 Y0039.428 E88.964
G1  X0011.537 Y0039.428 E89.394
G1  X0011.304 Y0039.828 E89.415
G1  X0001.998 Y0039.828 E89.841
G1  X0001.886 Y0040.228 E89.860
G1  X0011.070 Y0040.228 E90.280
G1  X0010.837 Y0040.628 E90.301
G1  X0001.775 Y0040.628 E90.715
G1  X0001.663 Y0041.028 E90.734
G1  X0010.645 Y0041.028 E91.145
G1  X0010.460 Y0041.428 E91.165
G1  X0001.552 Y0041.428 E91.572
G1  X0001.481 Y0041.683 E91.584
G1  X0001.451 Y0041.828 E91.591
G1  X0010.274 Y0041.828 E91.994
G1  X0010.168 Y0042.058 E92.006
G1  X0010.108 Y0042.228 E92.014
G1  X0001.368 Y0042.228 E92.414
G1  X0001.286 Y0042.628 E92.432
G1  X0009.966 Y0042.628 E92.829
G1  X0009.824 Y0043.028 E92.849
G1  X0001.203 Y0043.028 E93.243
G1  X0001.121 Y0043.428 E93.262
G1  X0009.683 Y0043.428 E93.653
G1  X0009.662 Y0043.485 E93.656
G1  X0009.576 Y0043.828 E93.672
G1  X0001.047 Y0043.828 E94.062
G1  X0000.993 Y0044.228 E94.080
G1  X0009.475 Y0044.228 E94.468
G1  X0009.375 Y0044.628 E94.487
G1  X0000.938 Y0044.628 E94.873
G1  X0000.884 Y0045.028 E94.891
G1  X0009.281 Y0045.028 E95.275
G1  X0009.219 Y0045.428 E95.294
G1  X0000.829 Y0045.428 E95.677
G1  X0000.788 Y0045.729 E95.691
G1  X0000.782 Y0045.828 E95.696
G1  X0009.158 Y0045.828 E96.079
G1  X0009.096 Y0046.228 E96.097
G1  X0000.755 Y0046.228 E96.478
G1  X0000.728 Y0046.628 E96.497
G1  X0009.051 Y0046.628 E96.877
G1  X0009.028 Y0047.028 E96.896
G1  X0000.701 Y0047.028 E97.276
G1  X0000.674 Y0047.428 E97.295
G1  X0009.004 Y0047.428 E97.676
G1  X0008.980 Y0047.828 E97.694
G1  X0000.650 Y0047.828 E98.075
G1  X0000.650 Y0048.228 E98.093
G1  X0008.981 Y0048.228 E98.474
G1  X0008.995 Y0048.628 E98.492
G1  X0000.651 Y0048.628 E98.874
G1  X0000.651 Y0049.028 E98.892
G1  X0009.009 Y0049.028 E99.274
G1  X0009.023 Y0049.428 E99.292
G1  X0000.651 Y0049.428 E99.675
G1  X0000.651 Y0049.828 E99.693
G1  X0009.070 Y0049.828 E100.078
G1  X0009.121 Y0050.228 E100.097
G1  X0000.679 Y0050.228 E100.483
G1  X0000.707 Y0050.628 E100.501
G1  X0009.173 Y0050.628 E100.888
G1  X0009.217 Y0050.975 E100.904
G1  X0009.230 Y0051.028 E100.907
G1  X0000.734 Y0051.028 E101.295
G1  X0000.762 Y0051.428 E101.313
G1  X0009.320 Y0051.428 E101.705
G1  X0009.410 Y0051.828 E101.723
G1  X0000.789 Y0051.828 E102.118
G1  X0000.793 Y0051.879 E102.120
G1  X0000.841 Y0052.228 E102.136
G1  X0009.500 Y0052.228 E102.532
G1  X0009.550 Y0052.451 E102.542
G1  X0009.608 Y0052.628 E102.551
G1  X0000.896 Y0052.628 E102.949
G1  X0000.951 Y0053.028 E102.968
G1  X0009.738 Y0053.028 E103.369
G1  X0009.869 Y0053.428 E103.389
G1  X0001.006 Y0053.428 E103.794
G1  X0001.062 Y0053.828 E103.812
G1  X0010.000 Y0053.828 E104.221
G1  X0010.020 Y0053.891 E104.224
G1  X0010.166 Y0054.228 E104.241
G1  X0001.139 Y0054.228 E104.653
G1  X0001.222 Y0054.628 E104.672
G1  X0010.340 Y0054.628 E105.089
G1  X0010.513 Y0055.028 E105.109
G1  X0001.305 Y0055.028 E105.530
G1  X0001.389 Y0055.428 E105.549
G1  X0010.704 Y0055.428 E105.974
G1  X0010.924 Y0055.828 E105.995
G1  X0001.472 Y0055.828 E106.427
G1  X0001.492 Y0055.924 E106.432
G1  X0001.577 Y0056.228 E106.446
G1  X0011.144 Y0056.228 E106.884
G1  X0011.351 Y0056.606 E106.903
G1  X0011.366 Y0056.628 E106.905
G1  X0001.689 Y0056.628 E107.347
G1  X0001.801 Y0057.028 E107.366
G1  X0011.638 Y0057.028 E107.816
G1  X0011.910 Y0057.428 E107.838
G1  X0001.914 Y0057.428 E108.295
G1  X0002.026 Y0057.828 E108.314
G1  X0012.181 Y0057.828 E108.778
G1  X0012.202 Y0057.858 E108.780
G1  X0012.507 Y0058.228 E108.802
G1  X0002.162 Y0058.228 E109.275
G1  X0002.305 Y0058.628 E109.294
G1  X0012.837 Y0058.628 E109.776
G1  X0013.165 Y0059.026 E109.799
G1  X0013.168 Y0059.028 E109.799
G1  X0002.447 Y0059.028 E110.290
G1  X0002.589 Y0059.428 E110.309
G1  X0013.566 Y0059.428 E110.811
G1  X0013.965 Y0059.828 E110.837
G1  X0002.731 Y0059.828 E111.350
G1  X0002.734 Y0059.836 E111.351
G1  X0002.904 Y0060.228 E111.370
G1  X0014.396 Y0060.228 E111.896
G1  X0014.895 Y0060.628 E111.925
G1  X0003.078 Y0060.628 E112.465
G1  X0003.251 Y0061.028 E112.485
G1  X0015.502 Y0061.028 E113.045
G1  X0015.938 Y0061.295 E113.069
G1  X0016.237 Y0061.428 E113.084
G1  X0003.425 Y0061.428 E113.669
G1  X0003.551 Y0061.719 E113.684
G1  X0003.608 Y0061.828 E113.690
G1  X0017.246 Y0061.828 E114.313
G1  X0017.887 Y0062.022 E114.344
G1  X0018.915 Y0062.194 E114.391
G1  X0019.787 Y0062.228 E114.431
G1  X0003.815 Y0062.228 E115.161
G1  X0004.022 Y0062.628 E115.182
G1  X0043.928 Y0062.628 E117.007
G1  X0043.910 Y0062.941 E117.021
G1  X0043.900 Y0063.028 E117.025
G1  X0004.229 Y0063.028 E118.839
G1  X0004.436 Y0063.428 E118.859
G1  X0043.855 Y0063.428 E120.661
G1  X0043.810 Y0063.828 E120.680
G1  X0004.620 Y0063.828 E122.472
G1  X0004.794 Y0064.228 E122.492
G1  X0043.765 Y0064.228 E124.273
G1  X0043.720 Y0064.628 E124.292
G1  X0004.969 Y0064.628 E126.063
G1  X0005.143 Y0065.028 E126.083
G1  X0043.675 Y0065.028 E127.845
G1  X0043.630 Y0065.428 E127.863
G1  X0005.317 Y0065.428 E129.615
G1  X0005.491 Y0065.828 E129.635
G1  X0043.578 Y0065.828 E131.376
G1  X0043.522 Y0066.228 E131.395
G1  X0005.665 Y0066.228 E133.126
G1  X0005.840 Y0066.628 E133.146
G1  X0043.466 Y0066.628 E134.866
G1  X0043.410 Y0067.028 E134.884
G1  X0006.014 Y0067.028 E136.594
G1  X0006.188 Y0067.428 E136.614
G1  X0043.354 Y0067.428 E138.313
G1  X0043.298 Y0067.828 E138.332
G1  X0006.362 Y0067.828 E140.020
G1  X0006.536 Y0068.228 E140.040
G1  X0043.242 Y0068.228 E141.719
G1  X0043.186 Y0068.628 E141.737
G1  X0006.711 Y0068.628 E143.405
G1  X0006.885 Y0069.028 E143.425
G1  X0043.130 Y0069.028 E145.082
G1  X0043.074 Y0069.428 E145.100
G1  X0007.059 Y0069.428 E146.747
G1  X0007.233 Y0069.828 E146.767
G1  X0043.018 Y0069.828 E148.403
G1  X0042.962 Y0070.228 E148.421
G1  X0007.407 Y0070.228 E150.047
G1  X0007.582 Y0070.628 E150.067
G1  X0042.906 Y0070.628 E151.682
G1  X0042.850 Y0071.028 E151.700
G1  X0007.756 Y0071.028 E153.305
G1  X0007.930 Y0071.428 E153.325
G1  X0042.794 Y0071.428 E154.919
G1  X0042.738 Y0071.828 E154.937
G1  X0008.104 Y0071.828 E156.521
G1  X0008.278 Y0072.228 E156.541
G1  X0042.682 Y0072.228 E158.114
G1  X0042.626 Y0072.628 E158.132
G1  X0008.453 Y0072.628 E159.694
G1  X0008.627 Y0073.028 E159.714
G1  X0042.570 Y0073.028 E161.266
G1  X0042.514 Y0073.428 E161.285
G1  X0008.801 Y0073.428 E162.826
G1  X0008.975 Y0073.828 E162.846
G1  X0042.458 Y0073.828 E164.377
G1  X0042.402 Y0074.228 E164.395
G1  X0009.150 Y0074.228 E165.915
G1  X0009.324 Y0074.628 E165.935
G1  X0042.346 Y0074.628 E167.445
G1  X0042.289 Y0075.028 E167.464
G1  X0009.498 Y0075.028 E168.963
G1  X0009.672 Y0075.428 E168.983
G1  X0042.233 Y0075.428 E170.472
G1  X0042.177 Y0075.828 E170.490
G1  X0009.846 Y0075.828 E171.968
G1  X0010.021 Y0076.228 E171.988
G1  X0042.121 Y0076.228 E173.456
G1  X0042.065 Y0076.628 E173.474
G1  X0010.195 Y0076.628 E174.931
G1  X0010.369 Y0077.028 E174.951
G1  X0042.009 Y0077.028 E176.398
G1  X0041.953 Y0077.428 E176.416
G1  X0010.543 Y0077.428 E177.852
G1  X0010.717 Y0077.828 E177.872
G1  X0041.897 Y0077.828 E179.298
G1  X0041.841 Y0078.228 E179.316
G1  X0010.892 Y0078.228 E180.731
G1  X0011.066 Y0078.628 E180.751
G1  X0041.785 Y0078.628 E182.156
G1  X0041.729 Y0079.028 E182.174
G1  X0011.240 Y0079.028 E183.568
G1  X0011.414 Y0079.428 E183.588
G1  X0041.673 Y0079.428 E184.972
G1  X0041.617 Y0079.828 E184.990
G1  X0011.588 Y0079.828 E186.363
G1  X0011.763 Y0080.228 E186.383
G1  X0041.561 Y0080.228 E187.745
G1  X0041.505 Y0080.628 E187.764
G1  X0011.937 Y0080.628 E189.116
G1  X0012.111 Y0081.028 E189.136
G1  X0041.449 Y0081.028 E190.477
G1  X0041.393 Y0081.428 E190.495
G1  X0012.285 Y0081.428 E191.826
G1  X0012.459 Y0081.828 E191.846
G1  X0041.337 Y0081.828 E193.166
G1  X0041.281 Y0082.228 E193.185
G1  X0012.634 Y0082.228 E194.495
G1  X0012.808 Y0082.628 E194.515
G1  X0041.225 Y0082.628 E195.814
G1  X0041.169 Y0083.028 E195.832
G1  X0012.982 Y0083.028 E197.121
G1  X0013.156 Y0083.428 E197.141
G1  X0041.113 Y0083.428 E198.419
G1  X0041.057 Y0083.828 E198.438
G1  X0013.330 Y0083.828 E199.705
G1  X0013.505 Y0084.228 E199.725
G1  X0041.001 Y0084.228 E200.982
G1  X0040.945 Y0084.628 E201.001
G1  X0013.679 Y0084.628 E202.247
G1  X0013.853 Y0085.028 E202.267
G1  X0040.889 Y0085.028 E203.503
G1  X0040.833 Y0085.428 E203.522
G1  X0014.027 Y0085.428 E204.747
G1  X0014.201 Y0085.828 E204.767
G1  X0040.777 Y0085.828 E205.982
G1  X0040.721 Y0086.228 E206.001
G1  X0014.376 Y0086.228 E207.205
G1  X0014.550 Y0086.628 E207.225
G1  X0040.665 Y0086.628 E208.419
G1  X0040.609 Y0087.028 E208.438
G1  X0014.724 Y0087.028 E209.621
G1  X0014.898 Y0087.428 E209.641
G1  X0040.553 Y0087.428 E210.814
G1  X0040.496 Y0087.828 E210.833
