; generated by Slic3r 1.3.1-dev (Build 8c69278) on 2021-12-10 at 13:24:54

; external perimeters extrusion width = 0.45mm (3.99mm^3/s)
; perimeters extrusion width = 0.45mm (3.99mm^3/s)
; infill extrusion width = 0.45mm (3.99mm^3/s)
; solid infill extrusion width = 0.45mm (4.99mm^3/s)
; top infill extrusion width = 0.45mm (3.00mm^3/s)
; support material extrusion width = 0.45mm (4.99mm^3/s)

M107
G92 E0
M104 S205 ; set temperature
G28 ; home all axes
G1 Z5 F5000 ; lift nozzle

; Filament gcode

M109 S205 ; set temperature and wait for it to be reached
G21 ; set units to millimeters
G90 ; use absolute coordinates
M82 ; use absolute distances for extrusion
G92 E0
G1 Z0.250 F7800.000
G1 E-2.00000 F2400.00000
G92 E0
G1 X100.256 Y118.334 F7800.000
G1 E2.00000 F2400.00000
G1 F2400.000
G1 X100.256 Y118.348 E2.00060
G1 X100.277 Y117.403 E2.04103
G1 X100.452 Y116.475 E2.08137
G1 X100.655 Y115.917 E2.10678
G1 X100.655 Y120.141 E2.28736
G1 X101.055 Y120.952 E2.32601
G1 X101.055 Y115.090 E2.57661
G1 X101.237 Y114.766 E2.59252
G1 X101.454 Y114.495 E2.60739
G1 X101.454 Y121.525 E2.90794
G1 X101.646 Y121.789 E2.92189
G1 X101.854 Y121.994 E2.93438
G1 X101.854 Y114.005 E3.27594
G1 X102.253 Y113.645 E3.29893
G1 X102.253 Y122.389 E3.67275
G1 X102.653 Y122.734 E3.69534
G1 X102.653 Y113.318 E4.09794
G1 X103.052 Y113.061 E4.11823
G1 X103.052 Y123.070 E4.54612
G1 X103.452 Y123.405 E4.56842
G1 X103.452 Y112.832 E5.02043
G1 X103.852 Y112.660 E5.03903
G1 X103.852 Y123.740 E5.51274
G1 X104.251 Y124.076 E5.53504
G1 X104.251 Y112.499 E6.02997
G1 X104.651 Y112.399 E6.04758
G1 X104.651 Y124.411 E6.56110
G1 X105.050 Y124.746 E6.58340
G1 X105.050 Y112.300 E7.11551
G1 X105.450 Y112.258 E7.13268
G1 X105.450 Y125.081 E7.68092
G1 X105.849 Y125.417 E7.70322
G1 X105.849 Y112.225 E8.26718
G1 X106.249 Y112.209 E8.28427
G1 X106.249 Y125.752 E8.86328
G1 X106.648 Y126.087 E8.88558
G1 X106.648 Y112.209 E9.47891
G1 X107.048 Y112.209 E9.49600
G1 X107.048 Y126.422 E10.10367
G1 X107.448 Y126.758 E10.12597
G1 X107.448 Y112.209 E10.74797
G1 X107.847 Y112.209 E10.76505
G1 X107.847 Y127.093 E11.40139
G1 X108.247 Y127.428 E11.42369
G1 X108.247 Y112.209 E12.07437
G1 X108.646 Y112.209 E12.09145
G1 X108.646 Y127.763 E12.75645
G1 X109.046 Y128.099 E12.77875
G1 X109.046 Y119.933 E13.12785
G1 X108.977 Y119.676 E13.13922
G1 X108.972 Y119.384 E13.15174
G1 X109.046 Y119.082 E13.16500
G1 X109.046 Y112.209 E13.45886
G1 X109.445 Y112.209 E13.47595
G1 X109.445 Y118.559 E13.74742
G1 X109.602 Y118.449 E13.75562
G1 X109.845 Y118.355 E13.76672
G1 X109.845 Y112.209 E14.02951
G1 X110.244 Y112.209 E14.04659
G1 X110.244 Y118.309 E14.30741
G1 X110.644 Y118.309 E14.32449
G1 X110.644 Y112.209 E14.58532
G1 X111.044 Y112.209 E14.60240
G1 X111.044 Y118.309 E14.86322
G1 X111.443 Y118.309 E14.88030
G1 X111.443 Y112.209 E15.14112
G1 X111.843 Y112.209 E15.15820
G1 X111.843 Y118.309 E15.41902
G1 X112.242 Y118.309 E15.43611
G1 X112.242 Y112.209 E15.69693
G1 X112.642 Y112.209 E15.71401
G1 X112.642 Y118.309 E15.97483
G1 X113.041 Y118.309 E15.99191
G1 X113.041 Y112.209 E16.25273
G1 X113.441 Y112.209 E16.26981
G1 X113.441 Y118.309 E16.53064
G1 X113.840 Y118.309 E16.54772
G1 X113.840 Y112.209 E16.80854
G1 X114.240 Y112.209 E16.82562
G1 X114.240 Y118.309 E17.08644
G1 X114.640 Y118.309 E17.10352
G1 X114.640 Y112.209 E17.36434
G1 X115.039 Y112.209 E17.38143
G1 X115.039 Y118.309 E17.64225
G1 X115.439 Y118.309 E17.65933
G1 X115.439 Y112.209 E17.92015
G1 X115.838 Y112.209 E17.93723
G1 X115.838 Y118.309 E18.19805
G1 X116.238 Y118.309 E18.21513
G1 X116.238 Y112.209 E18.47595
G1 X116.637 Y112.209 E18.49304
G1 X116.637 Y118.309 E18.75386
G1 X117.037 Y118.309 E18.77094
G1 X117.037 Y112.209 E19.03176
G1 X117.436 Y112.209 E19.04884
G1 X117.436 Y118.309 E19.30966
G1 X117.836 Y118.309 E19.32675
G1 X117.836 Y112.209 E19.58757
G1 X118.236 Y112.209 E19.60465
G1 X118.236 Y118.309 E19.86547
G1 X118.635 Y118.309 E19.88255
G1 X118.635 Y112.209 E20.14337
G1 X119.035 Y112.209 E20.16045
G1 X119.035 Y118.309 E20.42127
G1 X119.434 Y118.309 E20.43836
G1 X119.434 Y112.209 E20.69918
G1 X119.834 Y112.209 E20.71626
G1 X119.834 Y118.309 E20.97708
G1 X120.233 Y118.309 E20.99416
G1 X120.233 Y112.209 E21.25498
G1 X120.633 Y112.209 E21.27206
G1 X120.633 Y118.309 E21.53289
G1 X121.032 Y118.309 E21.54997
G1 X121.032 Y112.209 E21.81079
G1 X121.432 Y112.209 E21.82787
G1 X121.432 Y118.309 E22.08869
G1 X121.832 Y118.309 E22.10577
G1 X121.832 Y112.209 E22.36659
G1 X122.231 Y112.209 E22.38368
G1 X122.231 Y118.309 E22.64450
G1 X122.631 Y118.309 E22.66158
G1 X122.631 Y112.209 E22.92240
G1 X123.030 Y112.209 E22.93948
G1 X123.030 Y118.309 E23.20030
G1 X123.430 Y118.309 E23.21738
G1 X123.430 Y112.209 E23.47821
G1 X123.829 Y112.209 E23.49529
G1 X123.829 Y118.309 E23.75611
G1 X124.229 Y118.309 E23.77319
G1 X124.229 Y112.209 E24.03401
G1 X124.628 Y112.209 E24.05109
G1 X124.628 Y118.309 E24.31191
G1 X125.028 Y118.309 E24.32900
G1 X125.028 Y112.209 E24.58982
G1 X125.428 Y112.209 E24.60690
G1 X125.428 Y118.309 E24.86772
G1 X125.827 Y118.309 E24.88480
G1 X125.827 Y112.209 E25.14562
G1 X126.227 Y112.209 E25.16270
G1 X126.227 Y118.309 E25.42352
G1 X126.626 Y118.309 E25.44061
G1 X126.626 Y112.209 E25.70143
G1 X127.026 Y112.209 E25.71851
G1 X127.026 Y118.309 E25.97933
G1 X127.425 Y118.309 E25.99641
G1 X127.425 Y112.209 E26.25723
G1 X127.825 Y112.209 E26.27432
G1 X127.825 Y118.309 E26.53514
G1 X128.224 Y118.309 E26.55222
G1 X128.224 Y112.209 E26.81304
G1 X128.624 Y112.209 E26.83012
G1 X128.624 Y118.309 E27.09094
G1 X129.024 Y118.309 E27.10802
G1 X129.024 Y112.209 E27.36884
G1 X129.423 Y112.209 E27.38593
G1 X129.423 Y118.309 E27.64675
G1 X129.823 Y118.309 E27.66383
G1 X129.823 Y112.209 E27.92465
G1 X130.222 Y112.209 E27.94173
G1 X130.222 Y118.309 E28.20255
G1 X130.622 Y118.309 E28.21963
G1 X130.622 Y112.209 E28.48046
G1 X131.021 Y112.209 E28.49754
G1 X131.021 Y118.309 E28.75836
G1 X131.421 Y118.309 E28.77544
G1 X131.421 Y112.209 E29.03626
G1 X131.820 Y112.209 E29.05334
G1 X131.820 Y118.309 E29.31416
G1 X132.220 Y118.309 E29.33125
G1 X132.220 Y112.209 E29.59207
G1 X132.619 Y112.209 E29.60915
G1 X132.619 Y118.309 E29.86997
G1 X133.019 Y118.309 E29.88705
G1 X133.019 Y112.209 E30.14787
G1 X133.419 Y112.209 E30.16495
G1 X133.419 Y118.309 E30.42578
G1 X133.818 Y118.309 E30.44286
G1 X133.818 Y112.209 E30.70368
G1 X134.218 Y112.209 E30.72076
G1 X134.218 Y118.309 E30.98158
G1 X134.617 Y118.309 E30.99866
G1 X134.617 Y112.209 E31.25948
G1 X135.017 Y112.209 E31.27657
G1 X135.017 Y118.309 E31.53739
G1 X135.416 Y118.309 E31.55447
G1 X135.416 Y112.209 E31.81529
G1 X135.816 Y112.209 E31.83237
G1 X135.816 Y118.309 E32.09319
G1 X136.215 Y118.309 E32.11027
G1 X136.215 Y112.209 E32.37109
G1 X136.615 Y112.209 E32.38818
G1 X136.615 Y118.309 E32.64900
G1 X137.015 Y118.309 E32.66608
G1 X137.015 Y112.209 E32.92690
G1 X137.414 Y112.209 E32.94398
G1 X137.414 Y118.309 E33.20480
G1 X137.814 Y118.309 E33.22189
G1 X137.814 Y112.209 E33.48271
G1 X138.213 Y112.209 E33.49979
G1 X138.213 Y118.309 E33.76061
G1 X138.613 Y118.309 E33.77769
G1 X138.613 Y112.209 E34.03851
G1 X139.012 Y112.209 E34.05559
G1 X139.012 Y118.309 E34.31641
G1 X139.412 Y118.309 E34.33350
G1 X139.412 Y112.209 E34.59432
G1 X139.811 Y112.209 E34.61140
G1 X139.811 Y118.309 E34.87222
G1 X140.211 Y118.309 E34.88930
G1 X140.211 Y112.209 E35.15012
G1 X140.611 Y112.209 E35.16720
G1 X140.611 Y118.309 E35.42803
G1 X141.010 Y118.309 E35.44511
G1 X141.010 Y112.209 E35.70593
G1 X141.410 Y112.209 E35.72301
G1 X141.410 Y118.309 E35.98383
G1 X141.809 Y118.309 E36.00091
G1 X141.809 Y112.209 E36.26173
G1 X142.209 Y112.209 E36.27882
G1 X142.209 Y118.309 E36.53964
G1 X142.608 Y118.309 E36.55672
G1 X142.608 Y112.209 E36.81754
G1 X143.008 Y112.209 E36.83462
G1 X143.008 Y118.309 E37.09544
G1 X143.407 Y118.309 E37.11252
G1 X143.407 Y112.209 E37.37335
G1 X143.807 Y112.209 E37.39043
G1 X143.807 Y118.309 E37.65125
G1 X144.207 Y118.309 E37.66833
G1 X144.207 Y112.209 E37.92915
G1 X144.606 Y112.209 E37.94623
G1 X144.606 Y118.309 E38.20705
G1 X145.006 Y118.309 E38.22414
G1 X145.006 Y112.209 E38.48496
G1 X145.405 Y112.209 E38.50204
G1 X145.405 Y118.309 E38.76286
G1 X145.805 Y118.309 E38.77994
G1 X145.805 Y112.209 E39.04076
G1 X146.204 Y112.209 E39.05784
G1 X146.204 Y118.309 E39.31866
G1 X146.604 Y118.309 E39.33575
G1 X146.604 Y112.209 E39.59657
G1 X147.003 Y112.209 E39.61365
G1 X147.003 Y118.309 E39.87447
G1 X147.403 Y118.309 E39.89155
G1 X147.403 Y112.209 E40.15237
G1 X147.803 Y112.209 E40.16946
G1 X147.803 Y118.309 E40.43028
G1 X148.202 Y118.309 E40.44736
G1 X148.202 Y112.209 E40.70818
G1 X148.602 Y112.209 E40.72526
G1 X148.602 Y118.309 E40.98608
G1 X149.001 Y118.309 E41.00316
G1 X149.001 Y112.209 E41.26398
G1 X149.401 Y112.209 E41.28107
G1 X149.401 Y118.309 E41.54189
G1 X149.800 Y118.309 E41.55897
G1 X149.800 Y112.209 E41.81979
G1 X150.200 Y112.209 E41.83687
G1 X150.200 Y118.309 E42.09769
G1 X150.599 Y118.309 E42.11477
G1 X150.599 Y112.209 E42.37560
G1 X150.999 Y112.209 E42.39268
G1 X150.999 Y118.309 E42.65350
G1 X151.399 Y118.309 E42.67058
G1 X151.399 Y112.209 E42.93140
G1 X151.798 Y112.209 E42.94848
G1 X151.798 Y118.309 E43.20930
G1 X152.198 Y118.309 E43.22639
G1 X152.198 Y112.209 E43.48721
G1 X152.597 Y112.209 E43.50429
G1 X152.597 Y118.309 E43.76511
G1 X152.997 Y118.309 E43.78219
G1 X152.997 Y112.209 E44.04301
G1 X153.396 Y112.209 E44.06009
G1 X153.396 Y118.309 E44.32092
G1 X153.796 Y118.309 E44.33800
G1 X153.796 Y112.209 E44.59882
G1 X154.195 Y112.209 E44.61590
G1 X154.195 Y118.309 E44.87672
G1 X154.595 Y118.309 E44.89380
G1 X154.595 Y112.209 E45.15462
G1 X154.995 Y112.209 E45.17171
G1 X154.995 Y118.309 E45.43253
G1 X155.394 Y118.309 E45.44961
G1 X155.394 Y112.209 E45.71043
G1 X155.794 Y112.209 E45.72751
G1 X155.794 Y118.309 E45.98833
G1 X156.193 Y118.309 E46.00541
G1 X156.193 Y112.209 E46.26623
G1 X156.593 Y112.209 E46.28332
G1 X156.593 Y118.309 E46.54414
G1 X156.992 Y118.309 E46.56122
G1 X156.992 Y112.209 E46.82204
G1 X157.392 Y112.209 E46.83912
G1 X157.392 Y118.309 E47.09994
G1 X157.791 Y118.309 E47.11702
G1 X157.791 Y112.209 E47.37785
G1 X158.191 Y112.209 E47.39493
G1 X158.191 Y118.309 E47.65575
G1 X158.590 Y118.309 E47.67283
G1 X158.590 Y112.209 E47.93365
G1 X158.990 Y112.209 E47.95073
G1 X158.990 Y118.309 E48.21155
G1 X159.390 Y118.309 E48.22864
G1 X159.390 Y112.209 E48.48946
G1 X159.789 Y112.209 E48.50654
G1 X159.789 Y118.309 E48.76736
G1 X160.189 Y118.309 E48.78444
G1 X160.189 Y112.209 E49.04526
G1 X160.588 Y112.209 E49.06234
G1 X160.588 Y118.309 E49.32317
G1 X160.988 Y118.309 E49.34025
G1 X160.988 Y112.209 E49.60107
G1 X161.387 Y112.209 E49.61815
G1 X161.387 Y118.309 E49.87897
G1 X161.787 Y118.309 E49.89605
G1 X161.787 Y112.209 E50.15687
G1 X162.186 Y112.209 E50.17396
G1 X162.186 Y118.309 E50.43478
G1 X162.586 Y118.309 E50.45186
G1 X162.586 Y112.209 E50.71268
G1 X162.986 Y112.209 E50.72976
G1 X162.986 Y118.309 E50.99058
G1 X163.385 Y118.309 E51.00766
G1 X163.385 Y112.209 E51.26848
G1 X163.785 Y112.209 E51.28557
G1 X163.785 Y118.309 E51.54639
G1 X164.184 Y118.309 E51.56347
G1 X164.184 Y112.209 E51.82429
G1 X164.584 Y112.209 E51.84137
G1 X164.584 Y118.309 E52.10219
G1 X164.983 Y118.309 E52.11928
G1 X164.983 Y112.209 E52.38010
G1 X165.383 Y112.209 E52.39718
G1 X165.383 Y118.309 E52.65800
G1 X165.782 Y118.309 E52.67508
G1 X165.782 Y112.209 E52.93590
G1 X166.182 Y112.209 E52.95298
G1 X166.182 Y118.309 E53.21380
G1 X166.582 Y118.309 E53.23089
G1 X166.582 Y112.209 E53.49171
G1 X166.981 Y112.209 E53.50879
G1 X166.981 Y118.309 E53.76961
G1 X167.381 Y118.309 E53.78669
G1 X167.381 Y112.209 E54.04751
G1 X167.780 Y112.209 E54.06459
G1 X167.780 Y118.309 E54.32542
G1 X168.180 Y118.309 E54.34250
G1 X168.180 Y112.209 E54.60332
G1 X168.579 Y112.209 E54.62040
G1 X168.579 Y118.309 E54.88122
G1 X168.979 Y118.309 E54.89830
G1 X168.979 Y112.209 E55.15912
G1 X169.378 Y112.209 E55.17621
G1 X169.378 Y118.309 E55.43703
G1 X169.778 Y118.309 E55.45411
G1 X169.778 Y112.209 E55.71493
G1 X170.178 Y112.209 E55.73201
G1 X170.178 Y118.309 E55.99283
G1 X170.577 Y118.309 E56.00991
G1 X170.577 Y112.209 E56.27073
G1 X170.977 Y112.209 E56.28782
G1 X170.977 Y118.309 E56.54864
G1 X171.376 Y118.309 E56.56572
G1 X171.376 Y112.209 E56.82654
G1 X171.776 Y112.209 E56.84362
G1 X171.776 Y118.309 E57.10444
G1 X172.175 Y118.309 E57.12153
G1 X172.175 Y112.209 E57.38235
G1 X172.575 Y112.209 E57.39943
G1 X172.575 Y118.309 E57.66025
G1 X172.974 Y118.309 E57.67733
G1 X172.974 Y112.209 E57.93815
G1 X173.374 Y112.209 E57.95523
G1 X173.374 Y118.309 E58.21605
G1 X173.774 Y118.309 E58.23314
G1 X173.774 Y112.209 E58.49396
G1 X174.173 Y112.209 E58.51104
G1 X174.173 Y118.309 E58.77186
G1 X174.573 Y118.309 E58.78894
G1 X174.573 Y112.209 E59.04976
G1 X174.972 Y112.209 E59.06684
G1 X174.972 Y118.309 E59.32767
G1 X175.372 Y118.309 E59.34475
G1 X175.372 Y112.209 E59.60557
G1 X175.771 Y112.209 E59.62265
G1 X175.771 Y118.309 E59.88347
G1 X176.171 Y118.309 E59.90055
G1 X176.171 Y112.209 E60.16137
G1 X176.570 Y112.209 E60.17846
G1 X176.570 Y118.309 E60.43928
G1 X176.970 Y118.309 E60.45636
G1 X176.970 Y112.209 E60.71718
G1 X177.370 Y112.209 E60.73426
G1 X177.370 Y118.309 E60.99508
G1 X177.769 Y118.309 E61.01216
G1 X177.769 Y112.209 E61.27299
G1 X178.169 Y112.209 E61.29007
G1 X178.169 Y118.309 E61.55089
G1 X178.568 Y118.309 E61.56797
G1 X178.568 Y112.209 E61.82879
G1 X178.968 Y112.209 E61.84587
G1 X178.968 Y118.309 E62.10669
G1 X179.367 Y118.309 E62.12378
G1 X179.367 Y112.209 E62.38460
G1 X179.767 Y112.209 E62.40168
G1 X179.767 Y118.309 E62.66250
G1 X180.166 Y118.309 E62.67958
G1 X180.166 Y112.209 E62.94040
G1 X180.566 Y112.209 E62.95748
G1 X180.566 Y118.309 E63.21830
G1 X180.966 Y118.309 E63.23539
G1 X180.966 Y112.209 E63.49621
G1 X181.365 Y112.209 E63.51329
G1 X181.365 Y118.309 E63.77411
G1 X181.765 Y118.309 E63.79119
G1 X181.765 Y112.209 E64.05201
G1 X182.164 Y112.209 E64.06909
G1 X182.164 Y118.309 E64.32992
G1 X182.564 Y118.309 E64.34700
G1 X182.564 Y112.209 E64.60782
G1 X182.963 Y112.209 E64.62490
G1 X182.963 Y118.309 E64.88572
G1 X183.363 Y118.309 E64.90280
G1 X183.363 Y112.209 E65.16362
G1 X183.762 Y112.209 E65.18071
G1 X183.762 Y118.309 E65.44153
G1 X184.162 Y118.309 E65.45861
G1 X184.162 Y112.209 E65.71943
G1 X184.562 Y112.209 E65.73651
G1 X184.562 Y118.309 E65.99733
G1 X184.961 Y118.309 E66.01441
G1 X184.961 Y112.209 E66.27524
G1 X185.361 Y112.209 E66.29232
G1 X185.361 Y118.309 E66.55314
G1 X185.760 Y118.309 E66.57022
G1 X185.760 Y112.209 E66.83104
G1 X186.160 Y112.209 E66.84812
G1 X186.160 Y118.309 E67.10894
G1 X186.559 Y118.309 E67.12603
G1 X186.559 Y112.209 E67.38685
G1 X186.959 Y112.209 E67.40393
G1 X186.959 Y118.309 E67.66475
G1 X187.358 Y118.309 E67.68183
G1 X187.358 Y112.209 E67.94265
G1 X187.758 Y112.209 E67.95973
G1 X187.758 Y118.309 E68.22055
G1 X188.157 Y118.309 E68.23764
G1 X188.157 Y112.209 E68.49846
G1 X188.557 Y112.209 E68.51554
G1 X188.557 Y118.309 E68.77636
G1 X188.957 Y118.309 E68.79344
G1 X188.957 Y112.209 E69.05426
G1 X189.356 Y112.209 E69.07135
G1 X189.356 Y118.309 E69.33217
G1 X189.756 Y118.309 E69.34925
G1 X189.756 Y112.209 E69.61007
G1 X190.155 Y112.209 E69.62715
G1 X190.155 Y118.356 E69.88994
G1 X190.397 Y118.449 E69.90104
G1 X190.555 Y118.559 E69.90925
G1 X190.555 Y112.209 E70.18072
G1 X190.954 Y112.209 E70.19781
G1 X190.954 Y119.083 E70.49169
G1 E68.49169 F2400.00000
G92 E0
G1 X199.745 Y118.347 F7800.000
G1 E2.00000 F2400.00000
G1 F2400.000
G1 X199.723 Y117.403 E2.04038
G1 X199.548 Y116.475 E2.08072
G1 X199.345 Y115.918 E2.10610
G1 X199.345 Y120.141 E2.28664
G1 X198.945 Y120.952 E2.32530
G1 X198.945 Y115.091 E2.57587
G1 X198.763 Y114.766 E2.59180
G1 X198.546 Y114.495 E2.60665
G1 X198.546 Y121.524 E2.90718
G1 X198.354 Y121.789 E2.92115
G1 X198.146 Y121.994 E2.93362
G1 X198.146 Y114.005 E3.27517
G1 X197.747 Y113.645 E3.29816
G1 X197.747 Y122.389 E3.67197
G1 X197.347 Y122.734 E3.69456
G1 X197.347 Y113.318 E4.09714
G1 X196.948 Y113.061 E4.11744
G1 X196.948 Y123.070 E4.54531
G1 X196.548 Y123.405 E4.56761
G1 X196.548 Y112.832 E5.01961
G1 X196.149 Y112.660 E5.03821
G1 X196.149 Y123.740 E5.51191
G1 X195.749 Y124.075 E5.53421
G1 X195.749 Y112.499 E6.02913
