; generated by Slic3r 1.3.1-dev (Build 8c69278) on 2021-12-10 at 13:24:54

; external perimeters extrusion width = 0.45mm (3.99mm^3/s)
; perimeters extrusion width = 0.45mm (3.99mm^3/s)
; infill extrusion width = 0.45mm (3.99mm^3/s)
; solid infill extrusion width = 0.45mm (4.99mm^3/s)
; top infill extrusion width = 0.45mm (3.00mm^3/s)
; support material extrusion width = 0.45mm (4.99mm^3/s)

M107
G92 E0
M104 S205 ; set temperature
G28 ; home all axes
G1 Z5 F5000 ; lift nozzle

; Filament gcode

M109 S205 ; set temperature and wait for it to be reached
G21 ; set units to millimeters
G90 ; use absolute coordinates
M82 ; use absolute distances for extrusion
G92 E0
G1 Z0.250 F7800.000
G1 E-2.00000 F2400.00000
G92 E0
G1 X100.292 Y118.607 F7800.000
G1 E2.00000 F2400.00000
G1 F2400.000
G1 X100.348 Y119.007 E2.01727
G1 X109.084 Y119.007 E2.39074
G1 X109.038 Y119.098 E2.39511
G1 X108.972 Y119.407 E2.40861
G1 X100.426 Y119.407 E2.77398
G1 X100.551 Y119.807 E2.79189
G1 X109.012 Y119.807 E3.15363
G1 X109.053 Y119.959 E3.16035
G1 X109.190 Y120.207 E3.17247
G1 X100.681 Y120.207 E3.53628
G1 X100.881 Y120.607 E3.55541
G1 X109.608 Y120.607 E3.92852
G1 X110.085 Y121.007 E3.95512
G1 X101.082 Y121.007 E4.34001
G1 X101.369 Y121.407 E4.36104
G1 X110.562 Y121.407 E4.75406
G1 X111.038 Y121.807 E4.78066
G1 X101.664 Y121.807 E5.18142
G1 X102.069 Y122.207 E5.20574
G1 X111.515 Y122.207 E5.60957
G1 X111.991 Y122.607 E5.63617
G1 X102.500 Y122.607 E6.04193
G1 X102.977 Y123.006 E6.06853
G1 X112.468 Y123.006 E6.47430
G1 X112.945 Y123.406 E6.50090
G1 X103.454 Y123.406 E6.90666
G1 X103.930 Y123.806 E6.93326
G1 X113.421 Y123.806 E7.33902
G1 X113.898 Y124.206 E7.36562
G1 X104.407 Y124.206 E7.77139
G1 X104.883 Y124.606 E7.79799
G1 X114.374 Y124.606 E8.20375
G1 X114.851 Y125.006 E8.23035
G1 X105.360 Y125.006 E8.63611
G1 X105.837 Y125.406 E8.66271
G1 X115.328 Y125.406 E9.06848
G1 X115.804 Y125.806 E9.09508
G1 X106.313 Y125.806 E9.50084
G1 X106.790 Y126.206 E9.52744
G1 X116.281 Y126.206 E9.93321
G1 X116.757 Y126.606 E9.95980
G1 X107.266 Y126.606 E10.36557
G1 X107.743 Y127.005 E10.39217
G1 X117.234 Y127.005 E10.79793
G1 X117.710 Y127.405 E10.82453
G1 X108.219 Y127.405 E11.23030
G1 X108.696 Y127.805 E11.25689
G1 X118.187 Y127.805 E11.66266
G1 X118.664 Y128.205 E11.68926
G1 X109.173 Y128.205 E12.09502
G1 X109.649 Y128.605 E12.12162
G1 X119.140 Y128.605 E12.52739
G1 X119.617 Y129.005 E12.55398
G1 X110.126 Y129.005 E12.95975
G1 X110.602 Y129.405 E12.98635
G1 X120.093 Y129.405 E13.39211
G1 X120.570 Y129.805 E13.41871
G1 X111.079 Y129.805 E13.82448
G1 X111.556 Y130.205 E13.85107
G1 X121.047 Y130.205 E14.25684
G1 X121.523 Y130.605 E14.28344
G1 X112.032 Y130.605 E14.68920
G1 X112.509 Y131.005 E14.71580
G1 X122.000 Y131.005 E15.12157
G1 X122.476 Y131.404 E15.14816
G1 X112.985 Y131.404 E15.55393
G1 X113.462 Y131.804 E15.58053
G1 X122.953 Y131.804 E15.98629
G1 X123.430 Y132.204 E16.01289
G1 X113.939 Y132.204 E16.41866
G1 X114.415 Y132.604 E16.44526
G1 X123.906 Y132.604 E16.85102
G1 X124.383 Y133.004 E16.87762
G1 X114.892 Y133.004 E17.28338
G1 X115.368 Y133.404 E17.30998
G1 X124.859 Y133.404 E17.71575
G1 X125.336 Y133.804 E17.74235
G1 X115.845 Y133.804 E18.14811
G1 X116.321 Y134.204 E18.17471
G1 X125.812 Y134.204 E18.58047
G1 X126.289 Y134.604 E18.60707
G1 X116.798 Y134.604 E19.01284
G1 X117.275 Y135.004 E19.03944
G1 X126.766 Y135.004 E19.44520
G1 X127.242 Y135.403 E19.47180
G1 X117.751 Y135.403 E19.87756
G1 X118.228 Y135.803 E19.90416
G1 X127.719 Y135.803 E20.30993
G1 X128.195 Y136.203 E20.33653
G1 X118.704 Y136.203 E20.74229
G1 X119.181 Y136.603 E20.76889
G1 X128.672 Y136.603 E21.17465
G1 X129.149 Y137.003 E21.20125
G1 X119.658 Y137.003 E21.60702
G1 X120.134 Y137.403 E21.63362
G1 X129.625 Y137.403 E22.03938
G1 X130.102 Y137.803 E22.06598
G1 X120.611 Y137.803 E22.47174
G1 X121.087 Y138.203 E22.49834
G1 X130.578 Y138.203 E22.90411
G1 X131.055 Y138.603 E22.93071
G1 X121.564 Y138.603 E23.33647
G1 X122.041 Y139.003 E23.36307
G1 X131.536 Y139.003 E23.76902
G1 X131.933 Y139.264 E23.78933
G1 X132.314 Y139.403 E23.80669
G1 X122.517 Y139.403 E24.22556
G1 E22.22556 F2400.00000
G92 E0
G1 X169.690 Y152.999 F7800.000
G1 E2.00000 F2400.00000
G1 F2400.000
G1 X169.973 Y152.999 E2.01213
G1 X170.477 Y152.953 E2.03376
G1 X171.111 Y152.763 E2.06205
G1 X171.415 Y152.599 E2.07681
G1 X168.282 Y152.599 E2.21074
G1 X167.954 Y152.415 E2.22685
G1 X167.704 Y152.199 E2.24094
G1 X171.995 Y152.199 E2.42437
G1 X172.202 Y152.027 E2.43593
G1 X172.385 Y151.800 E2.44837
G1 X167.312 Y151.800 E2.66525
G1 X167.020 Y151.400 E2.68642
G1 X172.674 Y151.400 E2.92815
G1 X172.879 Y151.000 E2.94737
G1 X166.823 Y151.000 E3.20629
G1 X166.757 Y150.865 E3.21272
G1 X166.687 Y150.600 E3.22443
G1 X173.010 Y150.600 E3.49474
G1 X173.099 Y150.285 E3.50871
G1 X173.105 Y150.200 E3.51237
G1 X166.588 Y150.200 E3.79098
G1 X166.566 Y149.800 E3.80810
G1 X173.134 Y149.800 E4.08891
G1 X173.147 Y149.625 E4.09640
G1 X173.118 Y149.400 E4.10610
G1 X166.544 Y149.400 E4.38717
G1 X166.522 Y149.000 E4.40430
G1 X173.067 Y149.000 E4.68412
G1 X173.004 Y148.600 E4.70143
G1 X166.458 Y148.600 E4.98130
G1 X166.353 Y148.200 E4.99898
G1 X172.940 Y148.200 E5.28061
G1 X172.884 Y147.801 E5.29788
G1 X166.188 Y147.801 E5.58415
G1 X165.990 Y147.401 E5.60323
G1 X172.875 Y147.401 E5.89760
G1 X172.866 Y147.001 E5.91470
G1 X165.686 Y147.001 E6.22168
G1 X165.506 Y146.769 E6.23422
G1 X165.309 Y146.601 E6.24531
G1 X172.875 Y146.601 E6.56881
G1 X172.922 Y146.201 E6.58602
G1 X164.795 Y146.201 E6.93346
G1 X164.255 Y145.902 E6.95986
G1 X163.940 Y145.801 E6.97399
G1 X172.969 Y145.801 E7.35997
G1 X172.991 Y145.607 E7.36833
G1 X173.045 Y145.401 E7.37741
G1 E5.37741 F2400.00000
G92 E0
G1 X170.400 Y164.996 F7800.000
G1 E2.00000 F2400.00000
G1 F2400.000
G1 X170.253 Y164.977 E2.00634
G1 X170.003 Y164.996 E2.01704
G1 X170.400 Y164.996 E2.03399
G1 X170.885 Y165.061 E2.05490
G1 X171.486 Y165.274 E2.08216
G1 X171.685 Y165.396 E2.09217
G1 X168.657 Y165.396 E2.22163
G1 X168.446 Y165.511 E2.23191
G1 X168.111 Y165.796 E2.25071
G1 X172.228 Y165.796 E2.42671
G1 X172.491 Y166.046 E2.44223
G1 X172.594 Y166.196 E2.45000
G1 X167.752 Y166.196 E2.65700
G1 X167.572 Y166.430 E2.66961
G1 X167.493 Y166.596 E2.67748
G1 X172.862 Y166.596 E2.90701
G1 X173.027 Y166.996 E2.92551
G1 X167.302 Y166.996 E3.17027
G1 X167.203 Y167.396 E3.18788
G1 X173.139 Y167.396 E3.44163
G1 X173.211 Y167.796 E3.45901
G1 X167.116 Y167.796 E3.71957
G1 X167.043 Y168.196 E3.73695
G1 X173.200 Y168.196 E4.00017
G1 X173.194 Y168.432 E4.01026
G1 X173.165 Y168.596 E4.01738
G1 X166.970 Y168.596 E4.28222
G1 X166.897 Y168.995 E4.29960
G1 X173.095 Y168.995 E4.56456
G1 X173.025 Y169.395 E4.58192
G1 X166.802 Y169.395 E4.84797
G1 X166.688 Y169.795 E4.86575
G1 X172.955 Y169.795 E5.13369
G1 X172.885 Y170.195 E5.15105
G1 X166.574 Y170.195 E5.42087
G1 X166.460 Y170.595 E5.43865
G1 X172.785 Y170.595 E5.70907
G1 X172.680 Y170.995 E5.72674
G1 X166.313 Y170.995 E5.99896
G1 X166.156 Y171.395 E6.01733
G1 X172.576 Y171.395 E6.29180
G1 X172.471 Y171.795 E6.30948
G1 X165.998 Y171.795 E6.58620
G1 X165.837 Y172.195 E6.60464
G1 X172.352 Y172.195 E6.88319
G1 X172.211 Y172.595 E6.90132
G1 X165.632 Y172.595 E7.18257
G1 X165.428 Y172.995 E7.20177
G1 X172.070 Y172.995 E7.48573
G1 X171.929 Y173.394 E7.50386
G1 X165.224 Y173.394 E7.79052
G1 X164.990 Y173.794 E7.81033
G1 X171.787 Y173.794 E8.10094
G1 X171.607 Y174.194 E8.11969
G1 X164.733 Y174.194 E8.41357
G1 X164.477 Y174.594 E8.43387
G1 X171.428 Y174.594 E8.73103
G1 X171.248 Y174.994 E8.74977
G1 X164.206 Y174.994 E9.05083
G1 X163.891 Y175.394 E9.07260
G1 X171.068 Y175.394 E9.37945
G1 X170.855 Y175.794 E9.39881
G1 X163.576 Y175.794 E9.71004
G1 X163.250 Y176.194 E9.73208
G1 X170.634 Y176.194 E10.04777
G1 X170.413 Y176.594 E10.06731
G1 X162.866 Y176.594 E10.38994
G1 X162.483 Y176.994 E10.41363
G1 X170.191 Y176.994 E10.74320
G1 X169.936 Y177.393 E10.76348
G1 X162.074 Y177.393 E11.09964
G1 X161.607 Y177.793 E11.12591
G1 X169.670 Y177.793 E11.47060
G1 X169.403 Y178.193 E11.49116
G1 X161.141 Y178.193 E11.84438
G1 X160.597 Y178.593 E11.87324
G1 X169.136 Y178.593 E12.23829
G1 X169.106 Y178.638 E12.24061
G1 X168.824 Y178.993 E12.25999
G1 X160.026 Y178.993 E12.63610
G1 X159.728 Y179.202 E12.65167
G1 X159.390 Y179.393 E12.66827
G1 X168.506 Y179.393 E13.05799
G1 X168.188 Y179.793 E13.07983
G1 X158.681 Y179.793 E13.48626
G1 X158.354 Y179.978 E13.50231
G1 X157.868 Y180.193 E13.52507
G1 X167.855 Y180.193 E13.95204
G1 X167.479 Y180.593 E13.97551
G1 X156.964 Y180.593 E14.42506
G1 X155.771 Y180.993 E14.47885
G1 X167.103 Y180.993 E14.96332
G1 X166.727 Y181.393 E14.98679
G1 X154.162 Y181.393 E15.52395
G1 E13.52395 F2400.00000
G92 E0
G1 X151.680 Y187.791 F7800.000
G1 E2.00000 F2400.00000
G1 F2400.000
G1 X153.534 Y187.665 E2.07947
G1 X155.325 Y187.391 E2.15693
G1 X146.941 Y187.391 E2.51539
G1 X146.170 Y187.250 E2.54891
G1 X145.211 Y186.991 E2.59134
G1 X157.013 Y186.991 E3.09591
G1 X158.271 Y186.591 E3.15236
G1 X143.896 Y186.591 E3.76696
G1 X142.790 Y186.191 E3.81724
G1 X159.362 Y186.191 E4.52575
G1 X160.306 Y185.791 E4.56958
G1 X141.886 Y185.791 E5.35708
G1 X141.014 Y185.392 E5.39809
G1 X161.130 Y185.392 E6.25810
G1 X161.891 Y184.992 E6.29486
G1 X140.294 Y184.992 E7.21821
G1 X139.584 Y184.592 E7.25304
G1 X162.586 Y184.592 E8.23642
G1 X163.214 Y184.192 E8.26826
G1 X138.954 Y184.192 E9.30545
G1 X138.364 Y183.792 E9.33590
G1 X163.841 Y183.792 E10.42508
G1 X164.367 Y183.392 E10.45333
G1 X137.781 Y183.392 E11.58996
G1 X137.286 Y182.992 E11.61718
G1 X164.893 Y182.992 E12.79747
G1 X165.402 Y182.592 E12.82514
G1 X136.790 Y182.592 E14.04836
G1 X136.306 Y182.192 E14.07519
G1 X165.846 Y182.192 E15.33809
G1 X166.290 Y181.792 E15.36364
G1 X135.888 Y181.792 E16.66342
G1 X135.469 Y181.393 E16.68818
G1 X148.032 Y181.393 E17.22527
G1 X147.605 Y181.320 E17.24376
G1 X146.400 Y180.993 E17.29718
G1 X135.050 Y180.993 E17.78240
G1 X135.030 Y180.973 E17.78361
G1 X134.692 Y180.593 E17.80534
G1 X145.256 Y180.593 E18.25697
G1 X144.609 Y180.347 E18.28658
G1 X144.298 Y180.193 E18.30142
G1 X134.338 Y180.193 E18.72723
G1 X133.983 Y179.793 E18.75007
G1 X143.491 Y179.793 E19.15654
G1 X143.195 Y179.647 E19.17063
G1 X142.789 Y179.393 E19.19112
G1 X133.656 Y179.393 E19.58158
G1 X133.357 Y178.993 E19.60293
G1 X142.147 Y178.993 E19.97877
G1 X141.857 Y178.812 E19.99339
G1 X141.572 Y178.593 E20.00876
G1 X133.057 Y178.593 E20.37278
G1 X132.758 Y178.193 E20.39414
G1 X141.051 Y178.193 E20.74869
G1 X140.544 Y177.793 E20.77630
G1 X132.497 Y177.793 E21.12034
G1 X132.247 Y177.393 E21.14051
G1 X140.117 Y177.393 E21.47698
G1 X139.690 Y176.994 E21.50200
G1 X131.997 Y176.994 E21.83091
G1 X131.746 Y176.594 E21.85108
G1 X139.297 Y176.594 E22.17388
G1 X138.945 Y176.194 E22.19664
G1 X131.533 Y176.194 E22.51350
G1 X131.327 Y175.794 E22.53274
G1 X138.594 Y175.794 E22.84339
G1 X138.273 Y175.394 E22.86530
G1 X131.121 Y175.394 E23.17108
G1 X130.915 Y174.994 E23.19031
G1 X137.985 Y174.994 E23.49260
G1 X137.698 Y174.594 E23.51366
G1 X130.738 Y174.594 E23.81120
G1 X130.572 Y174.194 E23.82971
G1 X137.426 Y174.194 E24.12271
G1 X137.194 Y173.794 E24.14248
G1 X130.407 Y173.794 E24.43264
G1 X130.241 Y173.394 E24.45115
G1 X136.961 Y173.394 E24.73846
G1 X136.729 Y172.995 E24.75823
G1 X130.092 Y172.995 E25.04197
G1 X129.964 Y172.595 E25.05992
G1 X136.540 Y172.595 E25.34105
G1 X136.357 Y172.195 E25.35985
G1 X129.836 Y172.195 E25.63864
G1 X129.708 Y171.795 E25.65659
G1 X136.174 Y171.795 E25.93304
G1 X136.004 Y171.395 E25.95162
G1 X129.582 Y171.395 E26.22621
G1 X129.489 Y170.995 E26.24376
G1 X135.867 Y170.995 E26.51641
G1 X135.729 Y170.595 E26.53449
G1 X129.397 Y170.595 E26.80521
G1 X129.305 Y170.195 E26.82276
G1 X135.592 Y170.195 E27.09154
G1 X135.478 Y169.795 E27.10932
G1 X129.212 Y169.795 E27.37717
G1 X129.169 Y169.608 E27.38541
G1 X129.136 Y169.395 E27.39459
G1 X135.382 Y169.395 E27.66165
G1 X135.287 Y168.995 E27.67923
G1 X129.073 Y168.995 E27.94489
G1 X129.010 Y168.596 E27.96219
G1 X135.191 Y168.596 E28.22646
G1 X135.121 Y168.196 E28.24382
G1 X128.947 Y168.196 E28.50776
G1 X128.885 Y167.796 E28.52506
G1 X135.060 Y167.796 E28.78909
G1 X134.999 Y167.396 E28.80638
G1 X128.822 Y167.396 E29.07048
G1 X128.808 Y167.306 E29.07438
G1 X128.778 Y166.996 E29.08769
G1 X134.939 Y166.996 E29.35107
G1 X134.878 Y166.596 E29.36836
G1 X128.739 Y166.596 E29.63078
G1 X128.701 Y166.196 E29.64796
G1 X134.820 Y166.196 E29.90957
G1 X134.787 Y165.796 E29.92672
G1 X128.662 Y165.796 E30.18856
G1 X128.624 Y165.396 E30.20574
G1 X134.754 Y165.396 E30.46781
G1 X134.721 Y164.996 E30.48497
G1 X128.585 Y164.996 E30.74728
G1 X128.570 Y164.597 E30.76439
G1 X134.688 Y164.597 E31.02594
G1 X134.655 Y164.197 E31.04310
G1 X128.555 Y164.197 E31.30386
G1 X128.541 Y163.797 E31.32097
G1 X134.634 Y163.797 E31.58149
G1 X134.629 Y163.397 E31.59859
G1 X128.526 Y163.397 E31.85950
G1 X128.511 Y162.997 E31.87660
G1 X134.623 Y162.997 E32.13790
G1 X134.618 Y162.597 E32.15500
G1 X128.500 Y162.597 E32.41653
G1 X128.510 Y162.197 E32.43364
G1 X134.612 Y162.197 E32.69454
G1 X134.607 Y161.797 E32.71164
G1 X128.519 Y161.797 E32.97192
G1 X128.528 Y161.397 E32.98902
G1 X134.623 Y161.397 E33.24959
G1 X134.645 Y160.997 E33.26671
G1 X128.537 Y160.997 E33.52783
G1 X128.546 Y160.597 E33.54493
G1 X134.667 Y160.597 E33.80659
G1 X134.688 Y160.198 E33.82372
G1 X128.563 Y160.198 E34.08560
G1 X128.596 Y159.798 E34.10275
G1 X134.710 Y159.798 E34.36416
G1 X134.736 Y159.398 E34.38129
G1 X128.629 Y159.398 E34.64236
G1 X128.662 Y158.998 E34.65952
G1 X134.785 Y158.998 E34.92130
G1 X134.835 Y158.598 E34.93853
G1 X128.695 Y158.598 E35.20102
G1 X128.728 Y158.198 E35.21817
G1 X134.884 Y158.198 E35.48137
G1 X134.934 Y157.798 E35.49860
G1 X128.774 Y157.798 E35.76197
G1 X128.831 Y157.398 E35.77924
G1 X134.984 Y157.398 E36.04230
G1 X135.047 Y156.998 E36.05961
G1 X128.888 Y156.998 E36.32293
G1 X128.945 Y156.598 E36.34020
G1 X135.125 Y156.598 E36.60440
G1 X135.202 Y156.199 E36.62182
G1 X129.002 Y156.199 E36.88690
G1 X129.059 Y155.799 E36.90417
G1 X135.280 Y155.799 E37.17013
G1 X135.358 Y155.399 E37.18755
G1 X129.135 Y155.399 E37.45361
G1 X129.216 Y154.999 E37.47106
G1 X135.436 Y154.999 E37.73696
G1 X135.540 Y154.599 E37.75463
G1 X129.298 Y154.599 E38.02150
G1 X129.380 Y154.199 E38.03895
G1 X135.647 Y154.199 E38.30688
G1 X135.753 Y153.799 E38.32457
G1 X129.461 Y153.799 E38.59358
G1 X129.544 Y153.399 E38.61103
G1 X135.860 Y153.399 E38.88107
G1 X135.967 Y152.999 E38.89876
G1 X129.650 Y152.999 E39.16879
G1 X129.757 Y152.599 E39.18649
G1 X136.086 Y152.599 E39.45708
G1 X136.223 Y152.199 E39.47514
G1 X129.864 Y152.199 E39.74701
G1 X129.971 Y151.800 E39.76470
G1 X136.360 Y151.800 E40.03784
G1 X136.496 Y151.400 E40.05591
G1 X130.078 Y151.400 E40.33032
G1 X130.178 Y151.000 E40.34794
G1 X136.633 Y151.000 E40.62392
G1 X136.773 Y150.600 E40.64203
G1 X130.266 Y150.600 E40.92019
G1 X130.355 Y150.200 E40.93770
G1 X136.956 Y150.200 E41.21993
G1 X137.140 Y149.800 E41.23874
G1 X130.385 Y149.800 E41.52754
G1 X130.414 Y149.400 E41.54468
G1 X137.372 Y149.400 E41.84216
G1 X137.625 Y149.000 E41.86240
G1 X130.413 Y149.000 E42.17076
G1 X130.383 Y148.600 E42.18790
G1 X137.919 Y148.600 E42.51006
G1 X138.255 Y148.200 E42.53239
G1 X130.351 Y148.200 E42.87031
G1 X130.262 Y147.801 E42.88782
G1 X138.641 Y147.801 E43.24602
G1 X139.080 Y147.401 E43.27144
G1 X130.173 Y147.401 E43.65225
G1 X130.142 Y147.259 E43.65843
G1 X130.044 Y147.001 E43.67026
G1 X139.621 Y147.001 E44.07973
G1 X140.066 Y146.694 E44.10282
G1 X140.250 Y146.601 E44.11164
G1 X129.891 Y146.601 E44.55448
G1 X129.791 Y146.336 E44.56658
G1 X129.715 Y146.201 E44.57321
G1 X141.055 Y146.201 E45.05804
G1 X141.988 Y145.876 E45.10026
G1 X142.355 Y145.801 E45.11629
G1 X129.492 Y145.801 E45.66623
G1 X129.253 Y145.401 E45.68613
G1 X173.045 Y145.401 E47.55833
G1 X173.148 Y145.001 E47.57599
G1 X128.947 Y145.001 E49.46573
G1 X128.708 Y144.690 E49.48249
G1 X128.616 Y144.601 E49.48795
G1 X173.252 Y144.601 E51.39624
G1 X173.404 Y144.201 E51.41452
G1 X128.205 Y144.201 E53.34690
G1 X127.760 Y143.801 E53.37248
G1 X173.568 Y143.801 E55.33094
G1 X173.745 Y143.402 E55.34964
G1 X127.283 Y143.402 E57.33604
G1 X126.806 Y143.002 E57.36264
