; Generated by RP3 on 2021-07-8
; Job 0 - 3D Cloner

G21 ; set units to millimeters
M107 ;fan off
G28 ;home all axes
G90 ;absolute coordinates
G28 E0 ;home all axes
G1 E20.0 F100.0 ;extrude 20mm material with 100 mm/min speed
G28 E0 ;home all axes
G90 ;use absolute coordinates
M82 ; use absolute distances for extrusion
G92 E0 ;home of axes
M104 S90
G1 E-2.00000 F24000 ;retracts 2mm of material
M106 S102

(Layer 1)
G1  Z0.250 F2400

(Raster 1)
G92 E0
G1  X0099.839 Y0008.640 F2400
G1  E2.00000 F2400
G1  X0099.839 Y0004.399 E2.194 F2400
G1  X0099.715 Y0004.059 E2.210
G1  X0099.439 Y0003.567 E2.236
G1  X0099.439 Y0009.456 E2.505
G1  X0099.396 Y0009.542 E2.510
G1  X0099.039 Y0010.033 E2.538
G1  X0099.039 Y0002.967 E2.861
G1  X0098.654 Y0002.486 E2.889
G1  X0098.639 Y0002.472 E2.890
G1  X0098.639 Y0010.507 E3.257
G1  X0098.239 Y0010.902 E3.283
G1  X0098.239 Y0002.112 E3.685
G1  X0097.947 Y0001.849 E3.703
G1  X0097.839 Y0001.780 E3.709
G1  X0097.839 Y0011.250 E4.142
G1  X0097.439 Y0011.586 E4.165
G1  X0097.439 Y0001.523 E4.625
G1  X0097.146 Y0001.335 E4.641
G1  X0097.039 Y0001.289 E4.647
G1  X0097.039 Y0011.922 E5.133
G1  X0096.639 Y0012.257 E5.157
G1  X0096.639 Y0001.117 E5.666
G1  X0096.272 Y0000.958 E5.684
G1  X0096.239 Y0000.950 E5.686
G1  X0096.239 Y0012.593 E6.218
G1  X0095.839 Y0012.929 E6.242
G1  X0095.839 Y0000.850 E6.794
G1  X0095.439 Y0000.751 E6.813
G1  X0095.439 Y0013.264 E7.385
G1  X0095.039 Y0013.600 E7.409
G1  X0095.039 Y0000.703 E7.999
G1  X0094.639 Y0000.670 E8.017
G1  X0094.639 Y0013.936 E8.624
G1  X0094.239 Y0014.271 E8.647
G1  X0094.239 Y0000.650 E9.270
G1  X0093.839 Y0000.650 E9.289
G1  X0093.839 Y0014.607 E9.927
G1  X0093.439 Y0014.943 E9.951
G1  X0093.439 Y0000.650 E10.604
G1  X0093.039 Y0000.650 E10.622
G1  X0093.039 Y0015.278 E11.291
G1  X0092.639 Y0015.614 E11.315
G1  X0092.639 Y0000.650 E11.999
G1  X0092.239 Y0000.650 E12.017
G1  X0092.239 Y0015.949 E12.717
G1  X0091.839 Y0016.285 E12.741
G1  X0091.839 Y0000.650 E13.456
G1  X0091.439 Y0000.650 E13.474
G1  X0091.439 Y0016.621 E14.204
G1  X0091.039 Y0016.956 E14.228
G1  X0091.039 Y0008.859 E14.598
G1  X0091.031 Y0008.868 E14.599
G1  X0090.639 Y0009.197 E14.622
G1  X0090.639 Y0017.292 E14.992
G1  X0090.239 Y0017.628 E15.016
G1  X0090.239 Y0009.533 E15.386
G1  X0089.839 Y0009.868 E15.410
G1  X0089.839 Y0017.963 E15.780
G1  X0089.439 Y0018.299 E15.804
G1  X0089.439 Y0010.204 E16.174
G1  X0089.039 Y0010.540 E16.198
G1  X0089.039 Y0018.635 E16.568
G1  X0088.639 Y0018.970 E16.592
G1  X0088.639 Y0010.875 E16.962
G1  X0088.239 Y0011.211 E16.986
G1  X0088.239 Y0019.306 E17.356
G1  X0087.839 Y0019.642 E17.380
G1  X0087.839 Y0011.547 E17.750
G1  X0087.439 Y0011.882 E17.774
G1  X0087.439 Y0019.977 E18.144
G1  X0087.039 Y0020.313 E18.168
G1  X0087.039 Y0012.218 E18.538
G1  X0086.639 Y0012.554 E18.562
G1  X0086.639 Y0020.649 E18.932
G1  X0086.239 Y0020.984 E18.956
G1  X0086.239 Y0012.889 E19.326
G1  X0085.839 Y0013.225 E19.350
G1  X0085.839 Y0021.320 E19.720
G1  X0085.439 Y0021.656 E19.744
G1  X0085.439 Y0013.561 E20.114
G1  X0085.039 Y0013.896 E20.138
G1  X0085.039 Y0021.991 E20.508
G1  X0084.639 Y0022.327 E20.532
G1  X0084.639 Y0014.232 E20.902
G1  X0084.239 Y0014.568 E20.926
G1  X0084.239 Y0022.662 E21.296
G1  X0083.839 Y0022.998 E21.320
G1  X0083.839 Y0014.903 E21.690
G1  X0083.439 Y0015.239 E21.714
G1  X0083.439 Y0023.334 E22.084
G1  X0083.039 Y0023.669 E22.108
G1  X0083.039 Y0015.575 E22.478
G1  X0082.639 Y0015.910 E22.502
G1  X0082.639 Y0024.005 E22.872
G1  X0082.239 Y0024.341 E22.896
G1  X0082.239 Y0016.246 E23.266
G1  X0081.839 Y0016.582 E23.290
G1  X0081.839 Y0024.676 E23.660
G1  X0081.439 Y0025.012 E23.683
G1  X0081.439 Y0016.917 E24.054
G1  X0081.039 Y0017.253 E24.077
G1  X0081.039 Y0025.348 E24.448
G1  X0080.639 Y0025.683 E24.471
G1  X0080.639 Y0017.589 E24.841
G1  X0080.239 Y0017.924 E24.865
G1  X0080.239 Y0026.019 E25.235
G1  X0079.839 Y0026.355 E25.259
G1  X0079.839 Y0018.260 E25.629
G1  X0079.439 Y0018.596 E25.653
G1  X0079.439 Y0026.690 E26.023
G1  X0079.039 Y0027.026 E26.047
G1  X0079.039 Y0018.931 E26.417
G1  X0078.639 Y0019.267 E26.441
G1  X0078.639 Y0027.362 E26.811
G1  X0078.239 Y0027.697 E26.835
G1  X0078.239 Y0019.603 E27.205
G1  X0077.839 Y0019.938 E27.229
G1  X0077.839 Y0028.033 E27.599
G1  X0077.439 Y0028.369 E27.623
G1  X0077.439 Y0020.274 E27.993
G1  X0077.039 Y0020.610 E28.017
G1  X0077.039 Y0028.704 E28.387
G1  X0076.639 Y0029.040 E28.411
G1  X0076.639 Y0020.945 E28.781
G1  X0076.239 Y0021.281 E28.805
G1  X0076.239 Y0029.377 E29.175
G1  X0075.839 Y0029.764 E29.201
G1  X0075.839 Y0021.617 E29.573
G1  X0075.439 Y0021.952 E29.597
G1  X0075.439 Y0030.152 E29.972
G1  X0075.039 Y0030.662 E30.001
G1  X0075.039 Y0022.288 E30.384
G1  X0074.639 Y0022.624 E30.408
G1  X0074.639 Y0031.223 E30.801
G1  X0074.239 Y0031.910 E30.838
G1  X0074.239 Y0022.959 E31.247
G1  X0073.839 Y0023.295 E31.271
G1  X0073.839 Y0032.848 E31.708
G1  X0073.764 Y0033.031 E31.717
G1  X0073.484 Y0034.117 E31.768
G1  X0073.439 Y0034.504 E31.786
G1  X0073.439 Y0023.631 E32.283
G1  X0073.039 Y0023.966 E32.307
G1  X0073.039 Y0040.108 E33.045
G1  X0072.683 Y0040.552 E33.071
G1  X0072.639 Y0040.589 E33.073
G1  X0072.639 Y0024.302 E33.818
G1  X0072.239 Y0024.638 E33.842
G1  X0072.239 Y0040.921 E34.586
G1  X0072.166 Y0040.982 E34.591
G1  X0071.839 Y0041.158 E34.608
G1  X0071.839 Y0024.973 E35.348
G1  X0071.439 Y0025.309 E35.371
G1  X0071.439 Y0041.340 E36.104
G1  X0071.039 Y0041.461 E36.123
G1  X0071.039 Y0025.645 E36.847
G1  X0070.639 Y0025.980 E36.870
G1  X0070.639 Y0041.520 E37.581
G1  X0070.262 Y0041.554 E37.598
G1  X0070.239 Y0041.552 E37.599
G1  X0070.239 Y0026.316 E38.296
G1  X0069.839 Y0026.652 E38.320
G1  X0069.839 Y0041.508 E38.999
G1  X0069.595 Y0041.481 E39.010
G1  X0069.439 Y0041.431 E39.018
G1  X0069.439 Y0026.987 E39.678
G1  X0069.039 Y0027.323 E39.702
G1  X0069.039 Y0041.302 E40.341
G1  X0068.955 Y0041.275 E40.345
G1  X0068.639 Y0041.098 E40.362
G1  X0068.639 Y0027.611 E40.978
G1  X0068.514 Y0027.694 E40.985
G1  X0068.239 Y0027.798 E40.999
G1  X0068.239 Y0040.834 E41.595
G1  X0067.861 Y0040.507 E41.617
G1  X0067.839 Y0040.479 E41.619
G1  X0067.839 Y0027.899 E42.194
G1  X0067.542 Y0027.936 E42.208
G1  X0067.439 Y0027.936 E42.213
G1  X0067.439 Y0039.952 E42.762
G1  X0067.155 Y0039.373 E42.791
G1  X0067.039 Y0038.931 E42.812
G1  X0067.039 Y0027.937 E43.315
G1  X0066.639 Y0027.937 E43.333
G1  X0066.639 Y0036.418 E43.721
G1  X0066.369 Y0035.879 E43.749
G1  X0066.239 Y0035.713 E43.758
G1  X0066.239 Y0027.937 E44.114
G1  X0065.839 Y0027.937 E44.132
G1  X0065.839 Y0035.231 E44.466
G1  X0065.439 Y0034.892 E44.490
G1  X0065.439 Y0027.937 E44.807
G1  X0065.039 Y0027.937 E44.826
G1  X0065.039 Y0034.639 E45.132
G1  X0064.664 Y0034.434 E45.152
G1  X0064.639 Y0034.426 E45.153
G1  X0064.639 Y0027.937 E45.450
G1  X0064.239 Y0027.937 E45.468
G1  X0064.239 Y0034.305 E45.759
G1  X0063.925 Y0034.210 E45.774
G1  X0063.839 Y0034.201 E45.778
G1  X0063.839 Y0027.937 E46.064
G1  X0063.439 Y0027.937 E46.083
G1  X0063.439 Y0034.161 E46.367
G1  X0063.207 Y0034.137 E46.378
G1  X0063.039 Y0034.137 E46.386
G1  X0063.039 Y0027.937 E46.669
G1  X0062.639 Y0027.937 E46.687
G1  X0062.639 Y0034.138 E46.971
G1  X0062.239 Y0034.138 E46.989
G1  X0062.239 Y0027.937 E47.273
G1  X0061.839 Y0027.937 E47.291
G1  X0061.839 Y0034.138 E47.575
G1  X0061.439 Y0034.138 E47.593
G1  X0061.439 Y0027.937 E47.876
G1  X0061.039 Y0027.937 E47.895
G1  X0061.039 Y0034.138 E48.178
G1  X0060.639 Y0034.138 E48.196
G1  X0060.639 Y0027.937 E48.480
G1  X0060.239 Y0027.937 E48.498
G1  X0060.239 Y0034.138 E48.782
G1  X0059.839 Y0034.138 E48.800
G1  X0059.839 Y0027.937 E49.083
G1  X0059.439 Y0027.937 E49.102
G1  X0059.439 Y0034.138 E49.385
G1  X0059.039 Y0034.138 E49.404
G1  X0059.039 Y0027.937 E49.687
G1  X0058.639 Y0027.937 E49.705
G1  X0058.639 Y0034.138 E49.989
G1  X0058.239 Y0034.138 E50.007
G1  X0058.239 Y0027.937 E50.291
G1  X0057.839 Y0027.937 E50.309
G1  X0057.839 Y0034.138 E50.592
G1  X0057.439 Y0034.138 E50.611
G1  X0057.439 Y0027.937 E50.894
G1  X0057.039 Y0027.937 E50.913
G1  X0057.039 Y0034.138 E51.196
G1  X0056.639 Y0034.138 E51.214
G1  X0056.639 Y0027.937 E51.498
G1  X0056.239 Y0027.937 E51.516
G1  X0056.239 Y0034.138 E51.800
G1  X0055.839 Y0034.138 E51.818
G1  X0055.839 Y0027.937 E52.101
G1  X0055.439 Y0027.937 E52.120
G1  X0055.439 Y0034.138 E52.403
G1  X0055.039 Y0034.138 E52.421
G1  X0055.039 Y0027.937 E52.705
G1  X0054.639 Y0027.937 E52.723
G1  X0054.639 Y0034.138 E53.007
G1  X0054.239 Y0034.138 E53.025
G1  X0054.239 Y0027.937 E53.309
G1  X0053.839 Y0027.937 E53.327
G1  X0053.839 Y0034.138 E53.610
G1  X0053.439 Y0034.138 E53.629
G1  X0053.439 Y0027.937 E53.912
G1  X0053.039 Y0027.937 E53.930
G1  X0053.039 Y0034.138 E54.214
G1  X0052.639 Y0034.138 E54.232
G1  X0052.639 Y0027.937 E54.516
G1  X0052.239 Y0027.937 E54.534
G1  X0052.239 Y0034.138 E54.817
G1  X0051.839 Y0034.138 E54.836
G1  X0051.839 Y0027.937 E55.119
G1  X0051.439 Y0027.937 E55.138
G1  X0051.439 Y0034.138 E55.421
G1  X0051.039 Y0034.138 E55.439
G1  X0051.039 Y0027.937 E55.723
G1  X0050.639 Y0027.937 E55.741
G1  X0050.639 Y0034.138 E56.025
G1  X0050.239 Y0034.138 E56.043
G1  X0050.239 Y0027.937 E56.326
G1  X0049.839 Y0027.937 E56.345
G1  X0049.839 Y0034.138 E56.628
G1  X0049.439 Y0034.138 E56.646
G1  X0049.439 Y0027.937 E56.930
G1  X0049.039 Y0027.937 E56.948
G1  X0049.039 Y0034.138 E57.232
G1  X0048.639 Y0034.138 E57.250
G1  X0048.639 Y0027.937 E57.534
G1  X0048.239 Y0027.937 E57.552
G1  X0048.239 Y0034.138 E57.835
G1  X0047.839 Y0034.138 E57.854
G1  X0047.839 Y0027.937 E58.137
G1  X0047.439 Y0027.937 E58.155
G1  X0047.439 Y0034.138 E58.439
G1  X0047.039 Y0034.138 E58.457
G1  X0047.039 Y0027.937 E58.741
G1  X0046.639 Y0027.937 E58.759
G1  X0046.639 Y0034.138 E59.042
G1  X0046.239 Y0034.138 E59.061
G1  X0046.239 Y0027.937 E59.344
G1  X0045.839 Y0027.937 E59.363
G1  X0045.839 Y0034.138 E59.646
G1  X0045.439 Y0034.138 E59.664
G1  X0045.439 Y0027.937 E59.948
G1  X0045.039 Y0027.937 E59.966
G1  X0045.039 Y0034.138 E60.250
G1  X0044.639 Y0034.138 E60.268
G1  X0044.639 Y0027.937 E60.551
G1  X0044.239 Y0027.937 E60.570
G1  X0044.239 Y0034.155 E60.854
G1  X0043.839 Y0034.183 E60.872
G1  X0043.839 Y0027.937 E61.158
G1  X0043.439 Y0027.937 E61.176
G1  X0043.439 Y0034.212 E61.463
G1  X0043.039 Y0034.294 E61.482
G1  X0043.039 Y0027.937 E61.772
G1  X0042.639 Y0027.937 E61.791
G1  X0042.639 Y0034.376 E62.085
G1  X0042.436 Y0034.418 E62.094
G1  X0042.239 Y0034.487 E62.104
G1  X0042.239 Y0027.937 E62.403
G1  X0041.839 Y0027.937 E62.422
G1  X0041.839 Y0034.627 E62.728
G1  X0041.454 Y0034.762 E62.746
G1  X0041.439 Y0034.770 E62.747
G1  X0041.439 Y0027.937 E63.059
G1  X0041.039 Y0027.937 E63.078
G1  X0041.039 Y0034.973 E63.399
G1  X0040.639 Y0035.177 E63.420
G1  X0040.639 Y0027.937 E63.751
G1  X0040.239 Y0027.937 E63.769
G1  X0040.239 Y0035.433 E64.112
G1  X0039.839 Y0035.710 E64.134
G1  X0039.839 Y0027.937 E64.489
G1  X0039.439 Y0027.937 E64.508
G1  X0039.439 Y0036.038 E64.878
G1  X0039.039 Y0036.402 E64.903
G1  X0039.039 Y0027.937 E65.290
G1  X0038.639 Y0027.937 E65.308
G1  X0038.639 Y0036.841 E65.715
G1  X0038.239 Y0037.319 E65.744
G1  X0038.239 Y0027.937 E66.173
G1  X0037.839 Y0027.937 E66.191
G1  X0037.839 Y0037.955 E66.649
G1  X0037.669 Y0038.225 E66.664
G1  X0037.439 Y0038.728 E66.689
G1  X0037.439 Y0027.937 E67.182
G1  X0037.039 Y0027.937 E67.200
G1  X0037.039 Y0039.758 E67.741
G1  X0036.639 Y0040.929 E67.797
G1  X0036.639 Y0027.937 E68.391
G1  X0036.239 Y0027.937 E68.410
G1  X0036.239 Y0042.330 E69.068
G1  X0035.934 Y0043.476 E69.122
G1  X0035.839 Y0043.964 E69.145
G1  X0035.839 Y0027.937 E69.877
G1  X0035.439 Y0027.937 E69.896
G1  X0035.439 Y0046.208 E70.731
G1  E68.731 F2400

(Raster 2)
G92 E0
G1  X0091.039 Y0007.140 F2400
G1  E2.00000 F2400
G1  X0091.039 Y0000.650 E2.297 F2400
G1  X0090.639 Y0000.650 E2.315
G1  X0090.639 Y0006.918 E2.602
G1  X0090.532 Y0006.880 E2.607
G1  X0090.278 Y0006.850 E2.619
G1  X0090.239 Y0006.850 E2.620
G1  X0090.239 Y0000.650 E2.904
G1  X0089.839 Y0000.650 E2.922
G1  X0089.839 Y0006.850 E3.206
G1  X0089.439 Y0006.850 E3.224
G1  X0089.439 Y0000.650 E3.507
G1  X0089.039 Y0000.650 E3.526
G1  X0089.039 Y0006.850 E3.809
G1  X0088.639 Y0006.850 E3.827
G1  X0088.639 Y0000.650 E4.111
G1  X0088.239 Y0000.650 E4.129
G1  X0088.239 Y0006.850 E4.413
G1  X0087.839 Y0006.850 E4.431
G1  X0087.839 Y0000.650 E4.714
G1  X0087.439 Y0000.650 E4.733
G1  X0087.439 Y0006.850 E5.016
G1  X0087.039 Y0006.850 E5.034
G1  X0087.039 Y0000.650 E5.318
G1  X0086.639 Y0000.650 E5.336
G1  X0086.639 Y0006.850 E5.620
G1  X0086.239 Y0006.850 E5.638
G1  X0086.239 Y0000.650 E5.921
G1  X0085.839 Y0000.650 E5.940
G1  X0085.839 Y0006.850 E6.223
G1  X0085.439 Y0006.850 E6.241
G1  X0085.439 Y0000.650 E6.525
G1  X0085.039 Y0000.650 E6.543
G1  X0085.039 Y0006.850 E6.827
G1  X0084.639 Y0006.850 E6.845
G1  X0084.639 Y0000.650 E7.128
G1  X0084.239 Y0000.650 E7.147
G1  X0084.239 Y0006.850 E7.430
G1  X0083.839 Y0006.850 E7.448
G1  X0083.839 Y0000.650 E7.732
G1  X0083.439 Y0000.650 E7.750
G1  X0083.439 Y0006.850 E8.034
G1  X0083.039 Y0006.850 E8.052
G1  X0083.039 Y0000.650 E8.335
G1  X0082.639 Y0000.650 E8.354
G1  X0082.639 Y0006.850 E8.637
G1  X0082.239 Y0006.850 E8.655
G1  X0082.239 Y0000.650 E8.939
G1  X0081.839 Y0000.650 E8.957
G1  X0081.839 Y0006.850 E9.241
G1  X0081.439 Y0006.850 E9.259
G1  X0081.439 Y0000.650 E9.542
G1  X0081.039 Y0000.650 E9.561
G1  X0081.039 Y0006.850 E9.844
G1  X0080.639 Y0006.850 E9.862
G1  X0080.639 Y0000.650 E10.146
G1  X0080.239 Y0000.650 E10.164
G1  X0080.239 Y0006.850 E10.448
G1  X0079.839 Y0006.850 E10.466
G1  X0079.839 Y0000.650 E10.749
G1  X0079.439 Y0000.650 E10.768
G1  X0079.439 Y0006.850 E11.051
G1  X0079.039 Y0006.850 E11.069
G1  X0079.039 Y0000.650 E11.353
G1  X0078.639 Y0000.650 E11.371
G1  X0078.639 Y0006.850 E11.655
G1  X0078.239 Y0006.850 E11.673
G1  X0078.239 Y0000.650 E11.956
G1  X0077.839 Y0000.650 E11.975
G1  X0077.839 Y0006.850 E12.258
G1  X0077.439 Y0006.850 E12.276
G1  X0077.439 Y0000.650 E12.560
G1  X0077.039 Y0000.650 E12.578
G1  X0077.039 Y0006.850 E12.862
G1  X0076.639 Y0006.850 E12.880
G1  X0076.639 Y0000.650 E13.163
G1  X0076.239 Y0000.650 E13.182
G1  X0076.239 Y0006.850 E13.465
G1  X0075.839 Y0006.850 E13.484
G1  X0075.839 Y0000.650 E13.767
G1  X0075.439 Y0000.650 E13.785
G1  X0075.439 Y0006.850 E14.069
G1  X0075.039 Y0006.850 E14.087
G1  X0075.039 Y0000.650 E14.371
G1  X0074.639 Y0000.650 E14.389
G1  X0074.639 Y0006.850 E14.672
G1  X0074.239 Y0006.850 E14.691
G1  X0074.239 Y0000.650 E14.974
G1  X0073.839 Y0000.650 E14.992
G1  X0073.839 Y0006.850 E15.276
G1  X0073.439 Y0006.850 E15.294
G1  X0073.439 Y0000.650 E15.578
G1  X0073.039 Y0000.650 E15.596
G1  X0073.039 Y0006.850 E15.879
G1  X0072.639 Y0006.850 E15.898
G1  X0072.639 Y0000.650 E16.181
G1  X0072.239 Y0000.650 E16.199
G1  X0072.239 Y0006.850 E16.483
G1  X0071.839 Y0006.850 E16.501
G1  X0071.839 Y0000.650 E16.785
G1  X0071.439 Y0000.650 E16.803
G1  X0071.439 Y0006.850 E17.086
G1  X0071.039 Y0006.850 E17.105
G1  X0071.039 Y0000.650 E17.388
G1  X0070.639 Y0000.650 E17.406
G1  X0070.639 Y0006.850 E17.690
G1  X0070.239 Y0006.850 E17.708
G1  X0070.239 Y0000.650 E17.992
G1  X0069.839 Y0000.650 E18.010
G1  X0069.839 Y0006.850 E18.293
G1  X0069.439 Y0006.850 E18.312
G1  X0069.439 Y0000.650 E18.595
G1  X0069.039 Y0000.650 E18.614
G1  X0069.039 Y0006.850 E18.897
G1  X0068.639 Y0006.850 E18.915
G1  X0068.639 Y0000.650 E19.199
G1  X0068.239 Y0000.650 E19.217
G1  X0068.239 Y0006.850 E19.501
G1  X0067.839 Y0006.850 E19.519
G1  X0067.839 Y0000.650 E19.802
G1  X0067.439 Y0000.650 E19.821
G1  X0067.439 Y0006.850 E20.104
G1  X0067.039 Y0006.850 E20.122
G1  X0067.039 Y0000.650 E20.406
G1  X0066.639 Y0000.650 E20.424
G1  X0066.639 Y0006.850 E20.708
G1  X0066.239 Y0006.850 E20.726
G1  X0066.239 Y0000.650 E21.009
G1  X0065.839 Y0000.650 E21.028
G1  X0065.839 Y0006.850 E21.311
G1  X0065.439 Y0006.850 E21.329
G1  X0065.439 Y0000.650 E21.613
G1  X0065.039 Y0000.650 E21.631
G1  X0065.039 Y0006.850 E21.915
G1  X0064.639 Y0006.850 E21.933
G1  X0064.639 Y0000.650 E22.216
