; generated by Slic3r 1.3.1-dev (Build 8c69278) on 2021-12-10 at 13:24:55

; external perimeters extrusion width = 0.45mm (3.99mm^3/s)
; perimeters extrusion width = 0.45mm (3.99mm^3/s)
; infill extrusion width = 0.45mm (3.99mm^3/s)
; solid infill extrusion width = 0.45mm (4.99mm^3/s)
; top infill extrusion width = 0.45mm (3.00mm^3/s)
; support material extrusion width = 0.45mm (4.99mm^3/s)

M107
G92 E0
M104 S205 ; set temperature
G28 ; home all axes
G1 Z5 F5000 ; lift nozzle

; Filament gcode

M109 S205 ; set temperature and wait for it to be reached
G21 ; set units to millimeters
G90 ; use absolute coordinates
M82 ; use absolute distances for extrusion
G92 E0
G1 Z0.250 F7800.000
G1 E-2.00000 F2400.00000
G92 E0
G1 X135.213 Y134.288 F7800.000
G1 E2.00000 F2400.00000
G1 F659.641
G1 X134.565 Y134.384 E2.02803
G1 X134.565 Y134.708 E2.04186
G1 X137.545 Y134.708 E2.16929
G1 X137.545 Y135.128 E2.18725
G1 X134.565 Y135.128 E2.31468
G1 X134.565 Y135.548 E2.33264
G1 X137.545 Y135.548 E2.46007
G1 X137.545 Y135.968 E2.47803
G1 X134.565 Y135.968 E2.60546
G1 X134.565 Y136.388 E2.62342
G1 X137.545 Y136.388 E2.75085
G1 X137.545 Y136.808 E2.76881
G1 X134.565 Y136.808 E2.89624
G1 X134.565 Y137.228 E2.91419
G1 X137.545 Y137.228 E3.04162
G1 X137.545 Y137.648 E3.05958
G1 X134.565 Y137.648 E3.18701
G1 X134.565 Y138.068 E3.20497
G1 X137.545 Y138.068 E3.33240
G1 X137.545 Y138.488 E3.35036
G1 X134.565 Y138.488 E3.47779
G1 X134.565 Y138.908 E3.49575
G1 X137.545 Y138.908 E3.62318
G1 X137.545 Y139.328 E3.64114
G1 X134.565 Y139.328 E3.76857
G1 X134.565 Y139.749 E3.78653
G1 X137.545 Y139.749 E3.91396
G1 X137.545 Y140.169 E3.93192
G1 X134.565 Y140.169 E4.05935
G1 X134.565 Y140.589 E4.07731
G1 X137.545 Y140.589 E4.20474
G1 X137.545 Y141.009 E4.22269
G1 X134.565 Y141.009 E4.35013
G1 Z0.250 F7800.000
G1 Z0.500 F7800.000
G1 E2.35013 F2400.00000
G92 E0
G1 X138.414 Y141.009 F7800.000
G1 E2.00000 F2400.00000
G1 F1291.959
G1 X138.414 Y134.279 E2.28773
G1 X137.985 Y134.207 E2.30632
G1 X137.985 Y141.009 E2.59710
G1 X137.556 Y141.009 E2.61543
G1 X137.556 Y134.136 E2.90926
G1 X137.127 Y134.065 E2.92784
G1 X137.127 Y141.009 E3.22472
G1 X136.698 Y141.009 E3.24306
G1 X136.698 Y134.046 E3.54074
G1 X136.269 Y134.046 E3.55907
G1 X136.269 Y141.009 E3.85675
G1 X135.841 Y141.009 E3.87508
G1 X135.841 Y134.046 E4.17276
G1 X135.412 Y134.046 E4.19109
G1 X135.412 Y141.009 E4.48877
G1 X134.983 Y141.009 E4.50710
G1 X134.983 Y134.065 E4.80398
G1 X134.554 Y134.136 E4.82257
G1 X134.554 Y141.009 E5.11640
G1 X134.125 Y141.009 E5.13473
G1 X134.125 Y134.207 E5.42551
G1 X133.697 Y134.279 E5.44410
G1 X133.697 Y141.009 E5.73183
G1 X133.268 Y141.009 E5.75016
G1 X133.268 Y134.360 E6.03441
G1 E4.03441 F2400.00000
G92 E0
G1 X138.842 Y141.009 F7800.000
G1 E2.00000 F2400.00000
G1 F1291.959
G1 X138.842 Y134.360 E2.28425
G1 X138.842 Y141.009 E2.56850
M106 S178.5
G1 Z0.750 F7800.000
G1 E0.56850 F2400.00000
G92 E0
G1 X132.539 Y141.009 F7800.000
G1 E2.00000 F2400.00000
G1 F1637.634
G1 X139.571 Y141.009 E2.30061
G1 X139.571 Y140.607 E2.31778
G1 X132.539 Y140.607 E2.61839
G1 X132.539 Y140.206 E2.63555
G1 X139.571 Y140.206 E2.93616
G1 X139.571 Y139.804 E2.95333
G1 X132.539 Y139.804 E3.25394
G1 X132.539 Y139.403 E3.27110
G1 X139.571 Y139.403 E3.57171
G1 X139.571 Y139.001 E3.58888
G1 X132.539 Y139.001 E3.88949
G1 X132.539 Y138.600 E3.90665
G1 X139.571 Y138.600 E4.20726
G1 X139.571 Y138.199 E4.22443
G1 X132.539 Y138.199 E4.52504
G1 X132.539 Y137.797 E4.54220
G1 X139.571 Y137.797 E4.84282
G1 X139.571 Y137.396 E4.85998
G1 X132.539 Y137.396 E5.16059
G1 X132.539 Y136.994 E5.17775
G1 X139.571 Y136.994 E5.47837
G1 X139.571 Y136.593 E5.49553
G1 X132.539 Y136.593 E5.79614
G1 X132.539 Y136.191 E5.81330
G1 X139.571 Y136.191 E6.11392
G1 X139.571 Y135.790 E6.13108
G1 X132.539 Y135.790 E6.43169
G1 X132.539 Y135.388 E6.44886
G1 X139.571 Y135.388 E6.74947
G1 X139.571 Y134.987 E6.76663
G1 X132.539 Y134.987 E7.06724
G1 X132.539 Y134.585 E7.08441
G1 X139.571 Y134.585 E7.38502
G1 X139.571 Y134.360 E7.39465
G1 X139.019 Y134.184 E7.41942
G1 X133.091 Y134.184 E7.67284
G1 X133.444 Y134.071 E7.68865
G1 X135.080 Y133.799 E7.75956
G1 X135.279 Y133.783 E7.76812
G1 X136.831 Y133.783 E7.83445
G1 Z1.000 F7800.000
G1 E5.83445 F2400.00000
G92 E0
G1 X131.811 Y134.359 F7800.000
G1 E2.00000 F2400.00000
G1 F2077.477
G1 X131.811 Y141.009 E2.28430
G1 X131.811 Y134.359 E2.56861
G1 X132.215 Y134.226 E2.58680
G1 X132.215 Y141.009 E2.87678
G1 X132.620 Y141.009 E2.89406
G1 X132.620 Y134.093 E3.18971
G1 X133.024 Y133.960 E3.20790
G1 X133.024 Y141.009 E3.50924
G1 X133.428 Y141.009 E3.52652
G1 X133.428 Y133.835 E3.83323
G1 X133.832 Y133.758 E3.85082
G1 X133.832 Y141.009 E4.16082
G1 X134.236 Y141.009 E4.17810
G1 X134.236 Y133.690 E4.49098
G1 X134.640 Y133.623 E4.50850
G1 X134.640 Y141.009 E4.82426
G1 X135.045 Y141.009 E4.84154
G1 X135.045 Y133.556 E5.16017
G1 X135.344 Y133.530 E5.17299
G1 X135.449 Y133.530 E5.17749
G1 X135.449 Y141.009 E5.49724
G1 X135.853 Y141.009 E5.51452
G1 X135.853 Y133.530 E5.83427
G1 X136.257 Y133.530 E5.85154
G1 X136.257 Y141.009 E6.17129
G1 X136.661 Y141.009 E6.18857
G1 X136.661 Y133.530 E6.50832
G1 X137.065 Y133.556 E6.52563
G1 X137.065 Y141.009 E6.84426
G1 X137.470 Y141.009 E6.86154
G1 X137.470 Y133.623 E7.17730
G1 X137.874 Y133.690 E7.19481
G1 X137.874 Y141.009 E7.50769
G1 X138.278 Y141.009 E7.52497
G1 X138.278 Y133.758 E7.83498
G1 X138.682 Y133.835 E7.85257
G1 X138.682 Y141.009 E8.15928
G1 X139.086 Y141.009 E8.17656
G1 X139.086 Y133.960 E8.47789
G1 X139.491 Y134.093 E8.49608
G1 X139.491 Y141.009 E8.79174
G1 X139.895 Y141.009 E8.80902
G1 X139.895 Y134.226 E9.09900
G1 X140.299 Y134.359 E9.11719
G1 X140.299 Y141.009 E9.40149
G1 Z1.250 F7800.000
G1 E7.40149 F2400.00000
G92 E0
G1 X136.705 Y133.277 F7800.000
G1 E2.00000 F2400.00000
G1 F2272.044
G1 X135.405 Y133.277 E2.05555
G1 X136.705 Y133.277 E2.11110
G1 X137.078 Y133.309 E2.12710
G1 X138.453 Y133.537 E2.18669
G1 X138.974 Y133.684 E2.20983
G1 X133.136 Y133.684 E2.45939
G1 X131.898 Y134.091 E2.51513
G1 X140.210 Y134.091 E2.87051
G1 X140.448 Y134.169 E2.88121
G1 X140.810 Y134.341 E2.89832
G1 X140.810 Y134.498 E2.90505
G1 X131.300 Y134.498 E3.31160
G1 X131.300 Y134.905 E3.32899
G1 X140.810 Y134.905 E3.73554
G1 X140.810 Y135.312 E3.75294
G1 X131.300 Y135.312 E4.15948
G1 X131.300 Y135.719 E4.17688
G1 X140.810 Y135.719 E4.58343
G1 X140.810 Y136.126 E4.60082
G1 X131.300 Y136.126 E5.00737
G1 X131.300 Y136.533 E5.02477
G1 X140.810 Y136.533 E5.43131
G1 X140.810 Y136.940 E5.44871
G1 X131.300 Y136.940 E5.85526
G1 X131.300 Y137.346 E5.87265
G1 X140.810 Y137.346 E6.27920
G1 X140.810 Y137.753 E6.29660
G1 X131.300 Y137.753 E6.70314
G1 X131.300 Y138.160 E6.72054
G1 X140.810 Y138.160 E7.12708
G1 X140.810 Y138.567 E7.14448
G1 X131.300 Y138.567 E7.55103
G1 X131.300 Y138.974 E7.56842
G1 X140.810 Y138.974 E7.97497
G1 X140.810 Y139.381 E7.99237
G1 X131.300 Y139.381 E8.39891
G1 X131.300 Y139.788 E8.41631
G1 X140.810 Y139.788 E8.82286
G1 X140.810 Y140.195 E8.84025
G1 X131.300 Y140.195 E9.24680
G1 X131.300 Y140.602 E9.26420
G1 X140.810 Y140.602 E9.67074
G1 X140.810 Y141.009 E9.68814
G1 X131.300 Y141.009 E10.09469
M106 S175.95
G1 Z1.500 F7800.000
G1 E8.09469 F2400.00000
G92 E0
G1 X130.839 Y134.341 F7800.000
G1 E2.00000 F2400.00000
G1 F2400.000
G1 X130.839 Y141.009 E2.28508
G1 X131.240 Y141.009 E2.30224
G1 X131.240 Y134.151 E2.59545
G1 X131.641 Y133.961 E2.61443
G1 X131.641 Y141.009 E2.91576
G1 X132.042 Y141.009 E2.93292
G1 X132.042 Y133.806 E3.24086
G1 X132.444 Y133.674 E3.25892
G1 X132.444 Y141.009 E3.57252
G1 X132.845 Y141.009 E3.58968
G1 X132.845 Y133.541 E3.90893
G1 X133.246 Y133.409 E3.92700
G1 X133.246 Y141.009 E4.25191
G1 X133.647 Y141.009 E4.26906
G1 X133.647 Y133.300 E4.59864
G1 X134.049 Y133.223 E4.61611
G1 X134.049 Y141.009 E4.94897
G1 X134.450 Y141.009 E4.96612
G1 X134.450 Y133.156 E5.30184
G1 X134.851 Y133.090 E5.31923
G1 X134.851 Y141.009 E5.65779
G1 X135.253 Y141.009 E5.67495
G1 X135.253 Y133.043 E6.01551
G1 X135.654 Y133.025 E6.03269
G1 X135.654 Y141.009 E6.37403
G1 X136.055 Y141.009 E6.39119
G1 X136.055 Y133.025 E6.73253
G1 X136.456 Y133.025 E6.74969
G1 X136.456 Y141.009 E7.09103
G1 X136.858 Y141.009 E7.10819
G1 X136.858 Y133.043 E7.44875
G1 X137.259 Y133.090 E7.46602
G1 X137.259 Y141.009 E7.80459
G1 X137.660 Y141.009 E7.82174
G1 X137.660 Y133.156 E8.15746
G1 X138.061 Y133.223 E8.17485
G1 X138.061 Y141.009 E8.50771
G1 X138.463 Y141.009 E8.52486
G1 X138.463 Y133.300 E8.85444
G1 X138.864 Y133.409 E8.87222
G1 X138.864 Y141.009 E9.19713
G1 X139.265 Y141.009 E9.21428
G1 X139.265 Y133.542 E9.53351
G1 X139.666 Y133.675 E9.55158
G1 X139.666 Y141.009 E9.86514
G1 X140.068 Y141.009 E9.88229
G1 X140.068 Y133.807 E10.19017
G1 X140.469 Y133.957 E10.20848
G1 X140.469 Y141.009 E10.50995
G1 X140.870 Y141.009 E10.52711
G1 X140.870 Y134.149 E10.82039
G1 X141.272 Y134.340 E10.83940
G1 X141.272 Y141.009 E11.12450
G1 Z1.750 F7800.000
G1 E9.12450 F2400.00000
G92 E0
G1 X136.578 Y132.772 F7800.000
G1 E2.00000 F2400.00000
G1 F2400.000
G1 X135.532 Y132.772 E2.04474
G1 X134.985 Y132.818 E2.06820
G1 X133.878 Y133.002 E2.11620
G1 X133.205 Y133.184 E2.14600
G1 X138.908 Y133.184 E2.38981
G1 X140.150 Y133.596 E2.44576
G1 X131.966 Y133.596 E2.79566
G1 X131.074 Y134.008 E2.83765
G1 X141.040 Y134.008 E3.26373
G1 X141.734 Y134.340 E3.29662
G1 X141.734 Y134.419 E3.30001
G1 X130.377 Y134.419 E3.78556
G1 X130.377 Y134.831 E3.80317
G1 X141.734 Y134.831 E4.28871
G1 X141.734 Y135.243 E4.30632
G1 X130.377 Y135.243 E4.79187
G1 X130.377 Y135.655 E4.80947
G1 X141.734 Y135.655 E5.29502
G1 X141.734 Y136.067 E5.31263
G1 X130.377 Y136.067 E5.79817
G1 X130.377 Y136.479 E5.81578
G1 X141.734 Y136.479 E6.30133
G1 X141.734 Y136.890 E6.31893
G1 X130.377 Y136.890 E6.80448
G1 X130.377 Y137.302 E6.82209
G1 X141.734 Y137.302 E7.30763
G1 X141.734 Y137.714 E7.32524
G1 X130.377 Y137.714 E7.81079
G1 X130.377 Y138.126 E7.82839
G1 X141.734 Y138.126 E8.31394
G1 X141.734 Y138.538 E8.33155
G1 X130.377 Y138.538 E8.81709
G1 X130.377 Y138.950 E8.83470
G1 X141.734 Y138.950 E9.32025
G1 X141.734 Y139.361 E9.33785
G1 X130.377 Y139.361 E9.82340
G1 X130.377 Y139.773 E9.84101
G1 X141.734 Y139.773 E10.32655
G1 X141.734 Y140.185 E10.34416
G1 X130.377 Y140.185 E10.82971
G1 X130.377 Y140.597 E10.84731
G1 X141.734 Y140.597 E11.33286
G1 X141.734 Y141.009 E11.35047
G1 X130.377 Y141.009 E11.83601
G1 Z2.000 F7800.000
G1 E9.83601 F2400.00000
G92 E0
G1 X129.948 Y134.326 F7800.000
G1 E2.00000 F2400.00000
G1 F2400.000
G1 X129.948 Y141.009 E2.28569
G1 X130.355 Y141.009 E2.30309
G1 X130.355 Y134.130 E2.59718
G1 X130.762 Y133.936 E2.61647
G1 X130.762 Y141.009 E2.91886
G1 X131.169 Y141.009 E2.93627
G1 X131.169 Y133.742 E3.24696
G1 X131.576 Y133.547 E3.26625
G1 X131.576 Y141.009 E3.58524
G1 X131.983 Y141.009 E3.60265
G1 X131.983 Y133.353 E3.92995
G1 X132.391 Y133.217 E3.94830
G1 X132.391 Y141.009 E4.28143
G1 X132.798 Y141.009 E4.29883
G1 X132.798 Y133.081 E4.63777
G1 X133.205 Y132.945 E4.65612
G1 X133.205 Y141.009 E5.00087
G1 X133.612 Y141.009 E5.01828
G1 X133.612 Y132.828 E5.36802
G1 X134.019 Y132.730 E5.38593
G1 X134.019 Y141.009 E5.73989
G1 X134.426 Y141.009 E5.75730
G1 X134.426 Y132.662 E6.11416
G1 X134.834 Y132.594 E6.13180
G1 X134.834 Y141.009 E6.49155
G1 X135.241 Y141.009 E6.50896
G1 X135.241 Y132.549 E6.87063
G1 X135.648 Y132.519 E6.88808
G1 X135.648 Y141.009 E7.25103
G1 X136.055 Y141.009 E7.26843
G1 X136.055 Y132.519 E7.63138
G1 X136.462 Y132.519 E7.64879
G1 X136.462 Y141.009 E8.01173
G1 X136.869 Y141.009 E8.02914
G1 X136.869 Y132.549 E8.39081
G1 X137.277 Y132.594 E8.40832
G1 X137.277 Y141.009 E8.76807
G1 X137.684 Y141.009 E8.78548
G1 X137.684 Y132.662 E9.14233
G1 X138.091 Y132.730 E9.15998
G1 X138.091 Y141.009 E9.51394
G1 X138.498 Y141.009 E9.53135
G1 X138.498 Y132.828 E9.88109
G1 X138.905 Y132.944 E9.89918
G1 X138.905 Y141.009 E10.24398
G1 X139.312 Y141.009 E10.26138
G1 X139.312 Y133.078 E10.60046
G1 X139.720 Y133.211 E10.61878
G1 X139.720 Y141.009 E10.95214
G1 X140.127 Y141.009 E10.96955
G1 X140.127 Y133.357 E11.29669
G1 X140.534 Y133.544 E11.31585
G1 X140.534 Y141.009 E11.63500
G1 X140.941 Y141.009 E11.65241
G1 X140.941 Y133.739 E11.96321
G1 X141.348 Y133.934 E11.98252
G1 X141.348 Y141.009 E12.28498
G1 X141.755 Y141.009 E12.30239
G1 X141.755 Y134.129 E12.59652
G1 X142.145 Y134.316 E12.61497
G1 X142.162 Y134.326 E12.61587
G1 X142.162 Y141.009 E12.90156
M106 S173.4
G1 Z2.250 F7800.000
G1 E10.90156 F2400.00000
G92 E0
G1 X136.452 Y132.267 F7800.000
G1 E2.00000 F2400.00000
G1 F2400.000
G1 X135.658 Y132.267 E2.03395
G1 X136.452 Y132.267 E2.06791
G1 X137.172 Y132.327 E2.09881
G1 X138.012 Y132.467 E2.13521
G1 X138.837 Y132.683 E2.17165
G1 X133.275 Y132.683 E2.40945
G1 X132.049 Y133.099 E2.46479
G1 X140.057 Y133.099 E2.80715
G1 X140.930 Y133.516 E2.84851
G1 X131.175 Y133.516 E3.26556
G1 X130.306 Y133.932 E3.30676
G1 X141.803 Y133.932 E3.79829
G1 X141.983 Y134.018 E3.80682
G1 X142.484 Y134.326 E3.83195
G1 X142.484 Y134.348 E3.83290
G1 X129.626 Y134.348 E4.38259
G1 X129.626 Y134.765 E4.40039
G1 X142.484 Y134.765 E4.95008
G1 X142.484 Y135.181 E4.96788
G1 X129.626 Y135.181 E5.51757
G1 X129.626 Y135.597 E5.53536
G1 X142.484 Y135.597 E6.08505
G1 X142.484 Y136.013 E6.10285
G1 X129.626 Y136.013 E6.65254
G1 X129.626 Y136.430 E6.67033
G1 X142.484 Y136.430 E7.22002
G1 X142.484 Y136.846 E7.23782
G1 X129.626 Y136.846 E7.78751
G1 X129.626 Y137.262 E7.80531
G1 X142.484 Y137.262 E8.35500
G1 X142.484 Y137.678 E8.37279
G1 X129.626 Y137.678 E8.92248
G1 X129.626 Y138.095 E8.94028
G1 X142.484 Y138.095 E9.48997
G1 X142.484 Y138.511 E9.50777
G1 X129.626 Y138.511 E10.05745
G1 X129.626 Y138.927 E10.07525
G1 X142.484 Y138.927 E10.62494
G1 X142.484 Y139.344 E10.64274
G1 X129.626 Y139.344 E11.19243
G1 X129.626 Y139.760 E11.21022
G1 X142.484 Y139.760 E11.75991
G1 X142.484 Y140.176 E11.77771
G1 X129.626 Y140.176 E12.32740
G1 X129.626 Y140.592 E12.34520
G1 X142.484 Y140.592 E12.89489
G1 X142.484 Y141.009 E12.91268
G1 X129.626 Y141.009 E13.46237
G1 Z2.500 F7800.000
G1 E11.46237 F2400.00000
G92 E0
G1 X129.305 Y134.326 F7800.000
G1 E2.00000 F2400.00000
G1 F2400.000
G1 X129.305 Y141.009 E2.28572
G1 X129.305 Y134.326 E2.57143
G1 X129.714 Y134.074 E2.59197
G1 X129.714 Y141.009 E2.88845
G1 X130.123 Y141.009 E2.90594
G1 X130.123 Y133.822 E3.21318
G1 X130.533 Y133.603 E3.23304
G1 X130.533 Y141.009 E3.54967
G1 X130.942 Y141.009 E3.56716
G1 X130.942 Y133.406 E3.89220
G1 X131.351 Y133.210 E3.91160
G1 X131.351 Y141.009 E4.24503
G1 X131.760 Y141.009 E4.26251
G1 X131.760 Y133.013 E4.60434
G1 X132.169 Y132.826 E4.62358
G1 X132.169 Y141.009 E4.97343
G1 X132.578 Y141.009 E4.99092
G1 X132.578 Y132.671 E5.34736
G1 X132.987 Y132.537 E5.36577
G1 X132.987 Y141.009 E5.72796
G1 X133.396 Y141.009 E5.74545
G1 X133.396 Y132.403 E6.11339
G1 X133.805 Y132.300 E6.13142
G1 X133.805 Y141.009 E6.50375
G1 X134.214 Y141.009 E6.52124
G1 X134.214 Y132.199 E6.89790
G1 X134.623 Y132.131 E6.91563
G1 X134.623 Y141.009 E7.29520
G1 X135.032 Y141.009 E7.31269
G1 X135.032 Y132.072 E7.69475
G1 X135.441 Y132.038 E7.71230
G1 X135.441 Y141.009 E8.09583
G1 X135.851 Y141.009 E8.11332
G1 X135.851 Y132.014 E8.49787
G1 X136.260 Y132.014 E8.51536
G1 X136.260 Y141.009 E8.89990
G1 X136.669 Y141.009 E8.91739
G1 X136.669 Y132.038 E9.30093
G1 X137.078 Y132.072 E9.31848
G1 X137.078 Y141.009 E9.70054
G1 X137.487 Y141.009 E9.71803
G1 X137.487 Y132.131 E10.09760
G1 X137.896 Y132.199 E10.11533
G1 X137.896 Y141.009 E10.49198
G1 X138.305 Y141.009 E10.50947
G1 X138.305 Y132.300 E10.88180
G1 X138.714 Y132.403 E10.89983
G1 X138.714 Y141.009 E11.26776
G1 X139.123 Y141.009 E11.28525
G1 X139.123 Y132.541 E11.64726
G1 X139.532 Y132.680 E11.66573
G1 X139.532 Y141.009 E12.02182
G1 X139.941 Y141.009 E12.03931
G1 X139.941 Y132.824 E12.38924
G1 X140.350 Y133.019 E12.40861
G1 X140.350 Y141.009 E12.75020
G1 X140.759 Y141.009 E12.76769
G1 X140.759 Y133.214 E13.10096
G1 X141.169 Y133.409 E13.12033
G1 X141.169 Y141.009 E13.44526
G1 X141.578 Y141.009 E13.46275
G1 X141.578 Y133.603 E13.77935
G1 X141.815 Y133.716 E13.79057
G1 X141.987 Y133.822 E13.79921
G1 X141.987 Y141.009 E14.10645
G1 X142.396 Y141.009 E14.12394
G1 X142.396 Y134.074 E14.42042
