; generated by Slic3r 1.3.1-dev (Build 8c69278) on 2021-12-10 at 13:24:55

; external perimeters extrusion width = 0.45mm (3.99mm^3/s)
; perimeters extrusion width = 0.45mm (3.99mm^3/s)
; infill extrusion width = 0.45mm (3.99mm^3/s)
; solid infill extrusion width = 0.45mm (4.99mm^3/s)
; top infill extrusion width = 0.45mm (3.00mm^3/s)
; support material extrusion width = 0.45mm (4.99mm^3/s)

M107
G92 E0
M104 S205 ; set temperature
G28 ; home all axes
G1 Z5 F5000 ; lift nozzle

; Filament gcode

M109 S205 ; set temperature and wait for it to be reached
G21 ; set units to millimeters
G90 ; use absolute coordinates
M82 ; use absolute distances for extrusion
G92 E0
G1 Z0.250 F7800.000
G1 E-2.00000 F2400.00000
G92 E0
G1 X134.565 Y134.384 F7800.000
G1 E2.00000 F2400.00000
G1 F757.597
G1 X134.565 Y141.009 E2.28322
G1 X134.565 Y134.384 E2.56643
G1 X134.991 Y134.315 E2.58487
G1 X134.991 Y141.009 E2.87104
G1 X135.416 Y141.009 E2.88924
G1 X135.416 Y134.288 E3.17656
G1 X135.842 Y134.289 E3.19477
G1 X135.842 Y141.009 E3.48206
G1 X136.268 Y141.009 E3.50026
G1 X136.268 Y134.290 E3.78751
G1 X136.694 Y134.291 E3.80571
G1 X136.694 Y141.009 E4.09293
G1 X137.120 Y141.009 E4.11113
G1 X137.120 Y134.313 E4.39741
G1 X137.545 Y134.383 E4.41587
G1 X137.545 Y141.009 E4.69912
G1 Z0.250 F7800.000
G1 Z0.500 F7800.000
G1 E2.69912 F2400.00000
G92 E0
G1 X133.268 Y141.009 F7800.000
G1 E2.00000 F2400.00000
G1 F1329.278
G1 X138.843 Y141.009 E2.23835
G1 X133.268 Y141.009 E2.47669
G1 X133.268 Y140.599 E2.49420
G1 X138.843 Y140.599 E2.73254
G1 X138.843 Y140.190 E2.75005
G1 X133.268 Y140.190 E2.98840
G1 X133.268 Y139.780 E3.00591
G1 X138.843 Y139.780 E3.24425
G1 X138.843 Y139.370 E3.26176
G1 X133.268 Y139.370 E3.50011
G1 X133.268 Y138.961 E3.51762
G1 X138.843 Y138.961 E3.75596
G1 X138.843 Y138.551 E3.77347
G1 X133.268 Y138.551 E4.01182
G1 X133.268 Y138.142 E4.02933
G1 X138.843 Y138.142 E4.26767
G1 X138.843 Y137.732 E4.28518
G1 X133.268 Y137.732 E4.52353
G1 X133.268 Y137.323 E4.54104
G1 X138.843 Y137.323 E4.77938
G1 X138.843 Y136.913 E4.79689
G1 X133.268 Y136.913 E5.03524
G1 X133.268 Y136.503 E5.05275
G1 X138.843 Y136.503 E5.29109
G1 X138.843 Y136.094 E5.30860
G1 X133.268 Y136.094 E5.54695
G1 X133.268 Y135.684 E5.56446
G1 X138.843 Y135.684 E5.80280
G1 X138.843 Y135.275 E5.82031
G1 X133.268 Y135.275 E6.05866
G1 X133.268 Y134.865 E6.07617
G1 X138.843 Y134.865 E6.31451
G1 X138.843 Y134.456 E6.33202
G1 X133.268 Y134.456 E6.57037
G1 X133.268 Y134.360 E6.57445
G1 X133.334 Y134.339 E6.57742
G1 X135.095 Y134.046 E6.65373
G1 X137.016 Y134.046 E6.73586
M106 S178.5
G1 Z0.750 F7800.000
G1 E4.73586 F2400.00000
G92 E0
G1 X132.539 Y134.360 F7800.000
G1 E2.00000 F2400.00000
G1 F1681.334
G1 X132.539 Y141.009 E2.28425
G1 X132.539 Y134.360 E2.56850
G1 X132.953 Y134.228 E2.58706
G1 X132.953 Y141.009 E2.87695
G1 X133.367 Y141.009 E2.89463
G1 X133.367 Y134.096 E3.19017
G1 X133.780 Y134.016 E3.20818
G1 X133.780 Y141.009 E3.50716
G1 X134.194 Y141.009 E3.52485
G1 X134.194 Y133.947 E3.82677
G1 X134.607 Y133.878 E3.84470
G1 X134.607 Y141.009 E4.14956
G1 X135.021 Y141.009 E4.16724
G1 X135.021 Y133.809 E4.47505
G1 X135.280 Y133.782 E4.48620
G1 X135.435 Y133.782 E4.49279
G1 X135.435 Y141.009 E4.80174
G1 X135.848 Y141.009 E4.81942
G1 X135.848 Y133.782 E5.12836
G1 X136.262 Y133.782 E5.14605
G1 X136.262 Y141.009 E5.45499
G1 X136.675 Y141.009 E5.47268
G1 X136.675 Y133.782 E5.78162
G1 X137.089 Y133.809 E5.79934
G1 X137.089 Y141.009 E6.10715
G1 X137.503 Y141.009 E6.12483
G1 X137.503 Y133.878 E6.42970
G1 X137.916 Y133.947 E6.44762
G1 X137.916 Y141.009 E6.74954
G1 X138.330 Y141.009 E6.76723
G1 X138.330 Y134.016 E7.06621
G1 X138.743 Y134.096 E7.08422
G1 X138.743 Y141.009 E7.37976
G1 X139.157 Y141.009 E7.39744
G1 X139.157 Y134.228 E7.68733
G1 X139.571 Y134.360 E7.70589
G1 X139.571 Y141.009 E7.99014
G1 Z1.000 F7800.000
G1 E5.99014 F2400.00000
G92 E0
G1 X131.811 Y141.009 F7800.000
G1 E2.00000 F2400.00000
G1 F1943.732
G1 X140.299 Y141.009 E2.36288
G1 X140.299 Y140.593 E2.38064
G1 X131.811 Y140.593 E2.74352
G1 X131.811 Y140.178 E2.76129
G1 X140.299 Y140.178 E3.12417
G1 X140.299 Y139.762 E3.14193
G1 X131.811 Y139.762 E3.50481
G1 X131.811 Y139.347 E3.52257
G1 X140.299 Y139.347 E3.88545
G1 X140.299 Y138.931 E3.90321
G1 X131.811 Y138.931 E4.26609
G1 X131.811 Y138.516 E4.28386
G1 X140.299 Y138.516 E4.64674
G1 X140.299 Y138.100 E4.66450
G1 X131.811 Y138.100 E5.02738
G1 X131.811 Y137.685 E5.04514
G1 X140.299 Y137.685 E5.40802
G1 X140.299 Y137.269 E5.42578
G1 X131.811 Y137.269 E5.78866
G1 X131.811 Y136.854 E5.80643
G1 X140.299 Y136.854 E6.16931
G1 X140.299 Y136.438 E6.18707
G1 X131.811 Y136.438 E6.54995
G1 X131.811 Y136.023 E6.56771
G1 X140.299 Y136.023 E6.93059
G1 X140.299 Y135.607 E6.94836
G1 X131.811 Y135.607 E7.31124
G1 X131.811 Y135.192 E7.32900
G1 X140.299 Y135.192 E7.69188
G1 X140.299 Y134.776 E7.70964
G1 X131.811 Y134.776 E8.07252
G1 X131.811 Y134.361 E8.09028
G1 X140.299 Y134.361 E8.45316
G1 X139.041 Y133.945 E8.50982
G1 X133.070 Y133.945 E8.76510
G1 X133.547 Y133.805 E8.78639
G1 X135.056 Y133.554 E8.85178
G1 X135.342 Y133.530 E8.86406
G1 X136.768 Y133.530 E8.92500
G1 Z1.250 F7800.000
G1 E6.92500 F2400.00000
G92 E0
G1 X131.301 Y134.341 F7800.000
G1 E2.00000 F2400.00000
G1 F2312.093
G1 X131.300 Y141.009 E2.28505
G1 X131.301 Y134.341 E2.57010
G1 X131.714 Y134.152 E2.58955
G1 X131.714 Y141.009 E2.88271
G1 X132.127 Y141.009 E2.90039
G1 X132.127 Y134.016 E3.19936
G1 X132.541 Y133.880 E3.21797
G1 X132.541 Y141.009 E3.52275
G1 X132.954 Y141.009 E3.54042
G1 X132.954 Y133.744 E3.85101
G1 X133.368 Y133.610 E3.86960
G1 X133.368 Y141.009 E4.18593
G1 X133.781 Y141.009 E4.20361
G1 X133.781 Y133.517 E4.52391
G1 X134.195 Y133.448 E4.54183
G1 X134.195 Y141.009 E4.86507
G1 X134.608 Y141.009 E4.88274
G1 X134.608 Y133.379 E5.20892
G1 X135.021 Y133.311 E5.22684
G1 X135.021 Y141.009 E5.55596
G1 X135.435 Y141.009 E5.57364
G1 X135.435 Y133.277 E5.90418
G1 X135.848 Y133.277 E5.92186
G1 X135.848 Y141.009 E6.25241
G1 X136.262 Y141.009 E6.27008
G1 X136.262 Y133.277 E6.60063
G1 X136.675 Y133.277 E6.61830
G1 X136.675 Y141.009 E6.94885
G1 X137.089 Y141.009 E6.96652
G1 X137.089 Y133.311 E7.29565
G1 X137.502 Y133.379 E7.31356
G1 X137.502 Y141.009 E7.63974
G1 X137.916 Y141.009 E7.65742
G1 X137.916 Y133.448 E7.98066
G1 X138.329 Y133.517 E7.99858
G1 X138.329 Y141.009 E8.31888
G1 X138.742 Y141.009 E8.33655
G1 X138.742 Y133.610 E8.65289
G1 X139.156 Y133.744 E8.67148
G1 X139.156 Y141.009 E8.98206
G1 X139.569 Y141.009 E8.99973
G1 X139.569 Y133.880 E9.30450
G1 X139.983 Y134.016 E9.32311
G1 X139.983 Y141.009 E9.62205
G1 X140.396 Y141.009 E9.63973
G1 X140.396 Y134.152 E9.93286
G1 X140.810 Y134.341 E9.95229
G1 X140.810 Y141.009 E10.23737
M106 S175.95
G1 Z1.500 F7800.000
G1 E8.23737 F2400.00000
G92 E0
G1 X136.641 Y133.025 F7800.000
G1 E2.00000 F2400.00000
G1 F2400.000
G1 X135.469 Y133.025 E2.05014
G1 X135.009 Y133.063 E2.06987
G1 X133.768 Y133.270 E2.12367
G1 X133.137 Y133.445 E2.15163
G1 X138.972 Y133.445 E2.40108
G1 X140.242 Y133.865 E2.45828
G1 X131.863 Y133.865 E2.81652
G1 X130.955 Y134.285 E2.85927
G1 X141.156 Y134.285 E3.29540
G1 X141.272 Y134.340 E3.30085
G1 X141.272 Y134.706 E3.31647
G1 X130.838 Y134.706 E3.76252
G1 X130.838 Y135.126 E3.78048
G1 X141.272 Y135.126 E4.22653
G1 X141.272 Y135.546 E4.24449
G1 X130.838 Y135.546 E4.69054
G1 X130.838 Y135.966 E4.70850
G1 X141.272 Y135.966 E5.15455
G1 X141.272 Y136.386 E5.17252
G1 X130.838 Y136.386 E5.61856
G1 X130.838 Y136.807 E5.63653
G1 X141.272 Y136.807 E6.08257
G1 X141.272 Y137.227 E6.10054
G1 X130.838 Y137.227 E6.54658
G1 X130.838 Y137.647 E6.56455
G1 X141.272 Y137.647 E7.01060
G1 X141.272 Y138.067 E7.02856
G1 X130.838 Y138.067 E7.47461
G1 X130.838 Y138.487 E7.49257
G1 X141.272 Y138.487 E7.93862
G1 X141.272 Y138.908 E7.95658
G1 X130.838 Y138.908 E8.40263
G1 X130.838 Y139.328 E8.42060
G1 X141.272 Y139.328 E8.86664
G1 X141.272 Y139.748 E8.88461
G1 X130.838 Y139.748 E9.33065
G1 X130.838 Y140.168 E9.34862
G1 X141.272 Y140.168 E9.79467
G1 X141.272 Y140.588 E9.81263
G1 X130.838 Y140.588 E10.25868
G1 X130.838 Y141.009 E10.27664
G1 X141.272 Y141.009 E10.72269
G1 X130.838 Y141.009 E11.16873
G1 Z1.750 F7800.000
G1 E9.16873 F2400.00000
G92 E0
G1 X130.377 Y134.340 F7800.000
G1 E2.00000 F2400.00000
G1 F2400.000
G1 X130.377 Y141.009 E2.28510
G1 X130.782 Y141.009 E2.30244
G1 X130.782 Y134.147 E2.59581
G1 X131.188 Y133.953 E2.61503
G1 X131.188 Y141.009 E2.91667
G1 X131.593 Y141.009 E2.93401
G1 X131.593 Y133.760 E3.24393
G1 X131.999 Y133.585 E3.26282
G1 X131.999 Y141.009 E3.58022
G1 X132.405 Y141.009 E3.59756
G1 X132.405 Y133.450 E3.92073
G1 X132.810 Y133.315 E3.93900
G1 X132.810 Y141.009 E4.26794
G1 X133.216 Y141.009 E4.28528
G1 X133.216 Y133.180 E4.61997
G1 X133.621 Y133.066 E4.63798
G1 X133.621 Y141.009 E4.97755
G1 X134.027 Y141.009 E4.99489
G1 X134.027 Y132.977 E5.33825
G1 X134.433 Y132.910 E5.35583
G1 X134.433 Y141.009 E5.70208
G1 X134.838 Y141.009 E5.71942
G1 X134.838 Y132.843 E6.06855
G1 X135.244 Y132.796 E6.08600
G1 X135.244 Y141.009 E6.43711
G1 X135.649 Y141.009 E6.45445
G1 X135.649 Y132.772 E6.80659
G1 X136.055 Y132.772 E6.82393
G1 X136.055 Y141.009 E7.17608
G1 X136.461 Y141.009 E7.19342
G1 X136.461 Y132.772 E7.54556
G1 X136.866 Y132.796 E7.56294
G1 X136.866 Y141.009 E7.91404
G1 X137.272 Y141.009 E7.93138
G1 X137.272 Y132.843 E8.28051
G1 X137.677 Y132.910 E8.29809
G1 X137.677 Y141.009 E8.64433
G1 X138.083 Y141.009 E8.66167
G1 X138.083 Y132.978 E9.00503
G1 X138.489 Y133.066 E9.02278
G1 X138.489 Y141.009 E9.36235
G1 X138.894 Y141.009 E9.37969
G1 X138.894 Y133.180 E9.71441
G1 X139.300 Y133.313 E9.73267
G1 X139.300 Y141.009 E10.06169
G1 X139.705 Y141.009 E10.07903
G1 X139.705 Y133.446 E10.40236
G1 X140.111 Y133.581 E10.42063
G1 X140.111 Y141.009 E10.73819
G1 X140.517 Y141.009 E10.75553
G1 X140.517 Y133.757 E11.06557
G1 X140.922 Y133.951 E11.08480
G1 X140.922 Y141.009 E11.38652
G1 X141.328 Y141.009 E11.40386
G1 X141.328 Y134.146 E11.69728
G1 X141.733 Y134.340 E11.71651
G1 X141.733 Y141.009 E12.00162
M106 S173.4
G1 Z2.000 F7800.000
G1 E10.00162 F2400.00000
G92 E0
G1 X136.515 Y132.519 F7800.000
G1 E2.00000 F2400.00000
G1 F2400.000
G1 X135.595 Y132.519 E2.03934
G1 X134.961 Y132.573 E2.06652
G1 X133.988 Y132.735 E2.10872
G1 X133.268 Y132.924 E2.14052
G1 X138.844 Y132.924 E2.37888
G1 X140.051 Y133.328 E2.43331
G1 X132.058 Y133.328 E2.77502
G1 X131.189 Y133.732 E2.81602
G1 X140.927 Y133.732 E3.23237
G1 X141.771 Y134.136 E3.27236
G1 X130.341 Y134.136 E3.76100
G1 X129.948 Y134.327 E3.77969
G1 X129.948 Y134.541 E3.78885
G1 X142.163 Y134.541 E4.31107
G1 X142.163 Y134.945 E4.32836
G1 X129.948 Y134.945 E4.85058
G1 X129.948 Y135.349 E4.86786
G1 X142.163 Y135.349 E5.39009
G1 X142.163 Y135.753 E5.40737
G1 X129.948 Y135.753 E5.92960
G1 X129.948 Y136.158 E5.94688
G1 X142.163 Y136.158 E6.46910
G1 X142.163 Y136.562 E6.48639
G1 X129.948 Y136.562 E7.00861
G1 X129.948 Y136.966 E7.02589
G1 X142.163 Y136.966 E7.54812
G1 X142.163 Y137.370 E7.56540
G1 X129.948 Y137.370 E8.08763
G1 X129.948 Y137.775 E8.10491
G1 X142.163 Y137.775 E8.62713
G1 X142.163 Y138.179 E8.64442
G1 X129.948 Y138.179 E9.16664
G1 X129.948 Y138.583 E9.18392
G1 X142.163 Y138.583 E9.70615
G1 X142.163 Y138.987 E9.72343
G1 X129.948 Y138.987 E10.24566
G1 X129.948 Y139.392 E10.26294
G1 X142.163 Y139.392 E10.78516
G1 X142.163 Y139.796 E10.80245
G1 X129.948 Y139.796 E11.32467
G1 X129.948 Y140.200 E11.34195
G1 X142.163 Y140.200 E11.86418
G1 X142.163 Y140.604 E11.88146
G1 X129.948 Y140.604 E12.40369
G1 X129.948 Y141.009 E12.42097
G1 X142.163 Y141.009 E12.94319
G1 X129.948 Y141.009 E13.46542
G1 Z2.250 F7800.000
G1 E11.46542 F2400.00000
G92 E0
G1 X129.626 Y134.326 F7800.000
G1 E2.00000 F2400.00000
G1 F2400.000
G1 X129.626 Y141.009 E2.28572
G1 X130.028 Y141.009 E2.30289
G1 X130.028 Y134.079 E2.59918
G1 X130.430 Y133.873 E2.61848
G1 X130.430 Y141.009 E2.92358
G1 X130.832 Y141.009 E2.94075
G1 X130.832 Y133.680 E3.25407
G1 X131.234 Y133.488 E3.27312
G1 X131.234 Y141.009 E3.59467
G1 X131.635 Y141.009 E3.61184
G1 X131.635 Y133.295 E3.94162
G1 X132.037 Y133.103 E3.96065
G1 X132.037 Y141.009 E4.29863
G1 X132.439 Y141.009 E4.31581
G1 X132.439 Y132.967 E4.65962
G1 X132.841 Y132.831 E4.67776
G1 X132.841 Y141.009 E5.02740
G1 X133.243 Y141.009 E5.04458
G1 X133.243 Y132.694 E5.40006
G1 X133.644 Y132.580 E5.41791
G1 X133.644 Y141.009 E5.77826
G1 X134.046 Y141.009 E5.79544
G1 X134.046 Y132.480 E6.16006
G1 X134.448 Y132.409 E6.17751
G1 X134.448 Y141.009 E6.54517
G1 X134.850 Y141.009 E6.56235
G1 X134.850 Y132.342 E6.93287
G1 X135.251 Y132.301 E6.95014
G1 X135.251 Y141.009 E7.32242
G1 X135.653 Y141.009 E7.33960
G1 X135.653 Y132.267 E7.71332
G1 X136.055 Y132.267 E7.73050
G1 X136.055 Y141.009 E8.10424
G1 X136.457 Y141.009 E8.12142
G1 X136.457 Y132.267 E8.49514
G1 X136.859 Y132.301 E8.51238
G1 X136.859 Y141.009 E8.88466
G1 X137.260 Y141.009 E8.90184
G1 X137.260 Y132.342 E9.27236
G1 X137.662 Y132.409 E9.28977
G1 X137.662 Y141.009 E9.65744
G1 X138.064 Y141.009 E9.67462
G1 X138.064 Y132.480 E10.03924
G1 X138.466 Y132.580 E10.05694
G1 X138.466 Y141.009 E10.41729
G1 X138.868 Y141.009 E10.43447
G1 X138.868 Y132.694 E10.78997
G1 X139.269 Y132.829 E10.80809
G1 X139.269 Y141.009 E11.15782
G1 X139.671 Y141.009 E11.17500
G1 X139.671 Y132.964 E11.51895
G1 X140.073 Y133.107 E11.53719
G1 X140.073 Y141.009 E11.87501
G1 X140.475 Y141.009 E11.89219
G1 X140.475 Y133.299 E12.22182
G1 X140.877 Y133.490 E12.24085
G1 X140.877 Y141.009 E12.56229
G1 X141.278 Y141.009 E12.57947
G1 X141.278 Y133.682 E12.89272
G1 X141.680 Y133.873 E12.91175
G1 X141.680 Y141.009 E13.21681
G1 X142.082 Y141.009 E13.23399
G1 X142.082 Y134.079 E13.53027
G1 X142.484 Y134.326 E13.55044
G1 X142.484 Y141.009 E13.83616
G1 Z2.500 F7800.000
G1 E11.83616 F2400.00000
G92 E0
G1 X136.389 Y132.014 F7800.000
G1 E2.00000 F2400.00000
G1 F2400.000
G1 X135.721 Y132.014 E2.02854
G1 X134.914 Y132.082 E2.06317
G1 X134.208 Y132.200 E2.09378
G1 X133.334 Y132.423 E2.13235
G1 X138.774 Y132.423 E2.36495
G1 X139.958 Y132.832 E2.41850
G1 X132.153 Y132.832 E2.75221
G1 X131.286 Y133.241 E2.79317
G1 X140.816 Y133.241 E3.20061
G1 X141.675 Y133.650 E3.24125
G1 X130.434 Y133.650 E3.72180
G1 X130.296 Y133.716 E3.72837
G1 X129.740 Y134.058 E3.75629
G1 X142.370 Y134.058 E4.29629
G1 X142.805 Y134.326 E4.31811
G1 X142.805 Y134.467 E4.32415
G1 X129.305 Y134.467 E4.90131
G1 X129.305 Y134.876 E4.91878
G1 X142.805 Y134.876 E5.49594
G1 X142.805 Y135.285 E5.51342
G1 X129.305 Y135.285 E6.09057
G1 X129.305 Y135.694 E6.10805
G1 X142.805 Y135.694 E6.68520
G1 X142.805 Y136.103 E6.70268
G1 X129.305 Y136.103 E7.27984
G1 X129.305 Y136.511 E7.29731
G1 X142.805 Y136.511 E7.87447
G1 X142.805 Y136.920 E7.89195
G1 X129.305 Y136.920 E8.46910
G1 X129.305 Y137.329 E8.48658
G1 X142.805 Y137.329 E9.06373
G1 X142.805 Y137.738 E9.08121
G1 X129.305 Y137.738 E9.65837
G1 X129.305 Y138.147 E9.67584
G1 X142.805 Y138.147 E10.25300
G1 X142.805 Y138.556 E10.27048
G1 X129.305 Y138.556 E10.84763
G1 X129.305 Y138.964 E10.86511
G1 X142.805 Y138.964 E11.44226
G1 X142.805 Y139.373 E11.45974
G1 X129.305 Y139.373 E12.03690
G1 X129.305 Y139.782 E12.05437
G1 X142.805 Y139.782 E12.63153
G1 X142.805 Y140.191 E12.64901
G1 X129.305 Y140.191 E13.22616
G1 X129.305 Y140.600 E13.24364
G1 X142.805 Y140.600 E13.82079
G1 X142.805 Y141.009 E13.83827
G1 X129.305 Y141.009 E14.41543
G1 Z2.750 F7800.000
G1 E12.41543 F2400.00000
G92 E0
G1 X128.984 Y134.326 F7800.000
G1 E2.00000 F2400.00000
G1 F2400.000
G1 X128.984 Y141.009 E2.28569
G1 X128.984 Y134.326 E2.57137
G1 X129.388 Y134.081 E2.59160
G1 X129.388 Y141.009 E2.88779
G1 X129.792 Y141.009 E2.90507
G1 X129.792 Y133.835 E3.21177
G1 X130.196 Y133.589 E3.23200
G1 X130.196 Y141.009 E3.54921
G1 X130.600 Y141.009 E3.56649
G1 X130.600 Y133.347 E3.89403
G1 X131.004 Y133.154 E3.91318
G1 X131.004 Y141.009 E4.24898
G1 X131.408 Y141.009 E4.26626
G1 X131.408 Y132.961 E4.61032
G1 X131.812 Y132.768 E4.62947
G1 X131.812 Y141.009 E4.98179
G1 X132.217 Y141.009 E4.99907
G1 X132.217 Y132.575 E5.35965
G1 X132.621 Y132.433 E5.37796
G1 X132.621 Y141.009 E5.74462
G1 X133.025 Y141.009 E5.76189
G1 X133.025 Y132.293 E6.13454
G1 X133.429 Y132.154 E6.15280
G1 X133.429 Y141.009 E6.53139
