; Generated by RP3 on 2021-07-8
; Job 0 - 3D Cloner

G21 ; set units to millimeters
M107 ;fan off
G28 ;home all axes
G90 ;absolute coordinates
G28 E0 ;home all axes
G1 E20.0 F100.0 ;extrude 20mm material with 100 mm/min speed
G28 E0 ;home all axes
G90 ;use absolute coordinates
M82 ; use absolute distances for extrusion
G92 E0 ;home of axes
M104 S90
G1 E-2.00000 F24000 ;retracts 2mm of material
M106 S102

(Layer 1)
G1  Z0.250 F2400

(Raster 1)
G92 E0
G1  X0015.404 Y0001.304 F2400
G1  E2.00000 F2400
G1  X0019.590 Y0001.304 E2.191 F2400
G1  X0020.090 Y0001.375 E2.215
G1  X0020.674 Y0001.480 E2.242
G1  X0021.254 Y0001.606 E2.269
G1  X0021.638 Y0001.704 E2.287
G1  X0013.361 Y0001.704 E2.665
G1  X0013.042 Y0001.789 E2.680
G1  X0012.393 Y0001.986 E2.711
G1  X0012.055 Y0002.104 E2.728
G1  X0022.947 Y0002.104 E3.226
G1  X0022.960 Y0002.108 E3.226
G1  X0023.515 Y0002.317 E3.254
G1  X0023.964 Y0002.504 E3.276
G1  X0011.038 Y0002.504 E3.867
G1  X0010.814 Y0002.599 E3.878
G1  X0010.278 Y0002.852 E3.905
G1  X0010.177 Y0002.904 E3.910
G1  X0024.820 Y0002.904 E4.580
G1  X0025.130 Y0003.061 E4.596
G1  X0025.571 Y0003.304 E4.619
G1  X0009.430 Y0003.304 E5.357
G1  X0009.234 Y0003.415 E5.367
G1  X0008.761 Y0003.704 E5.392
G1  X0026.237 Y0003.704 E6.191
G1  X0026.655 Y0003.976 E6.214
G1  X0026.836 Y0004.104 E6.224
G1  X0008.160 Y0004.104 E7.078
G1  X0007.751 Y0004.397 E7.101
G1  X0007.613 Y0004.504 E7.109
G1  X0027.385 Y0004.504 E8.013
G1  X0027.612 Y0004.676 E8.026
G1  X0027.890 Y0004.904 E8.042
G1  X0007.109 Y0004.904 E8.993
G1  X0006.826 Y0005.139 E9.009
G1  X0006.642 Y0005.304 E9.021
G1  X0028.357 Y0005.304 E10.014
G1  X0028.516 Y0005.444 E10.023
G1  X0028.790 Y0005.704 E10.040
G1  X0019.152 Y0005.704 E10.481
G1  X0019.872 Y0005.820 E10.514
G1  X0020.420 Y0005.943 E10.540
G1  X0020.832 Y0006.056 E10.560
G1  X0020.973 Y0006.104 E10.567
G1  X0029.194 Y0006.104 E10.942
G1  X0029.362 Y0006.276 E10.953
G1  X0029.570 Y0006.504 E10.967
G1  X0022.074 Y0006.504 E11.310
G1  X0022.666 Y0006.759 E11.340
G1  X0022.952 Y0006.904 E11.354
G1  X0029.923 Y0006.904 E11.673
G1  X0030.145 Y0007.166 E11.689
G1  X0030.255 Y0007.304 E11.697
G1  X0023.671 Y0007.304 E11.998
G1  X0024.016 Y0007.519 E12.016
G1  X0024.287 Y0007.704 E12.031
G1  X0030.565 Y0007.704 E12.318
G1  X0030.816 Y0008.044 E12.338
G1  X0030.857 Y0008.104 E12.341
G1  X0024.833 Y0008.104 E12.616
G1  X0025.202 Y0008.403 E12.638
G1  X0025.316 Y0008.504 E12.645
G1  X0031.133 Y0008.504 E12.911
G1  X0031.157 Y0008.539 E12.913
G1  X0031.211 Y0008.587 E12.916
G1  X0031.280 Y0008.604 E12.920
G1  X0056.975 Y0008.606 E14.094
G1  X0057.329 Y0008.637 E14.111
G1  X0057.762 Y0008.733 E14.131
G1  X0058.172 Y0008.896 E14.151
G1  X0058.186 Y0008.904 E14.152
G1  X0025.743 Y0008.904 E15.635
G1  X0026.147 Y0009.304 E15.661
G1  X0058.770 Y0009.304 E17.153
G1  X0058.890 Y0009.404 E17.160
G1  X0059.150 Y0009.704 E17.178
G1  X0026.501 Y0009.704 E18.671
G1  X0026.844 Y0010.104 E18.695
G1  X0059.408 Y0010.104 E20.184
G1  X0059.412 Y0010.112 E20.184
G1  X0059.577 Y0010.504 E20.203
G1  X0027.148 Y0010.504 E21.686
G1  X0027.156 Y0010.515 E21.687
G1  X0027.426 Y0010.904 E21.708
G1  X0059.677 Y0010.904 E23.183
G1  X0059.688 Y0010.947 E23.185
G1  X0059.716 Y0011.304 E23.201
G1  X0027.669 Y0011.304 E24.666
G1  X0027.910 Y0011.704 E24.688
G1  X0059.717 Y0011.704 E26.142
G1  X0059.703 Y0012.093 E26.160
G1  X0059.701 Y0012.104 E26.160
G1  X0028.124 Y0012.104 E27.604
G1  X0028.205 Y0012.259 E27.612
G1  X0028.313 Y0012.504 E27.624
G1  X0059.620 Y0012.504 E29.056
G1  X0059.616 Y0012.525 E29.057
G1  X0059.474 Y0012.904 E29.075
G1  X0028.489 Y0012.904 E30.492
G1  X0028.575 Y0013.099 E30.502
G1  X0028.651 Y0013.304 E30.511
G1  X0059.253 Y0013.304 E31.911
G1  X0059.243 Y0013.322 E31.912
G1  X0058.967 Y0013.666 E31.932
G1  X0058.925 Y0013.704 E31.934
G1  X0028.796 Y0013.704 E33.312
G1  X0028.920 Y0014.104 E33.331
G1  X0058.422 Y0014.104 E34.680
G1  X0058.270 Y0014.203 E34.688
G1  X0057.867 Y0014.382 E34.708
G1  X0057.440 Y0014.495 E34.728
G1  X0057.342 Y0014.504 E34.733
G1  X0029.099 Y0014.504 E36.024
G1  E34.024 F2400

(Raster 2)
G92 E0
G1  X0015.824 Y0005.704 F2400
G1  E2.00000 F2400
G1  X0006.209 Y0005.704 E2.440 F2400
G1  X0005.957 Y0005.946 E2.456
G1  X0005.805 Y0006.104 E2.466
G1  X0014.010 Y0006.104 E2.841
G1  X0013.098 Y0006.424 E2.885
G1  X0012.916 Y0006.504 E2.894
G1  X0005.428 Y0006.504 E3.236
G1  X0005.149 Y0006.814 E3.255
G1  X0005.075 Y0006.904 E3.261
G1  X0012.045 Y0006.904 E3.579
G1  X0011.823 Y0007.018 E3.591
G1  X0011.335 Y0007.299 E3.617
G1  X0011.328 Y0007.304 E3.617
G1  X0004.743 Y0007.304 E3.918
G1  X0004.433 Y0007.704 E3.941
G1  X0010.723 Y0007.704 E4.229
G1  X0010.517 Y0007.841 E4.240
G1  X0010.176 Y0008.095 E4.260
G1  X0010.165 Y0008.104 E4.260
G1  X0004.145 Y0008.104 E4.535
G1  X0004.061 Y0008.221 E4.542
G1  X0003.873 Y0008.504 E4.558
G1  X0009.684 Y0008.504 E4.823
G1  X0009.375 Y0008.779 E4.842
G1  X0009.247 Y0008.904 E4.850
G1  X0003.617 Y0008.904 E5.108
G1  X0003.423 Y0009.220 E5.125
G1  X0003.376 Y0009.304 E5.129
G1  X0008.857 Y0009.304 E5.380
G1  X0008.493 Y0009.704 E5.404
G1  X0003.150 Y0009.704 E5.649
G1  X0003.132 Y0009.737 E5.650
G1  X0002.942 Y0010.104 E5.669
G1  X0008.165 Y0010.104 E5.908
G1  X0007.857 Y0010.504 E5.931
G1  X0002.746 Y0010.504 E6.165
G1  X0002.606 Y0010.800 E6.180
G1  X0002.562 Y0010.904 E6.185
G1  X0007.575 Y0010.904 E6.414
G1  X0007.483 Y0011.041 E6.422
G1  X0007.321 Y0011.304 E6.436
G1  X0002.391 Y0011.304 E6.661
G1  X0002.373 Y0011.345 E6.663
G1  X0002.235 Y0011.704 E6.681
G1  X0007.086 Y0011.704 E6.903
G1  X0007.016 Y0011.829 E6.909
G1  X0006.874 Y0012.104 E6.923
G1  X0002.089 Y0012.104 E7.142
G1  X0001.966 Y0012.459 E7.159
G1  X0001.953 Y0012.504 E7.162
G1  X0006.682 Y0012.504 E7.378
G1  X0006.556 Y0012.779 E7.392
G1  X0006.508 Y0012.904 E7.398
G1  X0001.831 Y0012.904 E7.612
G1  X0001.793 Y0013.027 E7.617
G1  X0001.720 Y0013.304 E7.631
G1  X0006.353 Y0013.304 E7.842
G1  X0006.226 Y0013.631 E7.858
G1  X0006.202 Y0013.704 E7.862
G1  X0001.618 Y0013.704 E8.072
G1  X0001.527 Y0014.104 E8.090
G1  X0006.074 Y0014.104 E8.298
G1  X0005.964 Y0014.504 E8.317
G1  X0001.449 Y0014.504 E8.524
G1  X0001.400 Y0014.761 E8.536
G1  X0001.379 Y0014.904 E8.542
G1  X0005.869 Y0014.904 E8.747
G1  X0005.834 Y0015.056 E8.755
G1  X0005.787 Y0015.304 E8.766
G1  X0001.318 Y0015.304 E8.970
G1  X0001.312 Y0015.347 E8.972
G1  X0001.271 Y0015.704 E8.989
G1  X0005.719 Y0015.704 E9.192
G1  X0005.672 Y0016.027 E9.207
G1  X0005.664 Y0016.104 E9.211
G1  X0001.231 Y0016.104 E9.413
G1  X0001.200 Y0016.504 E9.432
G1  X0005.623 Y0016.504 E9.634
G1  X0005.621 Y0016.517 E9.635
G1  X0005.597 Y0016.904 E9.652
G1  X0001.183 Y0016.904 E9.854
G1  X0001.174 Y0017.121 E9.864
G1  X0001.173 Y0017.304 E9.872
G1  X0005.585 Y0017.304 E10.074
G1  X0005.581 Y0017.502 E10.083
G1  X0005.585 Y0017.704 E10.092
G1  X0001.171 Y0017.704 E10.294
G1  X0001.171 Y0017.795 E10.298
G1  X0001.182 Y0018.104 E10.312
G1  X0005.598 Y0018.104 E10.514
G1  X0005.622 Y0018.486 E10.532
G1  X0005.624 Y0018.504 E10.533
G1  X0001.201 Y0018.504 E10.735
G1  X0001.230 Y0018.904 E10.753
G1  X0005.665 Y0018.904 E10.956
G1  X0005.673 Y0018.976 E10.959
G1  X0005.721 Y0019.304 E10.975
G1  X0001.271 Y0019.304 E11.178
G1  X0001.300 Y0019.569 E11.190
G1  X0001.320 Y0019.704 E11.196
G1  X0005.789 Y0019.704 E11.401
G1  X0005.835 Y0019.947 E11.412
G1  X0005.871 Y0020.104 E11.419
G1  X0001.378 Y0020.104 E11.625
G1  X0001.386 Y0020.156 E11.627
G1  X0001.450 Y0020.504 E11.643
G1  X0005.967 Y0020.504 E11.850
G1  X0006.077 Y0020.902 E11.869
G1  X0006.078 Y0020.904 E11.869
G1  X0001.529 Y0020.904 E12.077
G1  X0001.618 Y0021.304 E12.096
G1  X0006.206 Y0021.304 E12.305
G1  X0006.228 Y0021.371 E12.309
G1  X0006.350 Y0021.704 E12.325
G1  X0001.721 Y0021.704 E12.536
G1  X0001.770 Y0021.892 E12.545
G1  X0001.834 Y0022.104 E12.555
G1  X0006.509 Y0022.104 E12.769
G1  X0006.586 Y0022.289 E12.778
G1  X0006.686 Y0022.504 E12.789
G1  X0001.955 Y0022.504 E13.006
G1  X0002.090 Y0022.904 E13.025
G1  X0006.880 Y0022.904 E13.244
G1  X0007.019 Y0023.174 E13.258
G1  X0007.093 Y0023.304 E13.265
G1  X0002.238 Y0023.304 E13.486
G1  X0002.341 Y0023.577 E13.500
G1  X0002.395 Y0023.704 E13.506
G1  X0007.326 Y0023.704 E13.732
G1  X0007.523 Y0024.020 E13.749
G1  X0007.581 Y0024.104 E13.753
G1  X0002.564 Y0024.104 E13.983
G1  X0002.572 Y0024.123 E13.984
G1  X0002.749 Y0024.504 E14.003
G1  X0007.859 Y0024.504 E14.236
G1  X0008.096 Y0024.821 E14.255
G1  X0008.163 Y0024.904 E14.259
G1  X0002.947 Y0024.904 E14.498
G1  X0003.092 Y0025.189 E14.512
G1  X0003.156 Y0025.304 E14.519
G1  X0008.495 Y0025.304 E14.763
G1  X0008.733 Y0025.573 E14.779
G1  X0008.859 Y0025.704 E14.787
G1  X0003.379 Y0025.704 E15.038
G1  X0003.381 Y0025.707 E15.038
G1  X0003.621 Y0026.104 E15.059
G1  X0009.257 Y0026.104 E15.317
G1  X0009.429 Y0026.269 E15.328
G1  X0009.695 Y0026.504 E15.344
G1  X0003.879 Y0026.504 E15.610
G1  X0004.014 Y0026.710 E15.621
G1  X0004.152 Y0026.904 E15.632
G1  X0010.179 Y0026.904 E15.908
G1  X0010.181 Y0026.906 E15.908
G1  X0010.576 Y0027.200 E15.930
G1  X0010.728 Y0027.304 E15.939
G1  X0004.442 Y0027.304 E16.226
G1  X0004.718 Y0027.664 E16.247
G1  X0004.751 Y0027.704 E16.249
G1  X0011.346 Y0027.704 E16.551
G1  X0011.402 Y0027.739 E16.554
G1  X0011.829 Y0027.982 E16.576
G1  X0012.067 Y0028.104 E16.589
G1  X0005.081 Y0028.104 E16.908
G1  X0005.095 Y0028.122 E16.909
G1  X0005.435 Y0028.504 E16.932
G1  X0012.931 Y0028.504 E17.275
G1  X0013.170 Y0028.603 E17.287
G1  X0013.632 Y0028.772 E17.309
G1  X0014.044 Y0028.904 E17.329
G1  X0005.813 Y0028.904 E17.706
G1  X0005.899 Y0028.994 E17.711
G1  X0006.218 Y0029.304 E17.732
G1  X0015.878 Y0029.304 E18.173
G1  E16.173 F2400

(Raster 3)
G92 E0
G1  X0028.788 Y0021.304 F2400
G1  E2.00000 F2400
G1  X0058.228 Y0021.304 E3.346 F2400
G1  X0058.551 Y0021.497 E3.363
G1  X0058.800 Y0021.704 E3.378
G1  X0028.647 Y0021.704 E4.757
G1  X0028.604 Y0021.826 E4.762
G1  X0028.489 Y0022.104 E4.776
G1  X0059.172 Y0022.104 E6.179
G1  X0059.179 Y0022.112 E6.180
G1  X0059.412 Y0022.487 E6.200
G1  X0059.420 Y0022.504 E6.201
G1  X0028.313 Y0022.504 E7.623
G1  X0028.209 Y0022.729 E7.634
G1  X0028.119 Y0022.904 E7.643
G1  X0059.586 Y0022.904 E9.082
G1  X0059.683 Y0023.304 E9.101
G1  X0027.906 Y0023.304 E10.553
G1  X0027.740 Y0023.597 E10.569
G1  X0027.673 Y0023.704 E10.575
G1  X0059.716 Y0023.704 E12.040
G1  X0059.727 Y0023.844 E12.046
G1  X0059.720 Y0024.104 E12.058
G1  X0027.418 Y0024.104 E13.535
G1  X0027.201 Y0024.422 E13.552
G1  X0027.140 Y0024.504 E13.557
G1  X0059.709 Y0024.504 E15.046
G1  X0059.703 Y0024.719 E15.056
G1  X0059.665 Y0024.904 E15.065
G1  X0026.836 Y0024.904 E16.566
G1  X0026.596 Y0025.199 E16.583
G1  X0026.504 Y0025.304 E16.589
G1  X0059.558 Y0025.304 E18.101
G1  X0059.461 Y0025.564 E18.113
G1  X0059.381 Y0025.704 E18.121
G1  X0026.140 Y0025.704 E19.640
G1  X0025.929 Y0025.924 E19.654
G1  X0025.742 Y0026.104 E19.666
G1  X0059.117 Y0026.104 E21.192
G1  X0058.967 Y0026.291 E21.203
G1  X0058.732 Y0026.504 E21.218
G1  X0025.303 Y0026.504 E22.746
G1  X0025.205 Y0026.591 E22.752
G1  X0024.822 Y0026.902 E22.775
G1  X0024.820 Y0026.904 E22.775
G1  X0058.098 Y0026.904 E24.296
G1  X0057.867 Y0027.007 E24.308
G1  X0057.440 Y0027.120 E24.328
G1  X0056.939 Y0027.168 E24.351
G1  X0030.737 Y0027.168 E25.549
G1  X0030.671 Y0027.184 E25.552
G1  X0030.619 Y0027.226 E25.555
G1  X0030.558 Y0027.304 E25.560
G1  X0024.270 Y0027.304 E25.847
G1  X0024.021 Y0027.475 E25.861
G1  X0023.653 Y0027.704 E25.881
G1  X0030.244 Y0027.704 E26.182
G1  X0030.094 Y0027.895 E26.193
G1  X0029.913 Y0028.104 E26.206
G1  X0022.932 Y0028.104 E26.525
G1  X0022.737 Y0028.205 E26.535
G1  X0022.290 Y0028.412 E26.558
G1  X0022.068 Y0028.504 E26.569
G1  X0029.561 Y0028.504 E26.911
G1  X0029.249 Y0028.839 E26.932
G1  X0029.184 Y0028.904 E26.936
G1  X0020.955 Y0028.904 E27.313
G1  X0020.903 Y0028.921 E27.315
G1  X0020.427 Y0029.052 E27.338
G1  X0019.948 Y0029.163 E27.360
G1  X0019.464 Y0029.254 E27.383
G1  X0019.121 Y0029.304 E27.398
G1  X0028.780 Y0029.304 E27.840
G1  X0028.395 Y0029.662 E27.864
G1  X0028.347 Y0029.704 E27.867
G1  X0006.652 Y0029.704 E28.859
G1  X0006.764 Y0029.806 E28.866
G1  X0007.119 Y0030.104 E28.887
G1  X0027.878 Y0030.104 E29.836
G1  X0027.484 Y0030.421 E29.859
G1  X0027.372 Y0030.504 E29.866
G1  X0007.624 Y0030.504 E30.769
G1  X0007.685 Y0030.552 E30.772
G1  X0008.166 Y0030.900 E30.799
G1  X0008.172 Y0030.904 E30.800
G1  X0026.820 Y0030.904 E31.652
G1  X0026.520 Y0031.111 E31.669
G1  X0026.217 Y0031.304 E31.685
G1  X0008.778 Y0031.304 E32.483
G1  X0009.163 Y0031.542 E32.503
G1  X0009.448 Y0031.704 E32.518
G1  X0025.552 Y0031.704 E33.255
G1  X0025.508 Y0031.730 E33.257
G1  X0024.986 Y0032.011 E33.284
G1  X0024.798 Y0032.104 E33.294
G1  X0010.193 Y0032.104 E33.961
G1  X0010.204 Y0032.110 E33.962
G1  X0010.739 Y0032.365 E33.989
G1  X0011.060 Y0032.504 E34.005
G1  X0023.940 Y0032.504 E34.594
G1  X0023.913 Y0032.516 E34.595
G1  X0023.363 Y0032.739 E34.622
G1  X0022.911 Y0032.904 E34.644
G1  X0012.091 Y0032.904 E35.139
G1  X0012.319 Y0032.985 E35.150
G1  X0012.885 Y0033.163 E35.177
G1  X0013.398 Y0033.304 E35.202
G1  X0021.600 Y0033.304 E35.577
G1  X0021.095 Y0033.428 E35.600
G1  X0020.514 Y0033.548 E35.627
G1  X0019.930 Y0033.647 E35.655
G1  X0019.495 Y0033.704 E35.675
G1  X0015.509 Y0033.704 E35.857
G1  E33.857 F2400

(Layer 2)
G1  Z0.500 F2400

(Raster 1)
G92 E0
G1  X0059.896 Y0025.352 F2400
G1  E2.00000 F2400
G1  X0059.896 Y0022.790 E2.117 F2400
G1  X0059.810 Y0022.559 E2.128
G1  X0059.705 Y0022.336 E2.140
G1  X0059.583 Y0022.121 E2.151
G1  X0059.496 Y0021.993 E2.158
G1  X0059.496 Y0026.159 E2.349
G1  X0059.369 Y0026.331 E2.358
G1  X0059.207 Y0026.517 E2.370
G1  X0059.096 Y0026.626 E2.377
G1  X0059.096 Y0021.522 E2.610
G1  X0058.937 Y0021.378 E2.620
G1  X0058.742 Y0021.228 E2.631
G1  X0058.696 Y0021.198 E2.634
G1  X0058.696 Y0026.951 E2.897
G1  X0058.639 Y0026.991 E2.900
G1  X0058.427 Y0027.117 E2.911
G1  X0058.296 Y0027.182 E2.918
G1  X0058.296 Y0020.966 E3.202
G1  X0058.092 Y0020.875 E3.212
G1  X0057.896 Y0020.806 E3.222
G1  X0057.896 Y0027.342 E3.521
G1  X0057.740 Y0027.390 E3.528
G1  X0057.502 Y0027.443 E3.539
G1  X0057.496 Y0027.444 E3.539
G1  X0057.496 Y0020.712 E3.847
G1  X0057.195 Y0020.668 E3.861
G1  X0057.096 Y0020.668 E3.866
G1  X0057.096 Y0027.481 E4.177
G1  X0056.942 Y0027.496 E4.184
G1  X0056.696 Y0027.496 E4.195
G1  X0056.696 Y0020.668 E4.508
G1  X0056.296 Y0020.668 E4.526
G1  X0056.296 Y0027.496 E4.838
G1  X0055.896 Y0027.496 E4.856
G1  X0055.896 Y0020.668 E5.169
G1  X0055.496 Y0020.667 E5.187
G1  X0055.496 Y0027.496 E5.499
G1  X0055.096 Y0027.496 E5.517
G1  X0055.096 Y0020.667 E5.830
G1  X0054.696 Y0020.667 E5.848
G1  X0054.696 Y0027.496 E6.160
G1  X0054.296 Y0027.496 E6.178
G1  X0054.296 Y0020.667 E6.491
G1  X0053.896 Y0020.666 E6.509
G1  X0053.896 Y0027.496 E6.821
G1  X0053.496 Y0027.496 E6.839
G1  X0053.496 Y0020.666 E7.152
G1  X0053.096 Y0020.666 E7.170
G1  X0053.096 Y0027.496 E7.482
G1  X0052.696 Y0027.496 E7.500
G1  X0052.696 Y0020.666 E7.813
G1  X0052.296 Y0020.666 E7.831
G1  X0052.296 Y0027.496 E8.143
G1  X0051.896 Y0027.496 E8.162
G1  X0051.896 Y0020.665 E8.474
G1  X0051.496 Y0020.665 E8.492
G1  X0051.496 Y0027.496 E8.804
G1  X0051.096 Y0027.495 E8.823
G1  X0051.096 Y0020.665 E9.135
G1  X0050.696 Y0020.665 E9.153
G1  X0050.696 Y0027.495 E9.466
G1  X0050.296 Y0027.495 E9.484
G1  X0050.296 Y0020.664 E9.796
G1  X0049.896 Y0020.664 E9.814
G1  X0049.896 Y0027.495 E10.127
G1  X0049.496 Y0027.495 E10.145
G1  X0049.496 Y0020.664 E10.457
G1  X0049.096 Y0020.664 E10.476
G1  X0049.096 Y0027.495 E10.788
G1  X0048.696 Y0027.495 E10.806
G1  X0048.696 Y0020.663 E11.119
G1  X0048.296 Y0020.663 E11.137
G1  X0048.296 Y0027.495 E11.449
G1  X0047.896 Y0027.495 E11.468
G1  X0047.896 Y0020.663 E11.780
G1  X0047.496 Y0020.663 E11.798
G1  X0047.496 Y0027.495 E12.111
G1  X0047.096 Y0027.495 E12.129
G1  X0047.096 Y0020.663 E12.441
G1  X0046.696 Y0020.662 E12.460
G1  X0046.696 Y0027.495 E12.772
G1  X0046.296 Y0027.495 E12.790
G1  X0046.296 Y0020.662 E13.103
