; Generated by RP3 on 2021-07-8
; Job 0 - 3D Cloner

G21 ; set units to millimeters
M107 ;fan off
G28 ;home all axes
G90 ;absolute coordinates
G28 E0 ;home all axes
G1 E20.0 F100.0 ;extrude 20mm material with 100 mm/min speed
G28 E0 ;home all axes
G90 ;use absolute coordinates
M82 ; use absolute distances for extrusion
G92 E0 ;home of axes
M104 S90
G1 E-2.00000 F24000 ;retracts 2mm of material
M106 S102

(Layer 1)
G1  Z0.250 F2400

(Raster 1)
G92 E0
G1  X0017.372 Y0000.850 F2400
G1  E2.00000 F2400
G1  X0003.627 Y0000.850 E2.628 F2400
G1  X0003.548 Y0000.904 E2.633
G1  X0003.096 Y0001.250 E2.659
G1  X0017.903 Y0001.250 E3.336
G1  X0017.972 Y0001.303 E3.340
G1  X0018.377 Y0001.650 E3.364
G1  X0002.622 Y0001.650 E4.084
G1  X0002.586 Y0001.681 E4.087
G1  X0002.196 Y0002.050 E4.111
G1  X0004.952 Y0002.050 E4.237
G1  X0004.934 Y0002.058 E4.238
G1  X0004.564 Y0002.252 E4.257
G1  X0004.242 Y0002.450 E4.274
G1  X0001.809 Y0002.450 E4.386
G1  X0001.694 Y0002.571 E4.393
G1  X0001.455 Y0002.850 E4.410
G1  X0003.701 Y0002.850 E4.513
G1  X0003.544 Y0002.979 E4.522
G1  X0003.254 Y0003.250 E4.540
G1  X0001.132 Y0003.250 E4.637
G1  X0000.913 Y0003.535 E4.654
G1  X0000.834 Y0003.650 E4.660
G1  X0002.891 Y0003.650 E4.754
G1  X0002.699 Y0003.886 E4.768
G1  X0002.583 Y0004.050 E4.777
G1  X0000.650 Y0004.050 E4.866
G1  X0000.650 Y0004.450 E4.884
G1  X0002.322 Y0004.450 E4.960
G1  X0002.240 Y0004.584 E4.968
G1  X0002.102 Y0004.850 E4.981
G1  X0000.650 Y0004.850 E5.048
G1  X0000.650 Y0005.250 E5.066
G1  X0001.918 Y0005.250 E5.124
G1  X0001.839 Y0005.431 E5.133
G1  X0001.826 Y0005.488 E5.136
G1  X0001.836 Y0005.545 E5.138
G1  X0001.876 Y0005.650 E5.143
G1  X0000.650 Y0005.650 E5.199
G1  X0000.650 Y0006.050 E5.218
G1  X0002.027 Y0006.050 E5.281
G1  X0002.177 Y0006.445 E5.300
G1  X0002.178 Y0006.450 E5.300
G1  X0000.650 Y0006.450 E5.370
G1  X0000.650 Y0006.850 E5.388
G1  X0002.300 Y0006.850 E5.464
G1  X0002.410 Y0007.210 E5.481
G1  X0002.419 Y0007.250 E5.483
G1  X0000.650 Y0007.250 E5.564
G1  X0000.650 Y0007.650 E5.582
G1  X0002.514 Y0007.650 E5.667
G1  X0002.606 Y0008.039 E5.686
G1  X0002.608 Y0008.050 E5.686
G1  X0000.650 Y0008.050 E5.776
G1  X0000.650 Y0008.450 E5.794
G1  X0002.674 Y0008.450 E5.887
G1  X0002.741 Y0008.850 E5.905
G1  X0000.650 Y0008.850 E6.001
G1  X0000.650 Y0009.250 E6.019
G1  X0002.780 Y0009.250 E6.116
G1  X0002.820 Y0009.650 E6.135
G1  X0000.650 Y0009.650 E6.234
G1  X0000.650 Y0010.050 E6.252
G1  X0002.835 Y0010.050 E6.352
G1  X0002.848 Y0010.450 E6.370
G1  X0000.650 Y0010.450 E6.471
G1  X0000.650 Y0010.850 E6.489
G1  X0002.838 Y0010.850 E6.589
G1  X0002.825 Y0011.250 E6.608
G1  X0000.650 Y0011.250 E6.707
G1  X0000.650 Y0011.650 E6.725
G1  X0002.790 Y0011.650 E6.823
G1  X0002.751 Y0012.050 E6.841
G1  X0000.650 Y0012.050 E6.938
G1  X0000.650 Y0012.450 E6.956
G1  X0002.691 Y0012.450 E7.049
G1  X0002.624 Y0012.850 E7.068
G1  X0000.650 Y0012.850 E7.158
G1  X0000.650 Y0013.250 E7.176
G1  X0002.538 Y0013.250 E7.263
G1  X0002.445 Y0013.650 E7.281
G1  X0000.650 Y0013.650 E7.363
G1  X0000.650 Y0014.050 E7.382
G1  X0002.331 Y0014.050 E7.459
G1  X0002.209 Y0014.450 E7.478
G1  X0000.650 Y0014.450 E7.549
G1  X0000.650 Y0014.850 E7.567
G1  X0002.065 Y0014.850 E7.632
G1  X0001.913 Y0015.250 E7.651
G1  X0000.650 Y0015.250 E7.709
G1  X0000.650 Y0015.650 E7.727
G1  X0001.874 Y0015.650 E7.783
G1  X0002.050 Y0016.050 E7.803
G1  X0000.650 Y0016.050 E7.867
G1  X0000.650 Y0016.450 E7.886
G1  X0002.261 Y0016.450 E7.959
G1  X0002.464 Y0016.781 E7.977
G1  X0002.512 Y0016.850 E7.981
G1  X0000.650 Y0016.850 E8.066
G1  X0000.650 Y0017.250 E8.084
G1  X0002.810 Y0017.250 E8.183
G1  X0002.970 Y0017.446 E8.195
G1  X0003.161 Y0017.650 E8.208
G1  X0000.650 Y0017.650 E8.322
G1  X0000.650 Y0018.050 E8.341
G1  X0003.578 Y0018.050 E8.475
G1  X0003.896 Y0018.308 E8.493
G1  X0004.098 Y0018.450 E8.505
G1  X0000.650 Y0018.450 E8.662
G1  X0000.650 Y0018.850 E8.680
G1  X0004.759 Y0018.850 E8.868
G1  E6.868 F2400

(Raster 2)
G92 E0
G1  X0006.111 Y0002.050 F2400
G1  E2.00000 F2400
G1  X0014.886 Y0002.050 E2.401 F2400
G1  X0014.530 Y0002.184 E2.419
G1  X0013.740 Y0002.423 E2.456
G1  X0013.625 Y0002.450 E2.462
G1  X0007.379 Y0002.450 E2.747
G1  E0.747 F2400

(Raster 3)
G92 E0
G1  X0016.048 Y0002.050 F2400
G1  E2.00000 F2400
G1  X0018.805 Y0002.050 E2.126 F2400
G1  X0018.879 Y0002.121 E2.131
G1  X0019.192 Y0002.450 E2.151
G1  X0016.760 Y0002.450 E2.263
G1  X0016.762 Y0002.451 E2.263
G1  X0017.104 Y0002.692 E2.282
G1  X0017.299 Y0002.850 E2.293
G1  X0019.545 Y0002.850 E2.396
G1  X0019.709 Y0003.043 E2.408
G1  X0019.868 Y0003.250 E2.420
G1  X0017.745 Y0003.250 E2.517
G1  X0018.030 Y0003.553 E2.536
G1  X0018.109 Y0003.650 E2.541
G1  X0020.166 Y0003.650 E2.636
G1  X0020.350 Y0003.918 E2.650
G1  X0020.350 Y0004.050 E2.656
G1  X0018.413 Y0004.050 E2.745
G1  X0018.535 Y0004.217 E2.754
G1  X0018.678 Y0004.450 E2.767
G1  X0020.350 Y0004.450 E2.843
G1  X0020.350 Y0004.850 E2.862
G1  X0018.898 Y0004.850 E2.928
G1  X0018.948 Y0004.946 E2.933
G1  X0019.082 Y0005.250 E2.948
G1  X0020.350 Y0005.250 E3.006
G1  X0020.350 Y0005.650 E3.024
G1  X0019.124 Y0005.650 E3.081
G1  X0018.973 Y0006.050 E3.100
G1  X0020.350 Y0006.050 E3.163
G1  X0020.350 Y0006.450 E3.181
G1  X0018.822 Y0006.450 E3.251
G1  X0018.700 Y0006.850 E3.270
G1  X0020.350 Y0006.850 E3.346
G1  X0020.350 Y0007.250 E3.364
G1  X0018.579 Y0007.250 E3.445
G1  X0018.485 Y0007.650 E3.464
G1  X0020.350 Y0007.650 E3.549
G1  X0020.350 Y0008.050 E3.567
G1  X0018.392 Y0008.050 E3.657
G1  X0018.326 Y0008.450 E3.675
G1  X0020.350 Y0008.450 E3.768
G1  X0020.350 Y0008.850 E3.786
G1  X0018.259 Y0008.850 E3.882
G1  X0018.259 Y0008.853 E3.882
G1  X0018.219 Y0009.250 E3.900
G1  X0020.350 Y0009.250 E3.998
G1  X0020.350 Y0009.650 E4.016
G1  X0018.180 Y0009.650 E4.115
G1  X0018.177 Y0009.675 E4.116
G1  X0018.165 Y0010.050 E4.133
G1  X0020.350 Y0010.050 E4.233
G1  X0020.350 Y0010.450 E4.252
G1  X0018.152 Y0010.450 E4.352
G1  X0018.150 Y0010.500 E4.354
G1  X0018.162 Y0010.850 E4.370
G1  X0020.350 Y0010.850 E4.470
G1  X0020.350 Y0011.250 E4.489
G1  X0018.175 Y0011.250 E4.588
G1  X0018.177 Y0011.325 E4.592
G1  X0018.210 Y0011.650 E4.607
G1  X0020.350 Y0011.650 E4.704
G1  X0020.350 Y0012.050 E4.723
G1  X0018.249 Y0012.050 E4.819
G1  X0018.259 Y0012.147 E4.823
G1  X0018.309 Y0012.450 E4.837
G1  X0020.350 Y0012.450 E4.931
G1  X0020.350 Y0012.850 E4.949
G1  X0018.375 Y0012.850 E5.039
G1  X0018.394 Y0012.961 E5.044
G1  X0018.462 Y0013.250 E5.058
G1  X0020.350 Y0013.250 E5.144
G1  X0020.350 Y0013.650 E5.163
G1  X0018.555 Y0013.650 E5.245
G1  X0018.582 Y0013.765 E5.250
G1  X0018.669 Y0014.050 E5.264
G1  X0020.350 Y0014.050 E5.340
G1  X0020.350 Y0014.450 E5.359
G1  X0018.791 Y0014.450 E5.430
G1  X0018.823 Y0014.555 E5.435
G1  X0018.935 Y0014.850 E5.449
G1  X0020.350 Y0014.850 E5.514
G1  X0020.350 Y0015.250 E5.532
G1  X0019.087 Y0015.250 E5.590
G1  X0019.164 Y0015.455 E5.600
G1  X0019.174 Y0015.512 E5.603
G1  X0019.161 Y0015.568 E5.605
G1  X0019.126 Y0015.650 E5.610
G1  X0020.350 Y0015.650 E5.666
G1  X0020.350 Y0016.050 E5.684
G1  X0018.950 Y0016.050 E5.748
G1  X0018.760 Y0016.416 E5.767
G1  X0018.739 Y0016.450 E5.769
G1  X0020.350 Y0016.450 E5.842
G1  X0020.350 Y0016.850 E5.860
G1  X0018.487 Y0016.850 E5.946
G1  X0018.301 Y0017.114 E5.960
G1  X0018.190 Y0017.250 E5.968
G1  X0020.350 Y0017.250 E6.067
G1  X0020.350 Y0017.650 E6.085
G1  X0017.839 Y0017.650 E6.200
G1  X0017.751 Y0017.744 E6.206
G1  X0017.456 Y0018.021 E6.225
G1  X0017.421 Y0018.050 E6.227
G1  X0020.350 Y0018.050 E6.361
G1  X0020.350 Y0018.450 E6.379
G1  X0016.902 Y0018.450 E6.537
G1  X0016.792 Y0018.529 E6.543
G1  X0016.436 Y0018.748 E6.562
G1  X0016.241 Y0018.850 E6.572
G1  X0020.350 Y0018.850 E6.760
G1  X0020.350 Y0019.250 E6.778
G1  X0000.650 Y0019.250 E7.679
G1  X0000.650 Y0019.650 E7.697
G1  X0020.350 Y0019.650 E8.598
G1  X0020.350 Y0020.050 E8.616
G1  X0000.650 Y0020.050 E9.517
G1  X0000.650 Y0020.450 E9.535
G1  X0020.350 Y0020.450 E10.436
G1  X0020.350 Y0020.850 E10.454
G1  X0011.060 Y0020.850 E10.879
G1  X0011.753 Y0021.250 E10.915
G1  X0020.350 Y0021.250 E11.308
G1  X0020.350 Y0021.650 E11.327
G1  X0012.446 Y0021.650 E11.688
G1  X0013.138 Y0022.050 E11.725
G1  X0020.350 Y0022.050 E12.054
G1  X0020.350 Y0022.450 E12.073
G1  X0013.831 Y0022.450 E12.371
G1  X0014.524 Y0022.850 E12.407
G1  X0020.350 Y0022.850 E12.674
G1  X0020.350 Y0023.250 E12.692
G1  X0015.217 Y0023.250 E12.927
G1  X0015.910 Y0023.650 E12.963
G1  X0020.290 Y0023.650 E13.163
G1  X0020.227 Y0024.050 E13.182
G1  X0016.602 Y0024.050 E13.348
G1  X0016.637 Y0024.070 E13.350
G1  X0016.692 Y0024.125 E13.353
G1  X0016.712 Y0024.200 E13.357
G1  X0016.712 Y0024.450 E13.368
G1  X0020.165 Y0024.450 E13.526
G1  X0020.103 Y0024.850 E13.544
G1  X0016.712 Y0024.850 E13.699
G1  X0016.712 Y0025.250 E13.718
G1  X0020.040 Y0025.250 E13.870
G1  X0019.978 Y0025.650 E13.888
G1  X0016.712 Y0025.650 E14.038
G1  X0016.712 Y0026.050 E14.056
G1  X0019.916 Y0026.050 E14.203
G1  X0019.853 Y0026.450 E14.221
G1  X0016.712 Y0026.450 E14.365
G1  X0016.712 Y0026.850 E14.383
G1  X0019.791 Y0026.850 E14.524
G1  X0019.729 Y0027.250 E14.542
G1  X0016.712 Y0027.250 E14.680
G1  X0016.712 Y0027.650 E14.698
G1  X0019.666 Y0027.650 E14.834
G1  X0019.604 Y0028.050 E14.852
G1  X0016.712 Y0028.050 E14.984
G1  X0016.712 Y0028.450 E15.003
G1  X0019.542 Y0028.450 E15.132
G1  X0019.480 Y0028.850 E15.150
G1  X0016.712 Y0028.850 E15.277
G1  X0016.712 Y0029.250 E15.295
G1  X0019.417 Y0029.250 E15.419
G1  X0019.355 Y0029.650 E15.437
G1  X0016.712 Y0029.650 E15.558
G1  X0016.712 Y0030.050 E15.577
G1  X0019.293 Y0030.050 E15.695
G1  X0019.230 Y0030.450 E15.713
G1  X0016.712 Y0030.450 E15.828
G1  X0016.712 Y0030.850 E15.846
G1  X0019.168 Y0030.850 E15.959
G1  X0019.106 Y0031.250 E15.977
G1  X0016.699 Y0031.250 E16.087
G1  X0016.692 Y0031.275 E16.088
G1  X0016.637 Y0031.330 E16.092
G1  X0016.279 Y0031.537 E16.111
G1  X0016.279 Y0031.650 E16.116
G1  X0019.043 Y0031.650 E16.242
G1  X0018.981 Y0032.050 E16.261
G1  X0016.279 Y0032.050 E16.384
G1  X0016.279 Y0032.450 E16.403
G1  X0018.919 Y0032.450 E16.523
G1  X0018.856 Y0032.850 E16.542
G1  X0016.279 Y0032.850 E16.660
G1  X0016.279 Y0033.250 E16.678
G1  X0018.794 Y0033.250 E16.793
G1  X0018.732 Y0033.650 E16.812
G1  X0016.279 Y0033.650 E16.924
G1  X0016.279 Y0034.050 E16.942
G1  X0018.669 Y0034.050 E17.051
G1  X0018.607 Y0034.450 E17.070
G1  X0016.279 Y0034.450 E17.176
G1  X0016.279 Y0034.850 E17.195
G1  X0018.545 Y0034.850 E17.298
G1  X0018.482 Y0035.250 E17.317
G1  X0015.910 Y0035.250 E17.434
G1  X0015.846 Y0035.287 E17.438
G1  X0015.846 Y0035.650 E17.454
G1  X0018.420 Y0035.650 E17.572
G1  X0018.358 Y0036.050 E17.590
G1  X0015.846 Y0036.050 E17.705
G1  X0015.846 Y0036.450 E17.724
G1  X0018.295 Y0036.450 E17.835
G1  X0018.233 Y0036.850 E17.854
G1  X0015.846 Y0036.850 E17.963
G1  X0015.846 Y0037.250 E17.981
G1  X0018.171 Y0037.250 E18.088
G1  X0018.108 Y0037.650 E18.106
G1  X0015.846 Y0037.650 E18.210
G1  X0015.846 Y0038.050 E18.228
G1  X0018.046 Y0038.050 E18.329
G1  X0017.984 Y0038.450 E18.347
G1  X0015.846 Y0038.450 E18.445
G1  X0015.846 Y0038.700 E18.456
G1  X0015.826 Y0038.775 E18.460
G1  X0015.771 Y0038.830 E18.463
G1  X0015.736 Y0038.850 E18.465
G1  X0017.921 Y0038.850 E18.565
G1  X0017.859 Y0039.250 E18.584
G1  X0015.413 Y0039.250 E18.695
G1  X0015.413 Y0039.650 E18.714
G1  X0017.797 Y0039.650 E18.823
G1  X0017.735 Y0040.050 E18.841
G1  X0015.413 Y0040.050 E18.947
G1  X0015.413 Y0040.450 E18.966
G1  X0017.672 Y0040.450 E19.069
G1  X0017.610 Y0040.850 E19.087
G1  X0015.413 Y0040.850 E19.188
G1  X0015.413 Y0041.250 E19.206
G1  X0017.548 Y0041.250 E19.304
G1  X0017.485 Y0041.650 E19.322
G1  X0015.413 Y0041.650 E19.417
G1  X0015.413 Y0042.050 E19.435
G1  X0017.423 Y0042.050 E19.527
G1  X0017.361 Y0042.450 E19.546
G1  X0015.413 Y0042.450 E19.635
G1  X0015.393 Y0042.525 E19.638
G1  X0015.338 Y0042.580 E19.642
G1  X0014.980 Y0042.787 E19.661
G1  X0014.980 Y0042.850 E19.664
G1  X0017.298 Y0042.850 E19.770
G1  X0017.236 Y0043.250 E19.788
G1  X0014.980 Y0043.250 E19.891
G1  X0014.980 Y0043.650 E19.909
G1  X0017.174 Y0043.650 E20.010
G1  X0017.111 Y0044.050 E20.028
G1  X0014.980 Y0044.050 E20.126
G1  X0014.980 Y0044.450 E20.144
G1  X0017.049 Y0044.450 E20.239
G1  X0016.987 Y0044.850 E20.257
G1  X0014.980 Y0044.850 E20.349
G1  X0014.980 Y0045.250 E20.367
G1  X0016.924 Y0045.250 E20.456
G1  X0016.862 Y0045.650 E20.475
G1  X0014.980 Y0045.650 E20.561
G1  X0014.980 Y0046.050 E20.579
G1  X0016.800 Y0046.050 E20.662
G1  X0016.737 Y0046.450 E20.681
G1  X0014.697 Y0046.450 E20.774
G1  X0014.547 Y0046.537 E20.782
G1  X0014.547 Y0046.850 E20.796
G1  X0016.675 Y0046.850 E20.893
G1  X0016.613 Y0047.250 E20.912
G1  X0014.547 Y0047.250 E21.006
G1  X0014.547 Y0047.650 E21.025
G1  X0016.550 Y0047.650 E21.116
G1  X0016.488 Y0048.050 E21.135
G1  X0014.547 Y0048.050 E21.223
G1  X0014.547 Y0048.450 E21.242
G1  X0016.426 Y0048.450 E21.328
G1  X0016.363 Y0048.850 E21.346
G1  X0014.547 Y0048.850 E21.429
G1  X0014.547 Y0049.250 E21.447
G1  X0016.301 Y0049.250 E21.528
G1  X0016.239 Y0049.650 E21.546
G1  X0014.547 Y0049.650 E21.624
G1  X0014.547 Y0049.950 E21.637
G1  X0014.527 Y0050.025 E21.641
G1  X0014.502 Y0050.050 E21.642
G1  X0016.176 Y0050.050 E21.719
G1  X0016.114 Y0050.450 E21.737
G1  X0014.114 Y0050.450 E21.829
G1  X0014.114 Y0050.850 E21.847
G1  X0016.052 Y0050.850 E21.936
G1  X0015.989 Y0051.250 E21.954
G1  X0014.114 Y0051.250 E22.040
G1  X0014.114 Y0051.650 E22.058
G1  X0015.927 Y0051.650 E22.141
G1  X0015.865 Y0052.050 E22.160
G1  X0014.114 Y0052.050 E22.240
G1  X0014.114 Y0052.450 E22.258
G1  X0015.803 Y0052.450 E22.335
G1  X0015.740 Y0052.850 E22.354
G1  X0014.114 Y0052.850 E22.428
G1  X0014.114 Y0053.250 E22.446
G1  X0015.678 Y0053.250 E22.518
G1  X0015.616 Y0053.650 E22.536
G1  X0014.114 Y0053.650 E22.605
G1  X0014.114 Y0053.700 E22.607
G1  X0014.094 Y0053.775 E22.611
G1  X0014.039 Y0053.830 E22.614
G1  X0013.681 Y0054.037 E22.633
G1  X0013.681 Y0054.050 E22.634
G1  X0015.553 Y0054.050 E22.720
G1  X0015.491 Y0054.450 E22.738
G1  X0013.681 Y0054.450 E22.821
G1  X0013.681 Y0054.850 E22.839
G1  X0015.429 Y0054.850 E22.919
G1  X0015.366 Y0055.250 E22.938
G1  X0013.681 Y0055.250 E23.015
G1  X0013.681 Y0055.650 E23.033
G1  X0015.304 Y0055.650 E23.107
G1  X0015.242 Y0056.050 E23.126
G1  X0013.681 Y0056.050 E23.197
G1  X0013.681 Y0056.450 E23.215
G1  X0015.179 Y0056.450 E23.284
G1  X0015.117 Y0056.850 E23.302
G1  X0013.681 Y0056.850 E23.368
G1  X0013.681 Y0057.250 E23.386
G1  X0015.055 Y0057.250 E23.449
G1  X0014.992 Y0057.650 E23.467
G1  X0013.484 Y0057.650 E23.536
G1  X0013.248 Y0057.787 E23.549
G1  X0013.248 Y0058.050 E23.561
G1  X0014.930 Y0058.050 E23.638
G1  X0014.868 Y0058.450 E23.656
G1  X0013.248 Y0058.450 E23.730
G1  X0013.248 Y0058.850 E23.749
G1  X0014.805 Y0058.850 E23.820
G1  X0014.743 Y0059.250 E23.838
G1  X0013.248 Y0059.250 E23.907
G1  X0013.248 Y0059.650 E23.925
G1  X0014.681 Y0059.650 E23.991
G1  X0014.618 Y0060.050 E24.009
G1  X0013.248 Y0060.050 E24.072
G1  X0013.248 Y0060.200 E24.079
G1  X0013.228 Y0060.275 E24.082
G1  X0013.173 Y0060.330 E24.086
G1  X0012.965 Y0060.450 E24.097
G1  X0014.556 Y0060.450 E24.169
G1  X0014.494 Y0060.850 E24.188
G1  X0012.815 Y0060.850 E24.265
G1  X0012.815 Y0061.250 E24.283
G1  X0014.431 Y0061.250 E24.357
G1  X0014.369 Y0061.650 E24.375
G1  X0012.815 Y0061.650 E24.446
G1  X0012.815 Y0062.050 E24.465
G1  X0014.307 Y0062.050 E24.533
G1  X0014.244 Y0062.450 E24.551
G1  X0012.815 Y0062.450 E24.617
G1  X0012.795 Y0062.525 E24.620
G1  X0012.740 Y0062.580 E24.624
G1  X0012.382 Y0062.787 E24.643
G1  X0012.382 Y0062.850 E24.646
G1  X0014.182 Y0062.850 E24.728
G1  X0014.120 Y0063.250 E24.746
G1  X0012.382 Y0063.250 E24.826
G1  X0012.382 Y0063.650 E24.844
G1  X0014.058 Y0063.650 E24.921
G1  X0013.995 Y0064.050 E24.939
G1  X0012.382 Y0064.050 E25.013
G1  X0012.382 Y0064.200 E25.020
G1  X0012.362 Y0064.275 E25.024
G1  X0012.307 Y0064.330 E25.027
G1  X0012.099 Y0064.450 E25.038
G1  X0013.933 Y0064.450 E25.122
G1  X0013.871 Y0064.850 E25.140
G1  X0011.406 Y0064.850 E25.253
