; Generated by RP3 on 2021-07-8
; Job 0 - 3D Cloner

G21 ; set units to millimeters
M107 ;fan off
G28 ;home all axes
G90 ;absolute coordinates
G28 E0 ;home all axes
G1 E20.0 F100.0 ;extrude 20mm material with 100 mm/min speed
G28 E0 ;home all axes
G90 ;use absolute coordinates
M82 ; use absolute distances for extrusion
G92 E0 ;home of axes
M104 S90
G1 E-2.00000 F24000 ;retracts 2mm of material
M106 S102

(Layer 1)
G1  Z0.250 F2400

(Raster 1)
G92 E0
G1  X0019.950 Y0025.830 F2400
G1  E2.00000 F2400
G1  X0019.950 Y0003.356 E3.028 F2400
G1  X0019.709 Y0003.043 E3.046
G1  X0019.550 Y0002.856 E3.057
G1  X0019.550 Y0028.398 E4.225
G1  X0019.150 Y0030.965 E4.343
G1  X0019.150 Y0015.594 E5.046
G1  X0018.952 Y0016.045 E5.069
G1  X0018.760 Y0016.416 E5.088
G1  X0018.750 Y0016.431 E5.089
G1  X0018.750 Y0033.532 E5.870
G1  X0018.350 Y0036.100 E5.989
G1  X0018.350 Y0017.044 E6.860
G1  X0018.301 Y0017.114 E6.864
G1  X0018.037 Y0017.439 E6.883
G1  X0017.950 Y0017.531 E6.889
G1  X0017.950 Y0038.667 E7.856
G1  X0017.550 Y0041.234 E7.974
G1  X0017.550 Y0017.933 E9.040
G1  X0017.456 Y0018.021 E9.046
G1  X0017.150 Y0018.272 E9.064
G1  X0017.150 Y0043.802 E10.231
G1  X0016.750 Y0046.369 E10.350
G1  X0016.750 Y0018.555 E11.621
G1  X0016.436 Y0018.748 E11.638
G1  X0016.350 Y0018.793 E11.643
G1  X0016.350 Y0023.904 E11.876
G1  X0015.950 Y0023.673 E11.897
G1  X0015.950 Y0018.993 E12.111
G1  X0015.569 Y0019.161 E12.131
G1  X0015.550 Y0019.165 E12.131
G1  X0015.550 Y0023.442 E12.327
G1  X0015.150 Y0023.211 E12.348
G1  X0015.150 Y0019.049 E12.538
G1  X0014.750 Y0018.897 E12.558
G1  X0014.750 Y0022.980 E12.745
G1  X0014.350 Y0022.750 E12.766
G1  X0014.350 Y0018.762 E12.948
G1  X0013.950 Y0018.639 E12.967
G1  X0013.950 Y0022.519 E13.145
G1  X0013.550 Y0022.288 E13.166
G1  X0013.550 Y0018.533 E13.337
G1  X0013.150 Y0018.439 E13.356
G1  X0013.150 Y0022.057 E13.522
G1  X0012.750 Y0021.826 E13.543
G1  X0012.750 Y0018.360 E13.701
G1  X0012.350 Y0018.293 E13.720
G1  X0012.350 Y0021.595 E13.871
G1  X0011.950 Y0021.364 E13.892
G1  X0011.950 Y0018.240 E14.035
G1  X0011.550 Y0018.200 E14.053
G1  X0011.550 Y0021.133 E14.187
G1  X0011.150 Y0020.902 E14.208
G1  X0011.150 Y0018.173 E14.333
G1  X0010.750 Y0018.159 E14.351
G1  X0010.750 Y0020.671 E14.466
G1  X0010.575 Y0020.570 E14.475
G1  X0010.500 Y0020.550 E14.479
G1  X0010.425 Y0020.570 E14.482
G1  X0010.350 Y0020.613 E14.486
G1  X0010.350 Y0018.156 E14.599
G1  X0009.950 Y0018.169 E14.617
G1  X0009.950 Y0020.844 E14.739
G1  X0009.550 Y0021.075 E14.760
G1  X0009.550 Y0018.191 E14.892
G1  X0009.150 Y0018.230 E14.911
G1  X0009.150 Y0021.306 E15.051
G1  X0008.750 Y0021.537 E15.072
G1  X0008.750 Y0018.277 E15.221
G1  X0008.350 Y0018.343 E15.240
G1  X0008.350 Y0021.768 E15.397
G1  X0007.950 Y0021.999 E15.418
G1  X0007.950 Y0018.416 E15.581
G1  X0007.550 Y0018.509 E15.600
G1  X0007.550 Y0022.230 E15.770
G1  X0007.150 Y0022.461 E15.791
G1  X0007.150 Y0018.610 E15.968
G1  X0006.750 Y0018.731 E15.987
G1  X0006.750 Y0022.692 E16.168
G1  X0006.350 Y0022.923 E16.189
G1  X0006.350 Y0018.861 E16.375
G1  X0005.950 Y0019.012 E16.394
G1  X0005.950 Y0023.154 E16.583
G1  X0005.550 Y0023.385 E16.605
G1  X0005.550 Y0019.162 E16.798
G1  X0005.545 Y0019.164 E16.798
G1  X0005.488 Y0019.174 E16.801
G1  X0005.431 Y0019.161 E16.803
G1  X0005.150 Y0019.038 E16.817
G1  X0005.150 Y0023.615 E17.027
G1  X0004.750 Y0023.846 E17.048
G1  X0004.750 Y0018.845 E17.276
G1  X0004.596 Y0018.766 E17.284
G1  X0004.350 Y0018.616 E17.297
G1  X0004.350 Y0024.083 E17.547
G1  E15.547 F2400

(Raster 2)
G92 E0
G1  X0019.150 Y0015.418 F2400
G1  E2.00000 F2400
G1  X0019.150 Y0005.582 E2.450 F2400
G1  X0018.823 Y0006.445 E2.492
G1  X0018.750 Y0006.685 E2.503
G1  X0018.750 Y0014.314 E2.852
G1  X0018.582 Y0013.765 E2.878
G1  X0018.394 Y0012.961 E2.916
G1  X0018.350 Y0012.697 E2.928
G1  X0018.350 Y0008.303 E3.129
G1  E1.129 F2400

(Raster 3)
G92 E0
G1  X0019.150 Y0005.406 F2400
G1  E2.00000 F2400
G1  X0019.150 Y0002.406 E2.137 F2400
G1  X0018.879 Y0002.121 E2.155
G1  X0018.750 Y0001.998 E2.163
G1  X0018.750 Y0004.568 E2.281
G1  X0018.535 Y0004.217 E2.300
G1  X0018.350 Y0003.964 E2.314
G1  X0018.350 Y0001.627 E2.421
G1  X0017.972 Y0001.303 E2.444
G1  X0017.950 Y0001.286 E2.445
G1  X0017.950 Y0003.469 E2.545
G1  X0017.735 Y0003.239 E2.559
G1  X0017.550 Y0003.068 E2.570
G1  X0017.550 Y0000.978 E2.666
G1  X0017.481 Y0000.925 E2.670
G1  X0017.150 Y0000.697 E2.688
G1  X0017.150 Y0002.729 E2.781
G1  X0017.104 Y0002.692 E2.784
G1  X0016.762 Y0002.451 E2.803
G1  X0016.750 Y0002.444 E2.804
G1  X0016.750 Y0000.650 E2.886
G1  X0016.350 Y0000.650 E2.904
G1  X0016.350 Y0002.206 E2.975
G1  X0016.030 Y0002.041 E2.992
G1  X0015.950 Y0002.006 E2.996
G1  X0015.950 Y0000.650 E3.058
G1  X0015.550 Y0000.650 E3.076
G1  X0015.550 Y0001.835 E3.130
G1  X0015.512 Y0001.826 E3.132
G1  X0015.455 Y0001.836 E3.135
G1  X0015.150 Y0001.951 E3.149
G1  X0015.150 Y0000.650 E3.209
G1  X0014.750 Y0000.650 E3.227
G1  X0014.750 Y0002.101 E3.294
G1  X0014.530 Y0002.184 E3.304
G1  X0014.350 Y0002.239 E3.313
G1  X0014.350 Y0000.650 E3.386
G1  X0013.950 Y0000.650 E3.404
G1  X0013.950 Y0002.360 E3.482
G1  X0013.740 Y0002.423 E3.492
G1  X0013.550 Y0002.467 E3.501
G1  X0013.550 Y0000.650 E3.584
G1  X0013.150 Y0000.650 E3.602
G1  X0013.150 Y0002.560 E3.690
G1  X0012.936 Y0002.610 E3.700
G1  X0012.750 Y0002.641 E3.708
G1  X0012.750 Y0000.650 E3.799
G1  X0012.350 Y0000.650 E3.818
G1  X0012.350 Y0002.706 E3.912
G1  X0012.121 Y0002.744 E3.922
G1  X0011.950 Y0002.760 E3.930
G1  X0011.950 Y0000.650 E4.027
G1  X0011.550 Y0000.650 E4.045
G1  X0011.550 Y0002.799 E4.143
G1  X0011.299 Y0002.823 E4.155
G1  X0011.150 Y0002.828 E4.161
G1  X0011.150 Y0000.650 E4.261
G1  X0010.750 Y0000.650 E4.279
G1  X0010.750 Y0002.840 E4.379
G1  X0010.474 Y0002.849 E4.392
G1  X0010.350 Y0002.844 E4.398
G1  X0010.350 Y0000.650 E4.498
G1  X0009.950 Y0000.650 E4.516
G1  X0009.950 Y0002.830 E4.616
G1  X0009.649 Y0002.820 E4.630
G1  X0009.550 Y0002.810 E4.634
G1  X0009.550 Y0000.650 E4.733
G1  X0009.150 Y0000.650 E4.751
G1  X0009.150 Y0002.770 E4.848
G1  X0008.828 Y0002.737 E4.863
G1  X0008.750 Y0002.724 E4.867
G1  X0008.750 Y0000.650 E4.962
G1  X0008.350 Y0000.650 E4.980
G1  X0008.350 Y0002.657 E5.072
G1  X0008.014 Y0002.600 E5.087
G1  X0007.950 Y0002.585 E5.090
G1  X0007.950 Y0000.650 E5.179
G1  X0007.550 Y0000.650 E5.197
G1  X0007.550 Y0002.490 E5.281
G1  X0007.210 Y0002.410 E5.297
G1  X0007.150 Y0002.391 E5.300
G1  X0007.150 Y0000.650 E5.380
G1  X0006.750 Y0000.650 E5.398
G1  X0006.750 Y0002.268 E5.472
G1  X0006.417 Y0002.166 E5.488
G1  X0006.350 Y0002.141 E5.491
G1  X0006.350 Y0000.650 E5.559
G1  X0005.950 Y0000.650 E5.578
G1  X0005.950 Y0001.989 E5.639
G1  X0005.550 Y0001.838 E5.658
G1  X0005.550 Y0000.650 E5.713
G1  X0005.150 Y0000.650 E5.731
G1  X0005.150 Y0001.963 E5.791
G1  X0004.934 Y0002.058 E5.802
G1  X0004.750 Y0002.155 E5.811
G1  X0004.750 Y0000.650 E5.880
G1  X0004.350 Y0000.650 E5.898
G1  X0004.350 Y0002.384 E5.978
G1  X0004.208 Y0002.471 E5.985
G1  X0003.950 Y0002.655 E6.000
G1  X0003.950 Y0000.650 E6.091
G1  X0003.918 Y0000.650 E6.093
G1  X0003.550 Y0000.903 E6.113
G1  X0003.550 Y0002.974 E6.208
G1  X0003.544 Y0002.979 E6.208
G1  X0003.249 Y0003.256 E6.227
G1  X0003.150 Y0003.361 E6.233
G1  X0003.150 Y0001.209 E6.332
G1  X0003.058 Y0001.279 E6.337
G1  X0002.750 Y0001.541 E6.356
G1  X0002.750 Y0003.823 E6.460
G1  X0002.699 Y0003.886 E6.464
G1  X0002.458 Y0004.227 E6.483
G1  X0002.350 Y0004.404 E6.492
G1  X0002.350 Y0001.904 E6.606
G1  X0002.135 Y0002.107 E6.620
G1  X0001.950 Y0002.302 E6.632
G1  X0001.950 Y0005.177 E6.764
G1  E4.764 F2400

(Raster 4)
G92 E0
G1  X0016.350 Y0031.496 F2400
G1  E2.00000 F2400
G1  X0016.350 Y0048.936 E2.797 F2400
G1  X0015.950 Y0051.504 E2.916
G1  X0015.950 Y0035.227 E3.660
G1  X0015.846 Y0035.287 E3.666
G1  X0015.846 Y0038.700 E3.822
G1  X0015.826 Y0038.775 E3.825
G1  X0015.771 Y0038.830 E3.829
G1  X0015.550 Y0038.958 E3.841
G1  X0015.550 Y0054.071 E4.532
G1  X0015.150 Y0056.638 E4.650
G1  X0015.150 Y0042.689 E5.288
G1  X0014.980 Y0042.787 E5.297
G1  X0014.980 Y0046.200 E5.453
G1  X0014.960 Y0046.275 E5.457
G1  X0014.905 Y0046.330 E5.460
G1  X0014.750 Y0046.419 E5.469
G1  X0014.750 Y0059.205 E6.053
G1  X0014.350 Y0061.773 E6.172
G1  X0014.350 Y0050.150 E6.703
G1  X0014.114 Y0050.287 E6.716
G1  X0014.114 Y0053.700 E6.872
G1  X0014.094 Y0053.775 E6.875
G1  X0014.039 Y0053.830 E6.879
G1  X0013.950 Y0053.881 E6.884
G1  X0013.950 Y0064.340 E7.362
G1  X0013.550 Y0066.907 E7.481
G1  X0013.550 Y0057.612 E7.906
G1  X0013.248 Y0057.787 E7.922
G1  X0013.248 Y0060.200 E8.032
G1  X0013.228 Y0060.275 E8.035
G1  X0013.173 Y0060.330 E8.039
G1  X0013.150 Y0060.343 E8.040
G1  X0013.150 Y0069.245 E8.447
G1  X0013.039 Y0069.494 E8.460
G1  X0012.891 Y0069.750 E8.473
G1  X0012.750 Y0069.934 E8.484
G1  X0012.750 Y0062.570 E8.820
G1  X0012.740 Y0062.580 E8.821
G1  X0012.382 Y0062.787 E8.840
G1  X0012.382 Y0064.200 E8.905
G1  X0012.362 Y0064.275 E8.908
G1  X0012.350 Y0064.287 E8.909
G1  X0012.350 Y0070.361 E9.187
G1  X0012.293 Y0070.414 E9.190
G1  X0011.950 Y0070.650 E9.209
G1  X0011.950 Y0068.960 E9.286
G1  X0011.893 Y0069.081 E9.293
G1  X0011.677 Y0069.355 E9.309
G1  X0011.550 Y0069.455 E9.316
G1  X0011.550 Y0070.846 E9.380
G1  X0011.517 Y0070.862 E9.381
G1  X0011.150 Y0070.970 E9.399
G1  X0011.150 Y0069.700 E9.457
G1  X0010.948 Y0069.787 E9.467
G1  X0010.750 Y0069.815 E9.476
G1  X0010.750 Y0071.032 E9.532
G1  X0010.644 Y0071.046 E9.536
G1  X0010.350 Y0071.038 E9.550
G1  X0010.350 Y0069.833 E9.605
G1  X0010.175 Y0069.817 E9.613
G1  X0009.950 Y0069.740 E9.624
G1  X0009.950 Y0070.987 E9.681
G1  X0009.758 Y0070.951 E9.690
G1  X0009.550 Y0070.877 E9.700
G1  X0009.550 Y0069.531 E9.762
G1  X0009.413 Y0069.440 E9.769
G1  X0009.175 Y0069.182 E9.785
G1  X0009.150 Y0069.140 E9.787
G1  X0009.150 Y0070.699 E9.859
G1  X0008.944 Y0070.587 E9.869
G1  X0008.750 Y0070.438 E9.881
G1  X0008.750 Y0064.363 E10.158
G1  X0008.693 Y0064.330 E10.161
G1  X0008.638 Y0064.274 E10.165
G1  X0008.618 Y0064.200 E10.168
G1  X0008.618 Y0062.787 E10.233
G1  X0008.350 Y0062.632 E10.247
G1  X0008.350 Y0070.065 E10.587
G1  X0008.109 Y0069.750 E10.605
G1  X0007.961 Y0069.494 E10.619
G1  X0007.950 Y0069.470 E10.620
G1  X0007.950 Y0060.401 E11.034
G1  X0007.827 Y0060.330 E11.041
G1  X0007.772 Y0060.274 E11.045
G1  X0007.752 Y0060.200 E11.048
G1  X0007.752 Y0057.787 E11.158
G1  X0007.550 Y0057.670 E11.169
G1  X0007.550 Y0067.547 E11.621
G1  X0007.150 Y0064.980 E11.739
G1  X0007.150 Y0053.939 E12.244
G1  X0006.961 Y0053.830 E12.254
G1  X0006.906 Y0053.774 E12.258
G1  X0006.886 Y0053.700 E12.261
G1  X0006.886 Y0050.287 E12.417
G1  X0006.750 Y0050.208 E12.425
G1  X0006.750 Y0062.412 E12.982
G1  X0006.350 Y0059.845 E13.101
G1  X0006.350 Y0046.477 E13.712
G1  X0006.095 Y0046.330 E13.726
G1  X0006.040 Y0046.274 E13.730
G1  X0006.020 Y0046.200 E13.733
G1  X0006.020 Y0042.787 E13.889
G1  X0005.950 Y0042.746 E13.893
G1  X0005.950 Y0057.278 E14.557
G1  X0005.550 Y0054.711 E14.676
G1  X0005.550 Y0039.015 E15.394
G1  X0005.229 Y0038.830 E15.411
G1  X0005.174 Y0038.774 E15.414
G1  X0005.154 Y0038.700 E15.418
G1  X0005.154 Y0035.287 E15.574
G1  X0005.150 Y0035.284 E15.574
G1  X0005.150 Y0052.144 E16.345
G1  X0004.750 Y0049.577 E16.463
G1  X0004.750 Y0035.034 E17.128
G1  X0004.741 Y0035.024 E17.129
G1  X0004.721 Y0034.950 E17.132
G1  X0004.721 Y0031.537 E17.289
G1  X0004.363 Y0031.330 E17.307
G1  X0004.350 Y0031.317 E17.308
G1  X0004.350 Y0047.009 E18.026
G1  X0003.950 Y0044.442 E18.145
G1  X0003.950 Y0018.346 E19.338
G1  X0003.896 Y0018.308 E19.341
G1  X0003.571 Y0018.045 E19.360
G1  X0003.550 Y0018.025 E19.361
G1  X0003.550 Y0041.875 E20.452
G1  X0003.150 Y0039.308 E20.570
G1  X0003.150 Y0017.638 E21.561
G1  X0002.970 Y0017.446 E21.573
G1  X0002.750 Y0017.177 E21.589
G1  X0002.750 Y0036.741 E22.483
G1  X0002.350 Y0034.174 E22.602
G1  X0002.350 Y0016.596 E23.406
G1  X0002.245 Y0016.425 E23.415
G1  X0002.052 Y0016.054 E23.434
G1  X0001.950 Y0015.822 E23.446
G1  X0001.950 Y0031.606 E24.167
G1  X0001.550 Y0029.039 E24.286
G1  X0001.550 Y0002.739 E25.489
G1  X0001.291 Y0003.043 E25.507
G1  X0001.150 Y0003.226 E25.517
G1  X0001.150 Y0026.472 E26.580
G1  X0000.750 Y0023.905 E26.699
G1  X0000.750 Y0003.772 E27.620
G1  E25.620 F2400

(Raster 5)
G92 E0
G1  X0011.950 Y0067.435 F2400
G1  E2.00000 F2400
G1  X0011.950 Y0064.536 E2.133 F2400
G1  X0011.550 Y0064.767 E2.154
G1  X0011.550 Y0066.945 E2.253
G1  X0011.451 Y0066.853 E2.259
G1  X0011.150 Y0066.692 E2.275
G1  X0011.150 Y0064.998 E2.352
G1  X0010.750 Y0065.229 E2.374
G1  X0010.750 Y0066.584 E2.436
G1  X0010.564 Y0066.552 E2.444
G1  X0010.350 Y0066.572 E2.454
G1  X0010.350 Y0065.287 E2.513
G1  X0009.950 Y0065.056 E2.534
G1  X0009.950 Y0066.660 E2.607
G1  X0009.732 Y0066.741 E2.618
G1  X0009.550 Y0066.870 E2.628
G1  X0009.550 Y0064.825 E2.722
G1  X0009.150 Y0064.594 E2.743
G1  X0009.150 Y0067.266 E2.865
G1  E0.865 F2400

(Raster 6)
G92 E0
G1  X0002.750 Y0008.942 F2400
G1  E2.00000 F2400
G1  X0002.750 Y0012.058 E2.142 F2400
G1  X0002.741 Y0012.147 E2.147
G1  X0002.606 Y0012.961 E2.184
G1  X0002.418 Y0013.765 E2.222
G1  X0002.350 Y0013.986 E2.233
G1  X0002.350 Y0007.014 E2.551
G1  X0002.177 Y0006.445 E2.579
G1  X0001.950 Y0005.847 E2.608
G1  X0001.950 Y0015.153 E3.033
G1  E1.033 F2400

(Layer 2)
G1  Z0.500 F2400

(Raster 1)
G92 E0
G1  X0017.370 Y0000.850 F2400
G1  E2.00000 F2400
G1  X0003.627 Y0000.850 E2.628 F2400
G1  X0003.574 Y0000.886 E2.631
G1  X0003.096 Y0001.250 E2.659
G1  X0017.900 Y0001.250 E3.336
G1  X0018.002 Y0001.329 E3.341
G1  X0018.374 Y0001.650 E3.364
G1  X0002.622 Y0001.650 E4.084
G1  X0002.615 Y0001.656 E4.085
G1  X0002.196 Y0002.050 E4.111
G1  X0004.956 Y0002.050 E4.237
G1  X0004.911 Y0002.070 E4.239
G1  X0004.542 Y0002.266 E4.258
G1  X0004.245 Y0002.450 E4.274
G1  X0001.809 Y0002.450 E4.386
G1  X0001.693 Y0002.571 E4.393
G1  X0001.455 Y0002.850 E4.410
G1  X0003.702 Y0002.850 E4.513
G1  X0003.526 Y0002.996 E4.523
G1  X0003.254 Y0003.250 E4.540
G1  X0001.132 Y0003.250 E4.637
G1  X0000.913 Y0003.535 E4.654
G1  X0000.834 Y0003.650 E4.660
G1  X0002.891 Y0003.650 E4.754
G1  X0002.699 Y0003.886 E4.768
G1  X0002.583 Y0004.050 E4.777
G1  X0000.650 Y0004.050 E4.866
G1  X0000.650 Y0004.450 E4.884
G1  X0002.322 Y0004.450 E4.961
G1  X0002.240 Y0004.584 E4.968
G1  X0002.102 Y0004.850 E4.981
G1  X0000.650 Y0004.850 E5.048
G1  X0000.650 Y0005.250 E5.066
G1  X0001.918 Y0005.250 E5.124
G1  X0001.839 Y0005.431 E5.133
G1  X0001.826 Y0005.488 E5.136
G1  X0001.836 Y0005.545 E5.138
G1  X0001.876 Y0005.650 E5.144
G1  X0000.650 Y0005.650 E5.200
G1  X0000.650 Y0006.050 E5.218
G1  X0002.027 Y0006.050 E5.281
G1  X0002.177 Y0006.445 E5.300
G1  X0002.178 Y0006.450 E5.300
G1  X0000.650 Y0006.450 E5.370
G1  X0000.650 Y0006.850 E5.389
G1  X0002.300 Y0006.850 E5.464
G1  X0002.418 Y0007.235 E5.482
G1  X0002.421 Y0007.250 E5.483
G1  X0000.650 Y0007.250 E5.564
G1  X0000.650 Y0007.650 E5.582
G1  X0002.515 Y0007.650 E5.668
G1  X0002.606 Y0008.039 E5.686
G1  X0002.608 Y0008.050 E5.686
G1  X0000.650 Y0008.050 E5.776
G1  X0000.650 Y0008.450 E5.794
G1  X0002.674 Y0008.450 E5.887
G1  X0002.741 Y0008.850 E5.905
G1  X0000.650 Y0008.850 E6.001
G1  X0000.650 Y0009.250 E6.019
G1  X0002.780 Y0009.250 E6.117
G1  X0002.820 Y0009.650 E6.135
G1  X0000.650 Y0009.650 E6.234
G1  X0000.650 Y0010.050 E6.252
G1  X0002.835 Y0010.050 E6.352
G1  X0002.848 Y0010.450 E6.371
G1  X0000.650 Y0010.450 E6.471
G1  X0000.650 Y0010.850 E6.489
G1  X0002.838 Y0010.850 E6.589
G1  X0002.825 Y0011.250 E6.608
G1  X0000.650 Y0011.250 E6.707
G1  X0000.650 Y0011.650 E6.725
G1  X0002.790 Y0011.650 E6.823
G1  X0002.751 Y0012.050 E6.842
G1  X0000.650 Y0012.050 E6.938
G1  X0000.650 Y0012.450 E6.956
G1  X0002.691 Y0012.450 E7.049
G1  X0002.624 Y0012.850 E7.068
G1  X0000.650 Y0012.850 E7.158
G1  X0000.650 Y0013.250 E7.176
G1  X0002.538 Y0013.250 E7.263
G1  X0002.445 Y0013.650 E7.282
G1  X0000.650 Y0013.650 E7.364
G1  X0000.650 Y0014.050 E7.382
G1  X0002.331 Y0014.050 E7.459
G1  X0002.209 Y0014.450 E7.478
G1  X0000.650 Y0014.450 E7.549
G1  X0000.650 Y0014.850 E7.567
